%
<UN4313_9100_90_OP10>(--UN4313_9100_90_OP10)
( CREATED BY HYPERMILL 2025 OPEN MIND TECHNOLOGIES AG )
( TOOL LIST BEGIN )
( T191 R25. R20.8 L140. INSERT MILL D50.00 R0.80  MITSUBISHI - ASX400-050A05R + SOMT12T308PEER-JH MP6120  )
( T20000023 D6.8 L110. SOLID CARBIDE DRILL D6.80  SECO - SD1103A-0680-024-08R1  LT=110 BT40-ER32X070 )
( T198 D9.8 L140. SOLID CARBIDE DRILL D9.80  OSG - 30210980  LT=140 BT40-SHRINKFIT-D10X090 )
( T194 R1.5 R20. L120. SOLID CARBIDE CHAMFER MILL D6.0 K90  OSG - 20900600  )
( T199 D10. L148. REAMER D10 H7  OSG - 8901000  LT=148 BT40-HYDRO-D10X090 )
( T22000015 R2.85 R20. L110. THREAD MILL D5.70 M P1.25  OSG - 8331004  LT=110 BT40-ER32X070 )
( T193 R5. R20. L130. SQUARE END MILL D10.00  OSG - EP019810  )
( T11000066 R1.5 R20. L115. SQUARE END MILL D3.00  OSG - EP019803  LT=115 BT40-SHRINKFIT-D06X090 )
( TOOL LIST END )
( PROGRAM BEGIN )
M145 (CANCEL INTERFERANCE)
M301
M11 M71 ( CLAMP OFF B, C )
G80 G40
G90 G17
G49
G69
( ORIGIN LIST BEGIN )
( ORIGIN DEFINITION )
( ORIGIN LIST END )
( SAFE POS. PROGRAM BEGIN )
G0 G53 Z-1.
G0 G53 X-394. Y-1.
G0 B0. C0.
( --- )
G54
( TOOL 191: INSERT MILL D50.00 R0.80  MITSUBISHI - ASX400-050A05R + SOMT12T308PEER-JH MP6120  )
( BEFORE TOOL CHANGE )
T191 M6
T20000023
( AFTER TOOL CHANGE )
G05 P10000
( OPERATION 100: T191 3D OPTIMIZED ROUGHING )
G0 G43 H#544
G65 P7000 A140. B10. C-0.02 D#5083
G49
#900=4428. (XY FEEDRATE)
#901=886. (Z FEEDRATE)
#907=3.3874*#900 (CLEARANCE FEEDRATE)
S5904.
M3
M8
G0 B0. C0.
M10 M70 ( CLAMP ON B, C )
G0 G91 G43.4 H#544 Z-0.01
G90
G0 X-171.7293 Y0.0458
G0 Z201.01
G0 Z156.51
G1 Z151.51 F#901
G1 X-164.7293 Y0.0454 F#900
G1 X-140.9798 Y0.044
G1 X-140.9715 Y135.9729
G1 X-140.8954 Y136.8411
G1 X-140.6698 Y137.683
G1 X-140.3015 Y138.4728
G1 X-139.8016 Y139.1867
G1 X-139.1853 Y139.8029
G1 X-138.4714 Y140.3028
G1 X-137.6815 Y140.6711
G1 X-136.8397 Y140.8967
G1 X-135.9715 Y140.9726
G1 X135.9839 Y140.9737
G1 X136.8521 Y140.8978
G1 X137.694 Y140.6722
G1 X138.4839 Y140.3038
G1 X139.1979 Y139.8039
G1 X139.8142 Y139.1876
G1 X140.3141 Y138.4736
G1 X140.6824 Y137.6837
G1 X140.908 Y136.8418
G1 X140.9839 Y135.9735
G1 X140.9703 Y-135.9698
G1 X140.8943 Y-136.838
G1 X140.6687 Y-137.6798
G1 X140.3004 Y-138.4697
G1 X139.8005 Y-139.1836
G1 X139.1842 Y-139.7998
G1 X138.4703 Y-140.2997
G1 X137.6804 Y-140.668
G1 X136.8386 Y-140.8936
G1 X135.9704 Y-140.9695
G1 X-135.9881 Y-140.9706
G1 X-136.8564 Y-140.8947
G1 X-137.6983 Y-140.6691
G1 X-138.4882 Y-140.3007
G1 X-139.2022 Y-139.8008
G1 X-139.8184 Y-139.1844
G1 X-140.3183 Y-138.4704
G1 X-140.6867 Y-137.6805
G1 X-140.9122 Y-136.8386
G1 X-140.9881 Y-135.9703
G1 X-140.9798 Y0.044
G1 X-140.9215 Y1.336
G1 X-140.7473 Y2.6176
G1 X-140.4587 Y3.8784
G1 X-140.0579 Y5.1081
G1 X-139.5481 Y6.2968
G1 X-138.9336 Y7.4349
G1 X-119.0687 Y40.5671
G1 X-118.4542 Y41.7051
G1 X-117.9445 Y42.8938
G1 X-117.5437 Y44.1234
G1 X-117.255 Y45.384
G1 X-117.0808 Y46.6656
G1 X-117.0225 Y47.9575
G1 X-117.016 Y112.0152
G1 X-116.94 Y112.8834
G1 X-116.7143 Y113.7252
G1 X-116.346 Y114.515
G1 X-115.8461 Y115.2289
G1 X-115.2298 Y115.8451
G1 X-114.5159 Y116.3449
G1 X-113.726 Y116.7132
G1 X-112.8842 Y116.9388
G1 X-112.016 Y117.0147
G1 X112.0328 Y117.0156
G1 X112.901 Y116.9397
G1 X113.7429 Y116.7141
G1 X114.5329 Y116.3457
G1 X115.2468 Y115.8457
G1 X115.8631 Y115.2294
G1 X116.363 Y114.5154
G1 X116.7313 Y113.7254
G1 X116.9569 Y112.8835
G1 X117.0328 Y112.0152
G1 X117.0143 Y-112.012
G1 X116.9383 Y-112.8802
G1 X116.7127 Y-113.722
G1 X116.3443 Y-114.5119
G1 X115.8444 Y-115.2257
G1 X115.2281 Y-115.842
G1 X114.5142 Y-116.3418
G1 X113.7244 Y-116.7101
G1 X112.8825 Y-116.9357
G1 X112.0143 Y-117.0116
G1 X-112.0387 Y-117.0125
G1 X-112.907 Y-116.9366
G1 X-113.7489 Y-116.711
G1 X-114.5389 Y-116.3426
G1 X-115.2528 Y-115.8426
G1 X-115.8691 Y-115.2263
G1 X-116.369 Y-114.5122
G1 X-116.7373 Y-113.7223
G1 X-116.9629 Y-112.8803
G1 X-117.0387 Y-112.012
G1 X-117.0225 Y47.9575
G1 X-116.9511 Y49.2357
G1 X-116.7381 Y50.498
G1 X-116.3861 Y51.7288
G1 X-115.8995 Y52.9129
G1 X-115.2843 Y54.0355
G1 X-114.5482 Y55.0828
G1 X-95.535 Y79.1626
G1 X-94.7988 Y80.2099
G1 X-94.1836 Y81.3326
G1 X-93.697 Y82.5166
G1 X-93.345 Y83.7474
G1 X-93.132 Y85.0097
G1 X-93.0606 Y86.2879
G1 X-93.0604 Y88.0573
G1 X-92.9844 Y88.9255
G1 X-92.7588 Y89.7673
G1 X-92.3904 Y90.5571
G1 X-91.8905 Y91.271
G1 X-91.2742 Y91.8872
G1 X-90.5603 Y92.387
G1 X-89.7705 Y92.7553
G1 X-88.9286 Y92.9809
G1 X-88.0605 Y93.0568
G1 X88.0728 Y93.0575
G1 X88.9411 Y92.9816
G1 X89.783 Y92.756
G1 X90.5729 Y92.3876
G1 X91.2869 Y91.8876
G1 X91.9032 Y91.2713
G1 X92.4031 Y90.5573
G1 X92.7714 Y89.7673
G1 X92.9969 Y88.9254
G1 X93.0728 Y88.0571
G1 X93.0583 Y-88.0541
G1 X92.9823 Y-88.9223
G1 X92.7566 Y-89.7641
G1 X92.3883 Y-90.554
G1 X91.8884 Y-91.2678
G1 X91.2721 Y-91.8841
G1 X90.5582 Y-92.3839
G1 X89.7683 Y-92.7522
G1 X88.9265 Y-92.9778
G1 X88.0583 Y-93.0537
G1 X-88.0783 Y-93.0544
G1 X-88.9466 Y-92.9785
G1 X-89.7885 Y-92.7529
G1 X-90.5784 Y-92.3845
G1 X-91.2924 Y-91.8845
G1 X-91.9087 Y-91.2682
G1 X-92.4086 Y-90.5541
G1 X-92.7769 Y-89.7642
G1 X-93.0024 Y-88.9222
G1 X-93.0783 Y-88.0539
G1 X-93.0606 Y86.2879
G1 X-92.9813 Y87.239
G1 X-92.7458 Y88.1638
G1 X-92.3606 Y89.0369
G1 X-91.8362 Y89.8343
G1 X-91.1872 Y90.534
G1 X-90.4314 Y91.1167
G1 X-89.5896 Y91.5664
G1 X-88.685 Y91.8706
G1 X-87.7426 Y92.021
G1 X-86.7882 Y92.0135
G1 X-85.8483 Y91.8482
G1 X-84.9487 Y91.5297
G1 X-84.1141 Y91.0668
G1 X-52.7198 Y70.0695
G1 X-51.9833 Y69.6519
G1 X-51.1935 Y69.3469
G1 X-50.3675 Y69.1613
G1 X-49.5232 Y69.099
G1 X64.1128 Y69.0994
G1 X64.9811 Y69.0235
G1 X65.823 Y68.7979
G1 X66.6129 Y68.4295
G1 X67.3269 Y67.9296
G1 X67.9432 Y67.3132
G1 X68.4431 Y66.5992
G1 X68.8114 Y65.8092
G1 X69.0369 Y64.9673
G1 X69.1128 Y64.099
G1 X69.1023 Y-64.0962
G1 X69.0262 Y-64.9644
G1 X68.8006 Y-65.8062
G1 X68.4323 Y-66.5961
G1 X67.9323 Y-67.3099
G1 X67.3161 Y-67.9262
G1 X66.6022 Y-68.426
G1 X65.8123 Y-68.7943
G1 X64.9705 Y-69.0199
G1 X64.1023 Y-69.0958
G1 X-64.1179 Y-69.0963
G1 X-64.9862 Y-69.0204
G1 X-65.8281 Y-68.7948
G1 X-66.618 Y-68.4264
G1 X-67.332 Y-67.9264
G1 X-67.9483 Y-67.3101
G1 X-68.4482 Y-66.596
G1 X-68.8165 Y-65.8061
G1 X-69.042 Y-64.9641
G1 X-69.1179 Y-64.0958
G1 X-69.1073 Y40.144
G1 X-69.0312 Y41.6201
G1 X-68.8038 Y43.0806
G1 X-68.4277 Y44.5101
G1 X-67.9068 Y45.8934
G1 X-67.2466 Y47.2159
G1 X-66.4541 Y48.4635
G1 X-65.5376 Y49.6233
G1 X-64.5069 Y50.6827
G1 X-63.3728 Y51.6307
G1 X-62.1474 Y52.4573
G1 X-60.8436 Y53.1536
G1 X-59.4752 Y53.7124
G1 X-58.0566 Y54.1277
G1 X-56.6029 Y54.3951
G1 X-55.1294 Y54.5118
G1 X-53.6517 Y54.4766
G1 X-52.1854 Y54.2898
G1 X-2.6339 Y45.3686
G1 X-1.3654 Y45.1982
G1 X-0.0868 Y45.1412
G1 X40.1528 Y45.1413
G1 X41.0211 Y45.0654
G1 X41.863 Y44.8398
G1 X42.653 Y44.4714
G1 X43.3669 Y43.9715
G1 X43.9832 Y43.3551
G1 X44.4831 Y42.6411
G1 X44.8514 Y41.8511
G1 X45.077 Y41.0092
G1 X45.1529 Y40.1409
G1 X45.1462 Y-40.1383
G1 X45.0702 Y-41.0065
G1 X44.8446 Y-41.8483
G1 X44.4762 Y-42.6381
G1 X43.9763 Y-43.352
G1 X43.36 Y-43.9682
G1 X42.6461 Y-44.4681
G1 X41.8563 Y-44.8364
G1 X41.0145 Y-45.062
G1 X40.1463 Y-45.1379
G1 X-40.1574 Y-45.1382
G1 X-41.0257 Y-45.0623
G1 X-41.8676 Y-44.8367
G1 X-42.6576 Y-44.4683
G1 X-43.3715 Y-43.9683
G1 X-43.9878 Y-43.352
G1 X-44.4877 Y-42.638
G1 X-44.856 Y-41.848
G1 X-45.0816 Y-41.006
G1 X-45.1574 Y-40.1377
G1 X-45.1493 Y40.1415
G1 X-45.0733 Y41.0097
G1 X-44.8476 Y41.8515
G1 X-44.4793 Y42.6413
G1 X-43.9794 Y43.3552
G1 X-43.3631 Y43.9714
G1 X-42.6492 Y44.4712
G1 X-41.8593 Y44.8395
G1 X-41.0175 Y45.0651
G1 X-40.1493 Y45.141
G1 X-0.0868 Y45.1412
G1 X0.7502 Y45.0799
G1 X1.5693 Y44.8975
G1 X2.3532 Y44.5978
G1 X3.085 Y44.1872
G1 X3.7493 Y43.6745
G1 X4.3319 Y43.0705
G1 X4.8204 Y42.3881
G1 X17.1532 Y22.1938
G1 X17.6502 Y21.5012
G1 X18.2442 Y20.8897
G1 X19.5752 Y19.8656
G1 X20.1359 Y19.2577
G1 X20.5887 Y18.5658
G1 X20.9213 Y17.8086
G1 X21.1246 Y17.007
G1 X21.1929 Y16.1828
G1 X21.1902 Y-16.1804
G1 X21.1142 Y-17.0486
G1 X20.8886 Y-17.8904
G1 X20.5202 Y-18.6802
G1 X20.0203 Y-19.3941
G1 X19.404 Y-20.0103
G1 X18.6901 Y-20.5102
G1 X17.9002 Y-20.8785
G1 X17.0584 Y-21.1041
G1 X16.1902 Y-21.18
G1 X-16.197 Y-21.1801
G1 X-17.0653 Y-21.1042
G1 X-17.9072 Y-20.8786
G1 X-18.6972 Y-20.5102
G1 X-19.4111 Y-20.0102
G1 X-20.0274 Y-19.3939
G1 X-20.5273 Y-18.6799
G1 X-20.8956 Y-17.8899
G1 X-21.1211 Y-17.0479
G1 X-21.197 Y-16.1796
G1 X-21.1937 Y16.1836
G1 X-21.1177 Y17.0518
G1 X-20.8921 Y17.8936
G1 X-20.5237 Y18.6834
G1 X-20.0238 Y19.3973
G1 X-19.4075 Y20.0135
G1 X-18.6936 Y20.5133
G1 X-17.9037 Y20.8816
G1 X-17.0619 Y21.1072
G1 X-16.1938 Y21.1831
G1 X16.1929 Y21.1832
G1 X16.9121 Y21.1313
G1 X17.6163 Y20.9763
G1 X18.291 Y20.7218
G1 X18.922 Y20.3728
G1 X-0.0868 Y45.1412
G1 X-69.1073 Y40.144
G1 X-69.1049 Y64.0994
G1 X-69.0288 Y64.9676
G1 X-68.8032 Y65.8094
G1 X-68.4348 Y66.5992
G1 X-67.9349 Y67.3131
G1 X-67.3186 Y67.9293
G1 X-66.6047 Y68.4291
G1 X-65.8149 Y68.7974
G1 X-64.9731 Y69.023
G1 X-64.1049 Y69.0989
G1 X-49.5232 Y69.099
G1 X-48.2611 Y69.1124 Z151.5394
G1 X-46.9994 Y69.1369 Z151.6246
G1 X-45.5869 Y69.1845 Z151.7758
G1 X-43.8306 Y69.2889 Z152.0187
G1 X-42.2094 Y69.4321 Z152.2598
G1 X-40.7187 Y69.6124 Z152.4616
G1 X-39.354 Y69.8282 Z152.6049
G1 X-38.1105 Y70.0777 Z152.6858
G1 X-36.9995 Y70.3554 Z152.71
G1 X-36.9837 Y70.3593 F#907
G1 X-35.969 Y70.6713
G1 X-35.0618 Y71.012
G1 X-34.2574 Y71.3796
G1 X-33.5514 Y71.7726
G1 X-32.939 Y72.1893
G1 X-32.4156 Y72.6278
G1 X-31.9768 Y73.0866
G1 X-31.6177 Y73.564
G1 X-31.334 Y74.0583
G1 X-31.1209 Y74.5677
G1 X-30.9738 Y75.0907
G1 X-30.8882 Y75.6254
G1 X-30.8594 Y76.1703
G1 X-30.8829 Y76.7236
G1 X-30.954 Y77.2837
G1 X-31.0681 Y77.8489
G1 X-31.407 Y78.9876
G1 X-31.8628 Y80.1263
G1 X-32.3986 Y81.2515
G1 X-34.1178 Y84.4109
G1 X-34.6054 Y85.347
G1 X-34.9889 Y86.2021
G1 X-35.2314 Y86.9627
G1 X-35.2882 Y87.3033
G1 X-35.2961 Y87.6152
G1 X-35.2502 Y87.8967
G1 X-35.1462 Y88.1462
G1 X-34.9792 Y88.3618
G1 X-34.7448 Y88.5421
G1 X-34.4383 Y88.6852
G1 X-34.0551 Y88.7895
G1 X-33.5907 Y88.8532
G1 X-33.0404 Y88.8748
G1 X-32.3995 Y88.8525
G1 X-30.828 Y88.6694
G1 X-28.8393 Y88.2905
G1 X-26.3966 Y87.7024
G1 X-24.9934 Y87.3256
G1 X-21.8006 Y86.3981
G1 X-18.0616 Y85.2275
G1 X-12.5038 Y83.4369
G1 X-6.9459 Y81.6462
G1 X-1.388 Y79.8555
G1 X4.1699 Y78.0648
G1 X9.7278 Y76.2741
G1 X15.2857 Y74.4834
G1 X20.8436 Y72.6927
G1 X26.4014 Y70.9021
G1 X31.9593 Y69.1114
G1 X37.5172 Y67.3207
G1 X43.0751 Y65.53
G1 X48.633 Y63.7393
G1 X54.1909 Y61.9486
G1 X59.7488 Y60.1579
G1 X65.3066 Y58.3672
G1 X70.8645 Y56.5766
G1 X76.4224 Y54.7859
G1 X81.9803 Y52.9952
G1 X87.5382 Y51.2045
G1 X93.0961 Y49.4138
G1 X98.654 Y47.6231
G1 X104.2118 Y45.8324
G1 X109.7697 Y44.0418
G1 X115.3276 Y42.2511
G1 X120.8855 Y40.4604
G1 X126.4434 Y38.6697
G1 X132.0013 Y36.879
G1 X137.5592 Y35.0883
G1 X143.117 Y33.2976
G1 X149.2057 Y31.3197
G1 X150.2881 Y30.8434
G1 X151.3932 Y30.2395
G1 X152.5147 Y29.5175
G1 X153.0797 Y29.1153
G1 X154.2141 Y28.2341
G1 X155.3495 Y27.2586
G1 X156.4795 Y26.1985
G1 X157.5979 Y25.0631
G1 X158.6986 Y23.8622
G1 X159.7753 Y22.6051
G1 X160.8218 Y21.3014
G1 X161.8318 Y19.9607
G1 X162.7991 Y18.5924
G1 X163.7176 Y17.2062
G1 X164.581 Y15.8115
G1 X165.3831 Y14.4179
G1 X166.1177 Y13.0349
G1 X167.0009 Y11.1617
G1 X167.3594 Y10.3389 Z152.5182
G1 X167.854 Y9.0449 Z152.2221
G1 X168.2563 Y7.7997 Z151.9424
G1 X168.5599 Y6.6127 Z151.6805
G1 X168.7587 Y5.4936 Z151.4375
G1 X168.8464 Y4.4518 Z151.214
G1 X168.8168 Y3.4969 Z151.0097
G1 X168.6637 Y2.6383 Z150.8231
G1 X168.5389 Y2.2482 Z150.7356
G1 X168.3809 Y1.8857 Z150.6511
G1 X168.1889 Y1.5521 Z150.5688
G1 X168.0012 Y1.3008 Z150.5018
G1 X167.9622 Y1.2486 Z150.4878 F#900
G1 X167.6999 Y0.9763 Z150.407
G1 X167.4013 Y0.7365 Z150.3252
G1 X167.0014 Y0.5008 Z150.2259
G1 X166.692 Y0.3589 Z150.2242
G1 X166.2798 Y0.2235 Z150.2222
G1 X165.8282 Y0.1254 Z150.2199
G1 X165.3363 Y0.0656 Z150.2176
G1 X164.8035 Y0.0454 Z150.215
G1 X141.051 Y0.0464
G1 X141.0455 Y-139.1222
G1 X141.2806 Y-139.5472
G1 X141.3511 Y-140.0276
G1 X141.248 Y-140.5022
G1 X140.7719 Y-140.7107
G1 X140.5228 Y-140.9074
G1 X140.2268 Y-141.022
G1 X140.0907 Y-141.037
G1 X128.2103 Y-141.0428
G1 X63.2128 Y-141.0436
G1 X62.594 Y-140.969
G1 X62.0106 Y-140.7495
G1 X61.4961 Y-140.3976
G1 X61.0799 Y-139.9336
G1 X60.7859 Y-139.384
G1 X60.6309 Y-138.7802
G1 X60.6239 Y-138.157
G1 X60.7651 Y-137.5498
G1 X61.0466 Y-136.9937
G1 X61.4521 Y-136.5204
G1 X61.9586 Y-136.1569
G1 X65.811 Y-133.9525
G1 X69.5851 Y-131.6165
G1 X73.2764 Y-129.1517
G1 X76.8805 Y-126.561
G1 X80.393 Y-123.8475
G1 X83.8099 Y-121.0145
G1 X87.127 Y-118.0653
G1 X90.3404 Y-115.0035
G1 X93.4463 Y-111.8326
G1 X96.4409 Y-108.5565
G1 X99.3207 Y-105.179
G1 X102.0824 Y-101.7042
G1 X104.7225 Y-98.1362
G1 X107.238 Y-94.4792
G1 X109.6258 Y-90.7377
G1 X111.8832 Y-86.916
G1 X114.0073 Y-83.0187
G1 X115.9958 Y-79.0505
G1 X117.8462 Y-75.016
G1 X119.5564 Y-70.9201
G1 X121.1242 Y-66.7677
G1 X122.5479 Y-62.5636
G1 X123.8257 Y-58.313
G1 X124.9561 Y-54.0208
G1 X125.9378 Y-49.6921
G1 X126.7695 Y-45.3322
G1 X127.4504 Y-40.9461
G1 X127.9796 Y-36.5392
G1 X128.3565 Y-32.1167
G1 X128.5806 Y-27.6838
G1 X128.6516 Y-23.2458
G1 X128.5695 Y-18.808
G1 X128.3344 Y-14.3756
G1 X127.9465 Y-9.954
G1 X127.4068 Y-5.552
G1 X126.7158 Y-1.1712
G1 X125.8741 Y3.1831
G1 X124.8829 Y7.5059
G1 X123.7432 Y11.792
G1 X122.4565 Y16.0362
G1 X121.0243 Y20.2335
G1 X119.4483 Y24.379
G1 X117.7303 Y28.4677
G1 X115.8724 Y32.4948
G1 X113.8769 Y36.4554
G1 X111.746 Y40.3449
G1 X109.4823 Y44.1587
G1 X107.0885 Y47.8921
G1 X104.5674 Y51.5409
G1 X101.9221 Y55.1005
G1 X99.1557 Y58.5669
G1 X96.2714 Y61.9359
G1 X93.2727 Y65.2034
G1 X90.1632 Y68.3657
G1 X86.9466 Y71.4189
G1 X83.6266 Y74.3594
G1 X80.2072 Y77.1838
G1 X76.6926 Y79.8886
G1 X73.0868 Y82.4707
G1 X69.3941 Y84.9269
G1 X65.619 Y87.2545
G1 X61.7659 Y89.4505
G1 X57.8394 Y91.5124
G1 X53.8441 Y93.4377
G1 X49.7849 Y95.2243
G1 X45.6665 Y96.8698
G1 X41.4938 Y98.3724
G1 X37.2718 Y99.7303
G1 X33.0056 Y100.9419
G1 X28.7001 Y102.0057
G1 X24.3605 Y102.9205
G1 X19.9919 Y103.6851
G1 X15.5996 Y104.2988
G1 X11.1888 Y104.7606
G1 X6.7646 Y105.0702
G1 X2.3324 Y105.2271
G1 X-2.1025 Y105.2312
G1 X-6.535 Y105.0824
G1 X-10.9597 Y104.7809
G1 X-15.3714 Y104.3271
G1 X-19.7774 Y103.7194
G1 X-24.1597 Y102.9597
G1 X-28.5132 Y102.049
G1 X-32.8326 Y100.9884
G1 X-37.1127 Y99.7791
G1 X-41.3485 Y98.4226
G1 X-45.5349 Y96.9205
G1 X-49.6668 Y95.2746
G1 X-53.7394 Y93.4868
G1 X-57.7478 Y91.5594
G1 X-61.6871 Y89.4945
G1 X-65.5527 Y87.2947
G1 X-69.34 Y84.9626
G1 X-73.0444 Y82.501
G1 X-76.6614 Y79.9128
G1 X-80.1869 Y77.2011
G1 X-83.6165 Y74.3692
G1 X-86.9462 Y71.4205
G1 X-90.172 Y68.3584
G1 X-93.29 Y65.1866
G1 X-96.2965 Y61.9089
G1 X-99.1879 Y58.5293
G1 X-101.9608 Y55.0518
G1 X-104.6118 Y51.4805
G1 X-107.1377 Y47.8197
G1 X-109.5357 Y44.0738
G1 X-111.8027 Y40.2472
G1 X-113.9361 Y36.3446
G1 X-115.9333 Y32.3705
G1 X-117.792 Y28.3298
G1 X-119.5098 Y24.2272
G1 X-121.0849 Y20.0678
G1 X-122.5152 Y15.8563
G1 X-123.7991 Y11.598
G1 X-124.9351 Y7.2978
G1 X-125.9217 Y2.9609
G1 X-126.7578 Y-1.4075
G1 X-127.4424 Y-5.8022
G1 X-127.9748 Y-10.2179
G1 X-128.3541 Y-14.6494
G1 X-128.5801 Y-19.0914
G1 X-128.6524 Y-23.5385
G1 X-128.5709 Y-27.9854
G1 X-128.3358 Y-32.4269
G1 X-127.9472 Y-36.8576
G1 X-127.4086 Y-41.252
G1 X-126.7191 Y-45.6253
G1 X-125.8796 Y-49.9722
G1 X-124.891 Y-54.2877
G1 X-123.7545 Y-58.5666
G1 X-122.4714 Y-62.8039
G1 X-121.0433 Y-66.9945
G1 X-119.4719 Y-71.1335
G1 X-117.759 Y-75.216
G1 X-115.9066 Y-79.2371
G1 X-113.917 Y-83.1921
G1 X-111.7925 Y-87.0763
G1 X-109.5355 Y-90.8851
G1 X-107.1489 Y-94.614
G1 X-104.6354 Y-98.2586
G1 X-101.998 Y-101.8146
G1 X-99.2398 Y-105.2777
G1 X-96.364 Y-108.6438
G1 X-93.3742 Y-111.909
G1 X-90.2738 Y-115.0694
G1 X-87.0664 Y-118.1212
G1 X-83.756 Y-121.0609
G1 X-80.3464 Y-123.885
G1 X-76.8416 Y-126.59
G1 X-73.2458 Y-129.1729
G1 X-69.5633 Y-131.6305
G1 X-65.7984 Y-133.96
G1 X-61.9556 Y-136.1585
G1 X-61.3544 Y-136.4051
G1 X-60.7132 Y-136.5103
G1 X-60.0647 Y-136.4689
G1 X-59.4421 Y-136.2829
G1 X-58.8772 Y-135.9618
G1 X-58.3988 Y-135.522
G1 X-58.0313 Y-134.9861
G1 X-57.7937 Y-134.3813
G1 X-57.6979 Y-133.7386
G1 X-56.9744 Y-112.885
G1 X-57.0126 Y-112.3077
G1 X-57.1657 Y-111.7497
G1 X-57.4273 Y-111.2337
G1 X-57.7871 Y-110.7805
G1 X-58.2302 Y-110.4085
G1 X-59.4199 Y-109.599
G1 X-62.5473 Y-107.3759
G1 X-65.9608 Y-104.7212
G1 X-69.6346 Y-101.5939
G1 X-72.9731 Y-98.4665
G1 X-75.0567 Y-96.3816
G1 X-78.1841 Y-93.0423
G1 X-81.3114 Y-89.3733
G1 X-83.9673 Y-85.9571
G1 X-86.1902 Y-82.8297
G1 X-87.5662 Y-80.806
G1 X-90.1969 Y-76.575
G1 X-91.9608 Y-73.4476
G1 X-92.8009 Y-71.8839
G1 X-93.5921 Y-70.3203
G1 X-95.1024 Y-67.1929
G1 X-96.4812 Y-64.0655
G1 X-97.7341 Y-60.9382
G1 X-98.8787 Y-57.8108
G1 X-100.0756 Y-54.1749
G1 X-100.8389 Y-51.5561
G1 X-101.667 Y-48.4287
G1 X-102.708 Y-43.7377
G1 X-103.0084 Y-42.174
G1 X-103.5272 Y-39.0466
G1 X-103.9505 Y-35.9193
G1 X-104.2756 Y-32.7919
G1 X-104.517 Y-29.6645
G1 X-104.6371 Y-26.5372
G1 X-104.7059 Y-23.4098
G1 X-104.6371 Y-20.2824
G1 X-104.516 Y-17.1551
G1 X-104.2756 Y-14.0277
G1 X-103.9505 Y-10.9004
G1 X-103.5263 Y-7.773
G1 X-103.0084 Y-4.6456
G1 X-102.7136 Y-3.0819
G1 X-101.6671 Y1.6091
G1 X-100.839 Y4.7365
G1 X-100.0756 Y7.3587
G1 X-98.882 Y10.9912
G1 X-97.7354 Y14.1186
G1 X-96.4812 Y17.2459
G1 X-95.1078 Y20.3733
G1 X-93.5921 Y23.5006
G1 X-92.8009 Y25.0643
G1 X-91.9608 Y26.628
G1 X-90.1969 Y29.7554
G1 X-87.5662 Y33.9865
G1 X-86.1869 Y36.0101
G1 X-83.9673 Y39.1375
G1 X-81.3114 Y42.551
G1 X-78.1841 Y46.22
G1 X-75.0567 Y49.5633
G1 X-72.9731 Y51.6469
G1 X-69.6299 Y54.7743
G1 X-65.9608 Y57.9016
G1 X-62.5473 Y60.5575
G1 X-59.4199 Y62.7771
G1 X-57.3963 Y64.1564
G1 X-53.1652 Y66.7871
G1 X-50.0378 Y68.551
G1 X-48.4741 Y69.3911
G1 X-46.9104 Y70.1823
G1 X-43.7831 Y71.6976
G1 X-40.6557 Y73.0714
G1 X-37.5284 Y74.3212
G1 X-34.401 Y75.4689
G1 X-30.7686 Y76.6658
G1 X-28.1463 Y77.4292
G1 X-25.0189 Y78.2572
G1 X-20.3279 Y79.2982
G1 X-18.7642 Y79.5986
G1 X-15.6368 Y80.1165
G1 X-12.5095 Y80.5406
G1 X-9.3821 Y80.8658
G1 X-6.2547 Y81.1062
G1 X-3.1274 Y81.2262
G1 X0. Y81.2954
G1 X3.1274 Y81.2238
G1 X6.2547 Y81.1062
G1 X9.3821 Y80.8658
G1 X12.5095 Y80.5407
G1 X15.6368 Y80.1165
G1 X18.7642 Y79.5986
G1 X20.3279 Y79.2982
G1 X25.0189 Y78.2587
G1 X28.1463 Y77.4291
G1 X30.7651 Y76.6658
G1 X34.401 Y75.4757
G1 X37.5284 Y74.3263
G1 X40.6557 Y73.0714
G1 X43.7831 Y71.6996
G1 X48.4741 Y69.3938
G1 X50.0378 Y68.5564
G1 X53.1652 Y66.7871
G1 X57.3989 Y64.1564
G1 X59.4199 Y62.7751
G1 X62.5473 Y60.5575
G1 X65.9635 Y57.9016
G1 X69.632 Y54.7743
G1 X72.9718 Y51.6469
G1 X75.0567 Y49.5633
G1 X78.1841 Y46.2247
G1 X81.3114 Y42.551
G1 X83.9661 Y39.1375
G1 X86.1902 Y36.0101
G1 X87.5662 Y33.9865
G1 X90.1945 Y29.7554
G1 X91.9613 Y26.628
G1 X92.8046 Y25.0643
G1 X95.1088 Y20.3733
G1 X96.4798 Y17.2459
G1 X97.7361 Y14.1186
G1 X98.8808 Y10.9912
G1 X100.0756 Y7.3587
G1 X100.8435 Y4.7365
G1 X101.667 Y1.6091
G1 X102.7075 Y-3.0819
G1 X103.0086 Y-4.6456
G1 X103.5309 Y-7.773
G1 X103.9507 Y-10.9004
G1 X104.2686 Y-14.0277
G1 X104.518 Y-17.1551
G1 X104.6336 Y-20.2824
G1 X104.7008 Y-23.4098
G1 X104.6352 Y-26.5372
G1 X104.5134 Y-29.6645
G1 X104.2712 Y-32.7919
G1 X103.9506 Y-35.9193
G1 X103.5271 Y-39.0466
G1 X103.0083 Y-42.174
G1 X102.708 Y-43.7377
G1 X101.6685 Y-48.4287
G1 X100.8435 Y-51.5561
G1 X100.0756 Y-54.1749
G1 X98.8787 Y-57.8108
G1 X97.736 Y-60.9382
G1 X96.4807 Y-64.0655
G1 X95.1088 Y-67.1929
G1 X92.8052 Y-71.8839
G1 X91.9616 Y-73.4476
G1 X90.1945 Y-76.575
G1 X87.5662 Y-80.806
G1 X86.1902 Y-82.8297
G1 X83.9661 Y-85.9571
G1 X81.3114 Y-89.3733
G1 X78.1841 Y-93.0418
G1 X75.0567 Y-96.3816
G1 X72.9718 Y-98.4665
G1 X69.6325 Y-101.5939
G1 X65.9608 Y-104.7212
G1 X62.5473 Y-107.3759
G1 X59.4199 Y-109.6
G1 X57.3989 Y-110.976
G1 X53.1652 Y-113.6043
G1 X50.0378 Y-115.3714
G1 X48.4741 Y-116.215
G1 X43.7831 Y-118.5186
G1 X40.6557 Y-119.8905
G1 X37.5284 Y-121.1459
G1 X34.401 Y-122.2923
G1 X30.7681 Y-123.4854
G1 X28.1463 Y-124.2498
G1 X25.0189 Y-125.0789
G1 X20.3279 Y-126.1178
G1 X18.7642 Y-126.4181
G1 X15.6368 Y-126.937
G1 X12.5095 Y-127.3604
G1 X9.3821 Y-127.681
G1 X6.2547 Y-127.9279
G1 X3.1274 Y-128.0482
G1 X0. Y-128.1147
G1 X-3.1274 Y-128.047
G1 X-6.2547 Y-127.9232
G1 X-9.3821 Y-127.681
G1 X-12.5095 Y-127.3643
G1 X-15.6368 Y-126.937
G1 X-18.7642 Y-126.4184
G1 X-20.3279 Y-126.1222
G1 X-25.0189 Y-125.0768
G1 X-28.1463 Y-124.2559
G1 X-30.7686 Y-123.4854
G1 X-34.401 Y-122.2923
G1 X-37.5284 Y-121.1458
G1 X-40.6557 Y-119.8905
G1 X-43.7831 Y-118.5186
G1 X-48.4741 Y-116.2096
G1 X-50.0378 Y-115.3737
G1 X-53.1652 Y-113.6093
G1 X-57.3963 Y-110.976
G1 X-58.2302 Y-110.4085
G1 X-61.9556 Y-136.1585
G1 X-61.4492 Y-136.5219
G1 X-61.0437 Y-136.9952
G1 X-60.7622 Y-137.5513
G1 X-60.6209 Y-138.1584
G1 X-60.628 Y-138.7817
G1 X-60.7829 Y-139.3854
G1 X-61.0769 Y-139.935
G1 X-61.4931 Y-140.3991
G1 X-62.0076 Y-140.7509
G1 X-62.5909 Y-140.9704
G1 X-63.2097 Y-141.045
G1 X-139.1679 Y-141.0459
G1 X-139.5942 Y-141.2568
G1 X-140.0673 Y-141.3059
G1 X-140.5278 Y-141.1871
G1 X-140.7405 Y-140.7381
G1 X-140.9199 Y-140.5012
G1 X-141.0288 Y-140.2247
G1 X-141.0592 Y-139.9292
G1 X-141.0455 Y139.2131
G1 X-141.2473 Y139.6166
G1 X-141.2994 Y140.0647
G1 X-141.1953 Y140.5038
G1 X-140.7701 Y140.7137
G1 X-140.523 Y140.9081
G1 X-140.2298 Y141.0214
G1 X-131.3338 Y141.042
G1 X-70.6756 Y141.0427
G1 X-69.1944 Y140.9662
G1 X-67.729 Y140.7375
G1 X-66.2949 Y140.359
G1 X-64.9075 Y139.8348
G1 X-63.5815 Y139.1703
G1 X-62.3309 Y138.3728
G1 X-61.1693 Y137.4507
G1 X-60.1088 Y136.4137
G1 X-59.1608 Y135.2731
G1 X-58.3354 Y134.0408
G1 X-57.6414 Y132.73
G1 X-57.0861 Y131.3547
G1 X-56.6756 Y129.9295
G1 X-56.414 Y128.4695
G1 X-56.3043 Y126.9904
G1 X-56.3475 Y125.5079
G1 X-56.5433 Y124.0377
G1 X-56.8896 Y122.5955
G1 X-57.3826 Y121.1966
G1 X-58.0171 Y119.856
G1 X-58.7864 Y118.588
G1 X-59.6823 Y117.4059
G1 X-60.6952 Y116.3225
G1 X-61.8143 Y115.3491
G1 X-63.0278 Y114.4963
G1 X-101.2846 Y90.4587
G1 X-102.3659 Y89.7081
G1 X-103.374 Y88.8618
G1 X-105.9846 Y86.4006
G1 X-108.5366 Y83.8788
G1 X-109.1773 Y83.3316
G1 X-109.9008 Y82.8997
G1 X-110.6866 Y82.5955
G1 X-111.5123 Y82.4275
G1 X-112.3545 Y82.4006
G1 X-113.1892 Y82.5155
G1 X-113.9928 Y82.7689
G1 X-114.7424 Y83.1537
G1 X-115.4168 Y83.6588
G1 X-115.9968 Y84.2701
G1 X-116.4659 Y84.97
G1 X-116.8108 Y85.7388
G1 X-117.0217 Y86.5546
G1 X-117.0926 Y87.3942
G1 X-117.0902 Y112.0848
G1 X-117.0141 Y112.9529
G1 X-116.7885 Y113.7947
G1 X-116.4201 Y114.5845
G1 X-115.9202 Y115.2984
G1 X-115.3039 Y115.9146
G1 X-114.59 Y116.4145
G1 X-113.8002 Y116.7827
G1 X-112.9584 Y117.0083
G1 X-112.0902 Y117.0843
G1 X-70.6753 Y117.0847
G1 X-70.0844 Y117.0127
G1 X-69.528 Y116.8008
G1 X-69.0388 Y116.4615
G1 X-68.6454 Y116.0146
G1 X-68.3709 Y115.4863
G1 X-68.2314 Y114.9076
G1 X-68.2349 Y114.3122
G1 X-68.3814 Y113.7351
G1 X-68.6621 Y113.2102
G1 X-69.0608 Y112.768
G1 X-69.554 Y112.4345
G1 X-73.6115 Y110.2792
G1 X-77.6022 Y108.0028
G1 X-81.5226 Y105.6072
G1 X-85.3692 Y103.0947
G1 X-89.1383 Y100.4676
G1 X-92.8267 Y97.7282
G1 X-96.4309 Y94.879
G1 X-99.9478 Y91.9227
G1 X-103.374 Y88.8618
G1 X-70.6756 Y141.0427
G1 X139.1679 Y141.0451
G1 X139.5933 Y141.2584
G1 X140.0664 Y141.3097
G1 X140.5275 Y141.1924
G1 X140.7386 Y140.7409
G1 X140.9169 Y140.5064
G1 X141.0256 Y140.2326
G1 X141.0566 Y139.9397
G1 X141.0545 Y87.378
G1 X140.9791 Y85.9085
G1 X140.7539 Y84.4543
G1 X140.3812 Y83.0308
G1 X139.865 Y81.6529
G1 X139.2105 Y80.3349
G1 X138.4248 Y79.0908
G1 X137.516 Y77.9335
G1 X136.4937 Y76.8752
G1 X135.3685 Y75.9269
G1 X134.1522 Y75.0987
G1 X132.8577 Y74.3991
G1 X131.4984 Y73.8355
G1 X130.0886 Y73.4138
G1 X128.6432 Y73.1385
G1 X127.1771 Y73.0124
G1 X125.7058 Y73.0368
G1 X124.2448 Y73.2115
G1 X122.8092 Y73.5347
G1 X121.4142 Y74.0029
G1 X120.0744 Y74.6112
G1 X118.8038 Y75.3534
G1 X117.6157 Y76.2216
G1 X81.8751 Y105.2575
G1 X81.1459 Y105.8123
G1 X80.3827 Y106.3195
G1 X76.8273 Y108.4563
G1 X73.2151 Y110.4958
G1 X69.5488 Y112.4362
G1 X69.0556 Y112.7697
G1 X68.657 Y113.2118
G1 X68.3762 Y113.7368
G1 X68.2297 Y114.3138
G1 X68.2262 Y114.9092
G1 X68.3657 Y115.4879
G1 X68.6402 Y116.0162
G1 X69.0335 Y116.4631
G1 X69.5227 Y116.8024
G1 X70.0791 Y117.0143
G1 X70.67 Y117.0863
G1 X112.1075 Y117.0868
G1 X112.9758 Y117.0108
G1 X113.8177 Y116.7852
G1 X114.6076 Y116.4169
G1 X115.3216 Y115.9169
G1 X115.9379 Y115.3006
G1 X116.4378 Y114.5866
G1 X116.8061 Y113.7966
G1 X117.0316 Y112.9547
G1 X117.1075 Y112.0864
G1 X117.1056 Y87.379
G1 X117.0345 Y86.5394
G1 X116.8235 Y85.7236
G1 X116.4784 Y84.9549
G1 X116.0092 Y84.2551
G1 X115.4292 Y83.6439
G1 X114.7547 Y83.1389
G1 X114.0051 Y82.7542
G1 X113.2015 Y82.5009
G1 X112.3667 Y82.3862
G1 X111.5246 Y82.4132
G1 X110.6989 Y82.5813
G1 X109.9132 Y82.8856
G1 X109.1897 Y83.3176
G1 X108.5491 Y83.8649
G1 X105.3298 Y87.0277
G1 X102.0183 Y90.094
G1 X98.6177 Y93.061
G1 X95.1307 Y95.9261
G1 X91.5606 Y98.6869
G1 X87.9105 Y101.341
G1 X84.1834 Y103.8859
G1 X80.3827 Y106.3195
G1 X141.0545 Y87.378
G1 X141.051 Y0.0464
G1 X141.0728 Y-0.7808 Z150.2277
G1 X141.1372 Y-1.5456 Z150.2617
G1 X141.2425 Y-2.2491 Z150.3112
G1 X141.3869 Y-2.8928 Z150.3712
G1 X141.5688 Y-3.4779 Z150.4377
G1 X141.7864 Y-4.0056 Z150.5076
G1 X142.0381 Y-4.4774 Z150.5787
G1 X142.3222 Y-4.8946 Z150.6497
G1 X142.6369 Y-5.2583 Z150.7197
G1 X142.9806 Y-5.5699 Z150.7886
G1 X143.3516 Y-5.8308 Z150.8563
G1 X143.7481 Y-6.0421 Z150.9229
G1 X144.1685 Y-6.2053 Z150.9883
G1 X144.6111 Y-6.3215 Z151.0525
G1 X145.0741 Y-6.3922 Z151.1149
G1 X145.5559 Y-6.4186 Z151.175
G1 X146.0547 Y-6.402 Z151.2317
G1 X146.569 Y-6.3437 Z151.2837
G1 X147.0968 Y-6.245 Z151.3295
G1 X148.1867 Y-5.9316 Z151.3951
G1 X149.1478 Y-5.5435 Z151.415
G1 X149.3109 Y-5.4721 F#907
G1 X150.4557 Y-4.8771
G1 X151.6076 Y-4.1569
G1 X152.7529 Y-3.3219
G1 X153.878 Y-2.3825
G1 X154.9693 Y-1.349
G1 X156.0133 Y-0.2319
G1 X156.9963 Y0.9585
G1 X157.4607 Y1.5779
G1 X158.3267 Y2.8586
G1 X158.4259 Y3.0226 Z152.515
G1 X159.0978 Y4.1866
G1 X159.7603 Y5.5514
G1 X160.3006 Y6.9427
G1 X160.7051 Y8.3501
G1 X160.8522 Y9.0566
G1 X160.9602 Y9.7632
G1 X161.0275 Y10.4686
G1 X161.0524 Y11.1715
G1 X161.0331 Y11.8707
G1 X160.9679 Y12.5648
G1 X160.8552 Y13.2525
G1 X160.6933 Y13.9325
G1 X160.4804 Y14.6036
G1 X160.2148 Y15.2644 Z152.5146
G1 X159.8949 Y15.9136 Z152.5129
G1 X159.519 Y16.5499 Z152.5111
G1 X159.0853 Y17.1721 Z152.5092
G1 X158.5921 Y17.7788 Z152.5074
G1 X158.0378 Y18.3688 Z152.5054
G1 X157.4207 Y18.9406 Z152.5034
G1 X152.8827 Y22.8723 Z152.4889
G1 X148.3447 Y26.8039 Z152.4745
G1 X143.8066 Y30.7356 Z152.4601
G1 X139.2686 Y34.6672 Z152.4456
G1 X134.7306 Y38.5989 Z152.4312
G1 X130.1926 Y42.5305 Z152.4167
G1 X125.6546 Y46.4622 Z152.4023
G1 X121.1166 Y50.3939 Z152.3878
G1 X116.5786 Y54.3255 Z152.3734
G1 X112.0406 Y58.2572 Z152.3589
G1 X107.5025 Y62.1888 Z152.3445
G1 X102.9645 Y66.1205 Z152.33
G1 X98.4265 Y70.0521 Z152.3156
G1 X92.3645 Y75.2904 Z152.2963
G1 X89.4752 Y77.6734 Z152.2873
G1 X86.78 Y79.7403 Z152.2791
G1 X85.4987 Y80.6518 Z152.2753
G1 X84.2581 Y81.4802 Z152.2717
G1 X83.0556 Y82.2242 Z152.2683
G1 X81.8887 Y82.8825 Z152.2651
G1 X80.7546 Y83.4536 Z152.2621
G1 X79.6509 Y83.9363 Z152.2592
G1 X78.5749 Y84.3292 Z152.2564
G1 X77.524 Y84.6309 Z152.2538
G1 X76.4956 Y84.8401 Z152.2513
G1 X75.487 Y84.9555 Z152.2488
G1 X74.4958 Y84.9757 Z152.2464
G1 X73.5193 Y84.8993 Z152.2441
G1 X72.5548 Y84.725 Z152.2417
G1 X71.5999 Y84.4515 Z152.2393
G1 X70.6518 Y84.0774 Z152.2369
G1 X69.708 Y83.6014 Z152.2343
G1 X68.7658 Y83.0221 Z152.2317
G1 X67.8228 Y82.3381 Z152.2289
G1 X66.8762 Y81.5482 Z152.2259
G1 X65.9234 Y80.6509 Z152.2107
G1 X64.9619 Y79.645 Z152.1366
G1 X63.9891 Y78.5291 Z151.9971
G1 X63.0023 Y77.3018 Z151.8005
G1 X61.999 Y75.9618 Z151.5692
G1 X60.9765 Y74.5077 Z151.3411
G1 X60.2684 Y73.4434 Z151.2133
G1 X60.2247 Y73.3777 Z151.2055 F#900
G1 X59.5393 Y72.3181 Z151.1243
G1 X58.8637 Y71.252 Z151.0944
G1 X55.1758 Y65.3023
G1 X55.1027 Y65.1844
G1 X56.7612 Y64.1564
G1 X59.4199 Y62.3575
G1 X61.3236 Y61.029
G1 X62.5473 Y60.122
G1 X65.6746 Y57.6934
G1 X69.1033 Y54.7743
G1 X70.5163 Y53.5056
G1 X73.8152 Y50.3546
G1 X76.9169 Y47.1052
G1 X78.1841 Y45.6908
G1 X81.1041 Y42.2648
G1 X83.5339 Y39.1375
G1 X84.4388 Y37.91
G1 X85.7669 Y36.0101
G1 X87.5662 Y33.3486
G1 X89.7957 Y29.7554
G1 X91.5691 Y26.628
G1 X92.409 Y25.0643
G1 X93.8209 Y22.2473
G1 X94.7259 Y20.3733
G1 X96.1068 Y17.2459
G1 X96.9483 Y15.1967
G1 X98.5194 Y10.9912
G1 X99.5519 Y7.8638
G1 X100.4878 Y4.7365
G1 X101.3162 Y1.6091
G1 X102.02 Y-1.5183
G1 X102.657 Y-4.6456
G1 X103.1792 Y-7.773
G1 X103.6093 Y-10.9004
G1 X103.9297 Y-14.0277
G1 X104.1733 Y-17.1551
G1 X104.2925 Y-20.2824
G1 X104.3589 Y-23.4098
G1 X104.293 Y-26.5372
G1 X104.1733 Y-29.6645
G1 X103.9292 Y-32.7919
G1 X103.6075 Y-35.9193
G1 X103.1819 Y-39.0466
G1 X102.6599 Y-42.174
G1 X102.0186 Y-45.3013
G1 X101.3161 Y-48.4287
G1 X100.4878 Y-51.5561
G1 X99.5519 Y-54.6834
G1 X98.5189 Y-57.8108
G1 X97.3684 Y-60.9382
G1 X96.1066 Y-64.0655
G1 X94.7259 Y-67.1929
G1 X93.2076 Y-70.3203
G1 X91.5691 Y-73.4476
G1 X89.7957 Y-76.575
G1 X87.5662 Y-80.1745
G1 X85.7669 Y-82.8297
G1 X84.4388 Y-84.7335
G1 X83.5339 Y-85.9571
G1 X81.1042 Y-89.0844
G1 X78.1841 Y-92.5131
G1 X76.9175 Y-93.9261
G1 X73.8152 Y-97.1762
G1 X70.5163 Y-100.3248
G1 X69.1032 Y-101.5939
G1 X65.6746 Y-104.514
G1 X62.5473 Y-106.9437
G1 X61.3236 Y-107.8486
G1 X59.4199 Y-109.1767
G1 X56.7612 Y-110.976
G1 X53.1652 Y-113.2055
G1 X50.0378 Y-114.9789
G1 X46.9104 Y-116.6174
G1 X43.7831 Y-118.1357
G1 X40.6557 Y-119.5165
G1 X38.6065 Y-120.3581
G1 X34.401 Y-121.9289
G1 X31.2736 Y-122.9617
G1 X28.1463 Y-123.8976
G1 X25.0189 Y-124.7196
G1 X21.8915 Y-125.422
G1 X18.7642 Y-126.0697
G1 X15.6368 Y-126.5917
G1 X12.5095 Y-127.0173
G1 X9.3821 Y-127.339
G1 X6.2547 Y-127.5831
G1 X3.1274 Y-127.7005
G1 X0. Y-127.7687
G1 X-3.1274 Y-127.7024
G1 X-6.2547 Y-127.5831
G1 X-9.3821 Y-127.339
G1 X-12.5095 Y-127.0191
G1 X-15.6368 Y-126.5917
G1 X-18.7642 Y-126.0668
G1 X-21.8915 Y-125.4221
G1 X-25.0189 Y-124.726
G1 X-28.1463 Y-123.8961
G1 X-31.2736 Y-122.9617
G1 X-34.401 Y-121.9289
G1 X-37.5284 Y-120.7782
G1 X-40.6557 Y-119.5165
G1 X-43.7831 Y-118.1357
G1 X-45.6572 Y-117.2307
G1 X-48.4741 Y-115.8147
G1 X-50.0378 Y-114.9707
G1 X-53.1652 Y-113.2073
G1 X-56.7584 Y-110.976
G1 X-61.3198 Y-107.8486
G1 X-62.5473 Y-106.9437
G1 X-65.6746 Y-104.514
G1 X-68.802 Y-101.8527
G1 X-70.5118 Y-100.3309
G1 X-73.7644 Y-97.225
G1 X-76.9154 Y-93.9261
G1 X-78.1841 Y-92.513
G1 X-81.1032 Y-89.0844
G1 X-83.5318 Y-85.9571
G1 X-84.4388 Y-84.7335
G1 X-87.5662 Y-80.1745
G1 X-89.7951 Y-76.575
G1 X-91.5669 Y-73.4476
G1 X-92.4087 Y-71.8839
G1 X-93.8209 Y-69.0701
G1 X-94.7244 Y-67.1929
G1 X-96.1055 Y-64.0655
G1 X-96.9483 Y-62.0164
G1 X-98.51 Y-57.8108
G1 X-99.552 Y-54.6834
G1 X-100.4829 Y-51.5561
G1 X-101.3076 Y-48.4287
G1 X-102.0204 Y-45.3013
G1 X-102.6518 Y-42.174
G1 X-103.203 Y-38.8647
G1 X-103.6075 Y-35.9193
G1 X-103.9285 Y-32.7919
G1 X-104.1707 Y-29.6645
G1 X-104.2841 Y-26.5372
G1 X-104.3544 Y-23.4098
G1 X-104.2841 Y-20.2824
G1 X-104.1718 Y-17.1551
G1 X-103.9285 Y-14.0277
G1 X-103.6075 Y-10.9004
G1 X-103.203 Y-7.9623
G1 X-102.6518 Y-4.6456
G1 X-102.0166 Y-1.5183
G1 X-101.3076 Y1.6091
G1 X-100.483 Y4.7365
G1 X-99.552 Y7.8638
G1 X-98.5149 Y10.9912
G1 X-96.9483 Y15.1967
G1 X-96.1055 Y17.2459
G1 X-94.7246 Y20.3733
G1 X-93.2017 Y23.5006
G1 X-92.4087 Y25.0643
G1 X-91.5668 Y26.628
G1 X-89.7951 Y29.7554
G1 X-87.5662 Y33.3486
G1 X-85.7673 Y36.0101
G1 X-84.4388 Y37.91
G1 X-83.5318 Y39.1375
G1 X-81.1032 Y42.2648
G1 X-78.1841 Y45.6866
G1 X-76.9225 Y47.1031
G1 X-73.7644 Y50.4034
G1 X-70.5126 Y53.5127
G1 X-67.2383 Y56.3738
G1 X-65.6746 Y57.6934
G1 X-62.5473 Y60.122
G1 X-61.3198 Y61.029
G1 X-59.4199 Y62.3575
G1 X-56.7584 Y64.1564
G1 X-53.1652 Y66.3853
G1 X-50.0378 Y68.1506
G1 X-48.4741 Y68.9957
G1 X-46.9104 Y69.7919
G1 X-43.7831 Y71.3148
G1 X-40.6557 Y72.6957
G1 X-38.6065 Y73.5385
G1 X-34.401 Y75.1063
G1 X-31.2736 Y76.1422
G1 X-28.1463 Y77.0732
G1 X-25.0189 Y77.8978
G1 X-21.8915 Y78.6106
G1 X-18.7642 Y79.242
G1 X-15.4475 Y79.7932
G1 X-12.5095 Y80.1977
G1 X-9.3821 Y80.5187
G1 X-6.2547 Y80.7619
G1 X-3.1274 Y80.8745
G1 X0. Y80.9482
G1 X3.1274 Y80.8815
G1 X6.2547 Y80.7619
G1 X9.3821 Y80.5187
G1 X12.5095 Y80.1977
G1 X15.4549 Y79.7932
G1 X18.7642 Y79.242
G1 X21.8915 Y78.6106
G1 X25.0189 Y77.8996
G1 X28.1463 Y77.0731
G1 X31.2736 Y76.1422
G1 X34.401 Y75.1063
G1 X38.6065 Y73.5385
G1 X40.6557 Y72.6957
G1 X43.7831 Y71.3144
G1 X45.6586 Y70.4111
G1 X48.4741 Y68.9966
G1 X50.0378 Y68.1524
G1 X53.1652 Y66.3853
G1 X55.1027 Y65.1844
G1 X61.3046 Y62.0504
G0 Z156.4838
G0 X171.8035 Y0.0451
G0 Z153.335
G1 Z148.335 F#901
G1 X164.8035 Y0.0454 F#900
G1 X141.051 Y0.0464
G1 X141.0455 Y-139.1222
G1 X141.2806 Y-139.5472
G1 X141.3511 Y-140.0276
G1 X141.248 Y-140.5022
G1 X140.7719 Y-140.7107
G1 X140.5228 Y-140.9074
G1 X140.2268 Y-141.022
G1 X140.0907 Y-141.037
G1 X128.2103 Y-141.0428
G1 X63.2128 Y-141.0436
G1 X62.594 Y-140.969
G1 X62.0106 Y-140.7495
G1 X61.4961 Y-140.3976
G1 X61.0799 Y-139.9336
G1 X60.7859 Y-139.384
G1 X60.6309 Y-138.7802
G1 X60.6239 Y-138.157
G1 X60.7651 Y-137.5498
G1 X61.0466 Y-136.9937
G1 X61.4521 Y-136.5204
G1 X61.9586 Y-136.1569
G1 X65.811 Y-133.9525
G1 X69.5851 Y-131.6165
G1 X73.2764 Y-129.1517
G1 X76.8805 Y-126.561
G1 X80.393 Y-123.8475
G1 X83.8099 Y-121.0145
G1 X87.127 Y-118.0653
G1 X90.3404 Y-115.0035
G1 X93.4463 Y-111.8326
G1 X96.4409 Y-108.5565
G1 X99.3207 Y-105.179
G1 X102.0824 Y-101.7042
G1 X104.7225 Y-98.1362
G1 X107.238 Y-94.4792
G1 X109.6258 Y-90.7377
G1 X111.8832 Y-86.916
G1 X114.0073 Y-83.0187
G1 X115.9958 Y-79.0505
G1 X117.8462 Y-75.016
G1 X119.5564 Y-70.9201
G1 X121.1242 Y-66.7677
G1 X122.5479 Y-62.5636
G1 X123.8257 Y-58.313
G1 X124.9561 Y-54.0208
G1 X125.9378 Y-49.6921
G1 X126.7695 Y-45.3322
G1 X127.4504 Y-40.9461
G1 X127.9796 Y-36.5392
G1 X128.3565 Y-32.1167
G1 X128.5806 Y-27.6838
G1 X128.6516 Y-23.2458
G1 X128.5695 Y-18.808
G1 X128.3344 Y-14.3756
G1 X127.9465 Y-9.954
G1 X127.4068 Y-5.552
G1 X126.7158 Y-1.1712
G1 X125.8741 Y3.1831
G1 X124.8829 Y7.5059
G1 X123.7432 Y11.792
G1 X122.4565 Y16.0362
G1 X121.0243 Y20.2335
G1 X119.4483 Y24.379
G1 X117.7303 Y28.4677
G1 X115.8724 Y32.4948
G1 X113.8769 Y36.4554
G1 X111.746 Y40.3449
G1 X109.4823 Y44.1587
G1 X107.0885 Y47.8921
G1 X104.5674 Y51.5409
G1 X101.9221 Y55.1005
G1 X99.1557 Y58.5669
G1 X96.2714 Y61.9359
G1 X93.2727 Y65.2034
G1 X90.1632 Y68.3657
G1 X86.9466 Y71.4189
G1 X83.6266 Y74.3594
G1 X80.2072 Y77.1838
G1 X76.6926 Y79.8886
G1 X73.0868 Y82.4707
G1 X69.3941 Y84.9269
G1 X65.619 Y87.2545
G1 X61.7659 Y89.4505
G1 X57.8394 Y91.5124
G1 X53.8441 Y93.4377
G1 X49.7849 Y95.2243
G1 X45.6665 Y96.8698
G1 X41.4938 Y98.3724
G1 X37.2718 Y99.7303
G1 X33.0056 Y100.9419
G1 X28.7001 Y102.0057
G1 X24.3605 Y102.9205
G1 X19.9919 Y103.6851
G1 X15.5996 Y104.2988
G1 X11.1888 Y104.7606
G1 X6.7646 Y105.0702
G1 X2.3324 Y105.2271
G1 X-2.1025 Y105.2312
G1 X-6.535 Y105.0824
G1 X-10.9597 Y104.7809
G1 X-15.3714 Y104.3271
G1 X-19.7774 Y103.7194
G1 X-24.1597 Y102.9597
G1 X-28.5132 Y102.049
G1 X-32.8326 Y100.9884
G1 X-37.1127 Y99.7791
G1 X-41.3485 Y98.4226
G1 X-45.5349 Y96.9205
G1 X-49.6668 Y95.2746
G1 X-53.7394 Y93.4868
G1 X-57.7478 Y91.5594
G1 X-61.6871 Y89.4945
G1 X-65.5527 Y87.2947
G1 X-69.34 Y84.9626
G1 X-73.0444 Y82.501
G1 X-76.6614 Y79.9128
G1 X-80.1869 Y77.2011
G1 X-83.6165 Y74.3692
G1 X-86.9462 Y71.4205
G1 X-90.172 Y68.3584
G1 X-93.29 Y65.1866
G1 X-96.2965 Y61.9089
G1 X-99.1879 Y58.5293
G1 X-101.9608 Y55.0518
G1 X-104.6118 Y51.4805
G1 X-107.1377 Y47.8197
G1 X-109.5357 Y44.0738
G1 X-111.8027 Y40.2472
G1 X-113.9361 Y36.3446
G1 X-115.9333 Y32.3705
G1 X-117.792 Y28.3298
G1 X-119.5098 Y24.2272
G1 X-121.0849 Y20.0678
G1 X-122.5152 Y15.8563
G1 X-123.7991 Y11.598
G1 X-124.9351 Y7.2978
G1 X-125.9217 Y2.9609
G1 X-126.7578 Y-1.4075
G1 X-127.4424 Y-5.8022
G1 X-127.9748 Y-10.2179
G1 X-128.3541 Y-14.6494
G1 X-128.5801 Y-19.0914
G1 X-128.6524 Y-23.5385
G1 X-128.5709 Y-27.9854
G1 X-128.3358 Y-32.4269
G1 X-127.9472 Y-36.8576
G1 X-127.4086 Y-41.252
G1 X-126.7191 Y-45.6253
G1 X-125.8796 Y-49.9722
G1 X-124.891 Y-54.2877
G1 X-123.7545 Y-58.5666
G1 X-122.4714 Y-62.8039
G1 X-121.0433 Y-66.9945
G1 X-119.4719 Y-71.1335
G1 X-117.759 Y-75.216
G1 X-115.9066 Y-79.2371
G1 X-113.917 Y-83.1921
G1 X-111.7925 Y-87.0763
G1 X-109.5355 Y-90.8851
G1 X-107.1489 Y-94.614
G1 X-104.6354 Y-98.2586
G1 X-101.998 Y-101.8146
G1 X-99.2398 Y-105.2777
G1 X-96.364 Y-108.6438
G1 X-93.3742 Y-111.909
G1 X-90.2738 Y-115.0694
G1 X-87.0664 Y-118.1212
G1 X-83.756 Y-121.0609
G1 X-80.3464 Y-123.885
G1 X-76.8416 Y-126.59
G1 X-73.2458 Y-129.1729
G1 X-69.5633 Y-131.6305
G1 X-65.7984 Y-133.96
G1 X-61.9556 Y-136.1585
G1 X-61.3544 Y-136.4051
G1 X-60.7132 Y-136.5103
G1 X-60.0647 Y-136.4689
G1 X-59.4421 Y-136.2829
G1 X-58.8772 Y-135.9618
G1 X-58.3988 Y-135.522
G1 X-58.0313 Y-134.9861
G1 X-57.7937 Y-134.3813
G1 X-57.6979 Y-133.7386
G1 X-56.9744 Y-112.885
G1 X-57.0126 Y-112.3077
G1 X-57.1657 Y-111.7497
G1 X-57.4273 Y-111.2337
G1 X-57.7871 Y-110.7805
G1 X-58.2302 Y-110.4085
G1 X-59.4199 Y-109.599
G1 X-62.5473 Y-107.3759
G1 X-65.9608 Y-104.7212
G1 X-69.6346 Y-101.5939
G1 X-72.9731 Y-98.4665
G1 X-75.0567 Y-96.3816
G1 X-78.1841 Y-93.0423
G1 X-81.3114 Y-89.3733
G1 X-83.9673 Y-85.9571
G1 X-86.1902 Y-82.8297
G1 X-87.5662 Y-80.806
G1 X-90.1969 Y-76.575
G1 X-91.9608 Y-73.4476
G1 X-92.8009 Y-71.8839
G1 X-93.5921 Y-70.3203
G1 X-95.1024 Y-67.1929
G1 X-96.4812 Y-64.0655
G1 X-97.7341 Y-60.9382
G1 X-98.8787 Y-57.8108
G1 X-100.0756 Y-54.1749
G1 X-100.8389 Y-51.5561
G1 X-101.667 Y-48.4287
G1 X-102.708 Y-43.7377
G1 X-103.0084 Y-42.174
G1 X-103.5272 Y-39.0466
G1 X-103.9505 Y-35.9193
G1 X-104.2756 Y-32.7919
G1 X-104.517 Y-29.6645
G1 X-104.6371 Y-26.5372
G1 X-104.7059 Y-23.4098
G1 X-104.6371 Y-20.2824
G1 X-104.516 Y-17.1551
G1 X-104.2756 Y-14.0277
G1 X-103.9505 Y-10.9004
G1 X-103.5263 Y-7.773
G1 X-103.0084 Y-4.6456
G1 X-102.7136 Y-3.0819
G1 X-101.6671 Y1.6091
G1 X-100.839 Y4.7365
G1 X-100.0756 Y7.3587
G1 X-98.882 Y10.9912
G1 X-97.7354 Y14.1186
G1 X-96.4812 Y17.2459
G1 X-95.1078 Y20.3733
G1 X-93.5921 Y23.5006
G1 X-92.8009 Y25.0643
G1 X-91.9608 Y26.628
G1 X-90.1969 Y29.7554
G1 X-87.5662 Y33.9865
G1 X-86.1869 Y36.0101
G1 X-83.9673 Y39.1375
G1 X-81.3114 Y42.551
G1 X-78.1841 Y46.22
G1 X-75.0567 Y49.5633
G1 X-72.9731 Y51.6469
G1 X-69.6299 Y54.7743
G1 X-65.9608 Y57.9016
G1 X-62.5473 Y60.5575
G1 X-59.4199 Y62.7771
G1 X-57.3963 Y64.1564
G1 X-53.1652 Y66.7871
G1 X-50.0378 Y68.551
G1 X-48.4741 Y69.3911
G1 X-46.9104 Y70.1823
G1 X-43.7831 Y71.6976
G1 X-40.6557 Y73.0714
G1 X-37.5284 Y74.3212
G1 X-34.401 Y75.4689
G1 X-30.7686 Y76.6658
G1 X-28.1463 Y77.4292
G1 X-25.0189 Y78.2572
G1 X-20.3279 Y79.2982
G1 X-18.7642 Y79.5986
G1 X-15.6368 Y80.1165
G1 X-12.5095 Y80.5406
G1 X-9.3821 Y80.8658
G1 X-6.2547 Y81.1062
G1 X-3.1274 Y81.2262
G1 X0. Y81.2954
G1 X3.1274 Y81.2238
G1 X6.2547 Y81.1062
G1 X9.3821 Y80.8658
G1 X12.5095 Y80.5407
G1 X15.6368 Y80.1165
G1 X18.7642 Y79.5986
G1 X20.3279 Y79.2982
G1 X25.0189 Y78.2587
G1 X28.1463 Y77.4291
G1 X30.7651 Y76.6658
G1 X34.401 Y75.4757
G1 X37.5284 Y74.3263
G1 X40.6557 Y73.0714
G1 X43.7831 Y71.6996
G1 X48.4741 Y69.3938
G1 X50.0378 Y68.5564
G1 X53.1652 Y66.7871
G1 X57.3989 Y64.1564
G1 X59.4199 Y62.7751
G1 X62.5473 Y60.5575
G1 X65.9635 Y57.9016
G1 X69.632 Y54.7743
G1 X72.9718 Y51.6469
G1 X75.0567 Y49.5633
G1 X78.1841 Y46.2247
G1 X81.3114 Y42.551
G1 X83.9661 Y39.1375
G1 X86.1902 Y36.0101
G1 X87.5662 Y33.9865
G1 X90.1945 Y29.7554
G1 X91.9613 Y26.628
G1 X92.8046 Y25.0643
G1 X95.1088 Y20.3733
G1 X96.4798 Y17.2459
G1 X97.7361 Y14.1186
G1 X98.8808 Y10.9912
G1 X100.0756 Y7.3587
G1 X100.8435 Y4.7365
G1 X101.667 Y1.6091
G1 X102.7075 Y-3.0819
G1 X103.0086 Y-4.6456
G1 X103.5309 Y-7.773
G1 X103.9507 Y-10.9004
G1 X104.2686 Y-14.0277
G1 X104.518 Y-17.1551
G1 X104.6336 Y-20.2824
G1 X104.7008 Y-23.4098
G1 X104.6352 Y-26.5372
G1 X104.5134 Y-29.6645
G1 X104.2712 Y-32.7919
G1 X103.9506 Y-35.9193
G1 X103.5271 Y-39.0466
G1 X103.0083 Y-42.174
G1 X102.708 Y-43.7377
G1 X101.6685 Y-48.4287
G1 X100.8435 Y-51.5561
G1 X100.0756 Y-54.1749
G1 X98.8787 Y-57.8108
G1 X97.736 Y-60.9382
G1 X96.4807 Y-64.0655
G1 X95.1088 Y-67.1929
G1 X92.8052 Y-71.8839
G1 X91.9616 Y-73.4476
G1 X90.1945 Y-76.575
G1 X87.5662 Y-80.806
G1 X86.1902 Y-82.8297
G1 X83.9661 Y-85.9571
G1 X81.3114 Y-89.3733
G1 X78.1841 Y-93.0418
G1 X75.0567 Y-96.3816
G1 X72.9718 Y-98.4665
G1 X69.6325 Y-101.5939
G1 X65.9608 Y-104.7212
G1 X62.5473 Y-107.3759
G1 X59.4199 Y-109.6
G1 X57.3989 Y-110.976
G1 X53.1652 Y-113.6043
G1 X50.0378 Y-115.3714
G1 X48.4741 Y-116.215
G1 X43.7831 Y-118.5186
G1 X40.6557 Y-119.8905
G1 X37.5284 Y-121.1459
G1 X34.401 Y-122.2923
G1 X30.7681 Y-123.4854
G1 X28.1463 Y-124.2498
G1 X25.0189 Y-125.0789
G1 X20.3279 Y-126.1178
G1 X18.7642 Y-126.4181
G1 X15.6368 Y-126.937
G1 X12.5095 Y-127.3604
G1 X9.3821 Y-127.681
G1 X6.2547 Y-127.9279
G1 X3.1274 Y-128.0482
G1 X0. Y-128.1147
G1 X-3.1274 Y-128.047
G1 X-6.2547 Y-127.9232
G1 X-9.3821 Y-127.681
G1 X-12.5095 Y-127.3643
G1 X-15.6368 Y-126.937
G1 X-18.7642 Y-126.4184
G1 X-20.3279 Y-126.1222
G1 X-25.0189 Y-125.0768
G1 X-28.1463 Y-124.2559
G1 X-30.7686 Y-123.4854
G1 X-34.401 Y-122.2923
G1 X-37.5284 Y-121.1458
G1 X-40.6557 Y-119.8905
G1 X-43.7831 Y-118.5186
G1 X-48.4741 Y-116.2096
G1 X-50.0378 Y-115.3737
G1 X-53.1652 Y-113.6093
G1 X-57.3963 Y-110.976
G1 X-58.2302 Y-110.4085
G1 X-61.9556 Y-136.1585
G1 X-61.4492 Y-136.5219
G1 X-61.0437 Y-136.9952
G1 X-60.7622 Y-137.5513
G1 X-60.6209 Y-138.1584
G1 X-60.628 Y-138.7817
G1 X-60.7829 Y-139.3854
G1 X-61.0769 Y-139.935
G1 X-61.4931 Y-140.3991
G1 X-62.0076 Y-140.7509
G1 X-62.5909 Y-140.9704
G1 X-63.2097 Y-141.045
G1 X-139.1679 Y-141.0459
G1 X-139.5942 Y-141.2568
G1 X-140.0673 Y-141.3059
G1 X-140.5278 Y-141.1871
G1 X-140.7405 Y-140.7381
G1 X-140.9199 Y-140.5012
G1 X-141.0288 Y-140.2247
G1 X-141.0592 Y-139.9292
G1 X-141.0455 Y139.2131
G1 X-141.2473 Y139.6166
G1 X-141.2994 Y140.0647
G1 X-141.1953 Y140.5038
G1 X-140.7701 Y140.7137
G1 X-140.523 Y140.9081
G1 X-140.2298 Y141.0214
G1 X-131.3338 Y141.042
G1 X-70.6756 Y141.0427
G1 X-69.1944 Y140.9662
G1 X-67.729 Y140.7375
G1 X-66.2949 Y140.359
G1 X-64.9075 Y139.8348
G1 X-63.5815 Y139.1703
G1 X-62.3309 Y138.3728
G1 X-61.1693 Y137.4507
G1 X-60.1088 Y136.4137
G1 X-59.1608 Y135.2731
G1 X-58.3354 Y134.0408
G1 X-57.6414 Y132.73
G1 X-57.0861 Y131.3547
G1 X-56.6756 Y129.9295
G1 X-56.414 Y128.4695
G1 X-56.3043 Y126.9904
G1 X-56.3475 Y125.5079
G1 X-56.5433 Y124.0377
G1 X-56.8896 Y122.5955
G1 X-57.3826 Y121.1966
G1 X-58.0171 Y119.856
G1 X-58.7864 Y118.588
G1 X-59.6823 Y117.4059
G1 X-60.6952 Y116.3225
G1 X-61.8143 Y115.3491
G1 X-63.0278 Y114.4963
G1 X-101.2846 Y90.4587
G1 X-102.3659 Y89.7081
G1 X-103.374 Y88.8618
G1 X-105.9846 Y86.4006
G1 X-108.5366 Y83.8788
G1 X-109.1773 Y83.3316
G1 X-109.9008 Y82.8997
G1 X-110.6866 Y82.5955
G1 X-111.5123 Y82.4275
G1 X-112.3545 Y82.4006
G1 X-113.1892 Y82.5155
G1 X-113.9928 Y82.7689
G1 X-114.7424 Y83.1537
G1 X-115.4168 Y83.6588
G1 X-115.9968 Y84.2701
G1 X-116.4659 Y84.97
G1 X-116.8108 Y85.7388
G1 X-117.0217 Y86.5546
G1 X-117.0926 Y87.3942
G1 X-117.0902 Y112.0848
G1 X-117.0141 Y112.9529
G1 X-116.7885 Y113.7947
G1 X-116.4201 Y114.5845
G1 X-115.9202 Y115.2984
G1 X-115.3039 Y115.9146
G1 X-114.59 Y116.4145
G1 X-113.8002 Y116.7827
G1 X-112.9584 Y117.0083
G1 X-112.0902 Y117.0843
G1 X-70.6753 Y117.0847
G1 X-70.0844 Y117.0127
G1 X-69.528 Y116.8008
G1 X-69.0388 Y116.4615
G1 X-68.6454 Y116.0146
G1 X-68.3709 Y115.4863
G1 X-68.2314 Y114.9076
G1 X-68.2349 Y114.3122
G1 X-68.3814 Y113.7351
G1 X-68.6621 Y113.2102
G1 X-69.0608 Y112.768
G1 X-69.554 Y112.4345
G1 X-73.6115 Y110.2792
G1 X-77.6022 Y108.0028
G1 X-81.5226 Y105.6072
G1 X-85.3692 Y103.0947
G1 X-89.1383 Y100.4676
G1 X-92.8267 Y97.7282
G1 X-96.4309 Y94.879
G1 X-99.9478 Y91.9227
G1 X-103.374 Y88.8618
G1 X-70.6756 Y141.0427
G1 X139.1679 Y141.0451
G1 X139.5933 Y141.2584
G1 X140.0664 Y141.3097
G1 X140.5275 Y141.1924
G1 X140.7386 Y140.7409
G1 X140.9169 Y140.5064
G1 X141.0256 Y140.2326
G1 X141.0566 Y139.9397
G1 X141.0545 Y87.378
G1 X140.9791 Y85.9085
G1 X140.7539 Y84.4543
G1 X140.3812 Y83.0308
G1 X139.865 Y81.6529
G1 X139.2105 Y80.3349
G1 X138.4248 Y79.0908
G1 X137.516 Y77.9335
G1 X136.4937 Y76.8752
G1 X135.3685 Y75.9269
G1 X134.1522 Y75.0987
G1 X132.8577 Y74.3991
G1 X131.4984 Y73.8355
G1 X130.0886 Y73.4138
G1 X128.6432 Y73.1385
G1 X127.1771 Y73.0124
G1 X125.7058 Y73.0368
G1 X124.2448 Y73.2115
G1 X122.8092 Y73.5347
G1 X121.4142 Y74.0029
G1 X120.0744 Y74.6112
G1 X118.8038 Y75.3534
G1 X117.6157 Y76.2216
G1 X81.8751 Y105.2575
G1 X81.1459 Y105.8123
G1 X80.3827 Y106.3195
G1 X76.8273 Y108.4563
G1 X73.2151 Y110.4958
G1 X69.5488 Y112.4362
G1 X69.0556 Y112.7697
G1 X68.657 Y113.2118
G1 X68.3762 Y113.7368
G1 X68.2297 Y114.3138
G1 X68.2262 Y114.9092
G1 X68.3657 Y115.4879
G1 X68.6402 Y116.0162
G1 X69.0335 Y116.4631
G1 X69.5227 Y116.8024
G1 X70.0791 Y117.0143
G1 X70.67 Y117.0863
G1 X112.1075 Y117.0868
G1 X112.9758 Y117.0108
G1 X113.8177 Y116.7852
G1 X114.6076 Y116.4169
G1 X115.3216 Y115.9169
G1 X115.9379 Y115.3006
G1 X116.4378 Y114.5866
G1 X116.8061 Y113.7966
G1 X117.0316 Y112.9547
G1 X117.1075 Y112.0864
G1 X117.1056 Y87.379
G1 X117.0345 Y86.5394
G1 X116.8235 Y85.7236
G1 X116.4784 Y84.9549
G1 X116.0092 Y84.2551
G1 X115.4292 Y83.6439
G1 X114.7547 Y83.1389
G1 X114.0051 Y82.7542
G1 X113.2015 Y82.5009
G1 X112.3667 Y82.3862
G1 X111.5246 Y82.4132
G1 X110.6989 Y82.5813
G1 X109.9132 Y82.8856
G1 X109.1897 Y83.3176
G1 X108.5491 Y83.8649
G1 X105.3298 Y87.0277
G1 X102.0183 Y90.094
G1 X98.6177 Y93.061
G1 X95.1307 Y95.9261
G1 X91.5606 Y98.6869
G1 X87.9105 Y101.341
G1 X84.1834 Y103.8859
G1 X80.3827 Y106.3195
G1 X141.0545 Y87.378
G1 X141.051 Y0.0464
G1 X141.0589 Y-1.2157 Z148.3644
G1 X141.0935 Y-3.182 Z148.5186
G1 X141.1498 Y-4.6919 Z148.7063
G1 X141.3428 Y-7.5093 Z149.1192
G1 X141.4835 Y-8.8191 Z149.2932
G1 X141.6564 Y-10.0644 Z149.424
G1 X141.8636 Y-11.2466 Z149.5047
G1 X142.142 Y-12.4983 Z149.535
G1 X142.3889 Y-13.426 F#907
G1 X142.7111 Y-14.4256
G1 X143.0758 Y-15.3667
G1 X143.4849 Y-16.2504
G1 X143.9406 Y-17.0779
G1 X144.4448 Y-17.8505
G1 X144.9997 Y-18.5692
G1 X145.6072 Y-19.2353
G1 X146.2694 Y-19.8499
G1 X146.9883 Y-20.4143
G1 X147.766 Y-20.9294
G1 X148.6045 Y-21.3967
G1 X149.5059 Y-21.8171
G1 X150.4723 Y-22.192
G1 X151.5055 Y-22.5224
G1 X152.6078 Y-22.8096
G1 X153.7811 Y-23.0546
G1 X155.0275 Y-23.2588
G1 X156.349 Y-23.4232
G1 X157.7477 Y-23.549
G1 X159.2256 Y-23.6375
G1 X160.7848 Y-23.6897
G1 X164.8025 Y-23.707
G1 X166.2452 Y-23.639
G1 X167.0041 Y-23.5429
G1 X168.2346 Y-23.2949 Z149.4209
G1 X169.4446 Y-22.9169 Z149.3056
G1 X170.5615 Y-22.4302 Z149.1948
G1 X171.5853 Y-21.8435 Z149.0875
G1 X172.5161 Y-21.1654 Z148.9828
G1 X173.3538 Y-20.4047 Z148.8799
G1 X174.0984 Y-19.57 Z148.7783
G1 X174.7499 Y-18.6702 Z148.6772
G1 X175.3084 Y-17.7137 Z148.5765
G1 X175.7738 Y-16.7094 Z148.4759
G1 X176.1462 Y-15.666 Z148.3752
G1 X176.4254 Y-14.5921 Z148.2743
G1 X176.6116 Y-13.4965 Z148.1733
G1 X176.7047 Y-12.3878 Z148.0721
G1 X176.7048 Y-11.2748 Z147.971
G1 X176.6117 Y-10.1661 Z147.8698
G1 X176.4256 Y-9.0704 Z147.7688
G1 X176.1465 Y-7.9965 Z147.6679
G1 X175.7742 Y-6.9531 Z147.5672
G1 X175.3089 Y-5.9487 Z147.4665
G1 X174.7505 Y-4.9923 Z147.3658
G1 X174.099 Y-4.0923 Z147.2648
G1 X173.3545 Y-3.2576 Z147.1631
G1 X172.5168 Y-2.4968 Z147.0603
G1 X171.5861 Y-1.8187 Z146.9556
G1 X170.5623 Y-1.2318 Z146.8483
G1 X169.4455 Y-0.7451 Z146.7375
G1 X168.8521 Y-0.5419 Z146.6805
G1 X168.0006 Y-0.3135 Z146.6003
G1 X167.5957 Y-0.2214 Z146.5626 F#900
G1 X167.0051 Y-0.1189 Z146.5081
G1 X166.2461 Y-0.0228 Z146.4897
G1 X164.8035 Y0.0454 Z146.455
G1 X141.051 Y0.0464
G1 X141.0455 Y-139.1222
G1 X141.2806 Y-139.5472
G1 X141.3511 Y-140.0276
G1 X141.248 Y-140.5022
G1 X140.7719 Y-140.7107
G1 X140.5228 Y-140.9074
G1 X140.2268 Y-141.022
G1 X140.0907 Y-141.037
G1 X128.2103 Y-141.0428
G1 X66.1249 Y-141.0435
G1 X65.469 Y-140.9651
G1 X64.8501 Y-140.7341
G1 X64.3031 Y-140.3637
G1 X63.8589 Y-139.8748
G1 X63.5426 Y-139.2949
G1 X63.372 Y-138.6567
G1 X63.3568 Y-137.9963
G1 X63.4977 Y-137.3509
G1 X63.7868 Y-136.757
G1 X64.2079 Y-136.248
G1 X64.7372 Y-135.8527
G1 X68.622 Y-133.5246
G1 X72.4231 Y-131.0624
G1 X76.136 Y-128.469
G1 X79.7561 Y-125.7475
G1 X83.279 Y-122.9014
G1 X86.7004 Y-119.934
G1 X90.0162 Y-116.8491
G1 X93.2222 Y-113.6503
G1 X96.3147 Y-110.3415
G1 X99.2898 Y-106.9268
G1 X102.1439 Y-103.4103
G1 X104.8735 Y-99.7964
G1 X107.4754 Y-96.0894
G1 X109.9462 Y-92.2939
G1 X112.2831 Y-88.4144
G1 X114.4832 Y-84.4557
G1 X116.5437 Y-80.4227
G1 X118.4622 Y-76.3202
G1 X120.2364 Y-72.1532
G1 X121.8641 Y-67.9269
G1 X123.3432 Y-63.6463
G1 X124.672 Y-59.3167
G1 X125.8489 Y-54.9433
G1 X126.8725 Y-50.5315
G1 X127.7414 Y-46.0867
G1 X128.4547 Y-41.6143
G1 X129.0115 Y-37.1197
G1 X129.411 Y-32.6084
G1 X129.6528 Y-28.086
G1 X129.7367 Y-23.5578
G1 X129.6624 Y-19.0295
G1 X129.4301 Y-14.5065
G1 X129.0401 Y-9.9943
G1 X128.5008 Y-5.5551
G1 X127.8087 Y-1.137
G1 X126.9648 Y3.2546
G1 X125.97 Y7.6145
G1 X124.8256 Y11.9375
G1 X123.5329 Y16.2185
G1 X122.0934 Y20.4524
G1 X120.5089 Y24.6342
G1 X118.7811 Y28.7589
G1 X116.9123 Y32.8216
G1 X114.9045 Y36.8174
G1 X112.7602 Y40.7417
G1 X110.482 Y44.5898
G1 X108.0724 Y48.3571
G1 X105.5345 Y52.0391
G1 X102.8712 Y55.6314
G1 X100.0857 Y59.1299
G1 X97.1812 Y62.5302
G1 X94.1613 Y65.8284
G1 X91.0295 Y69.0206
G1 X87.7896 Y72.103
G1 X84.4454 Y75.0718
G1 X81.0008 Y77.9237
G1 X77.46 Y80.6551
G1 X73.8271 Y83.2629
G1 X70.1066 Y85.744
G1 X66.3027 Y88.0953
G1 X62.4201 Y90.3142
G1 X58.4633 Y92.3979
G1 X54.437 Y94.344
G1 X50.3461 Y96.1502
G1 X46.1953 Y97.8144
G1 X41.9897 Y99.3345
G1 X37.7342 Y100.7087
G1 X33.4338 Y101.9355
G1 X29.0937 Y103.0134
G1 X24.719 Y103.941
G1 X20.315 Y104.7173
G1 X15.8868 Y105.3414
G1 X11.4398 Y105.8125
G1 X6.9792 Y106.13
G1 X2.5102 Y106.2937
G1 X-1.9617 Y106.3032
G1 X-6.4313 Y106.1586
G1 X-10.8932 Y105.86
G1 X-15.3422 Y105.4079
G1 X-19.7868 Y104.8007
G1 X-24.2077 Y104.0403
G1 X-28.5997 Y103.1275
G1 X-32.9575 Y102.0634
G1 X-37.2758 Y100.8492
G1 X-41.5497 Y99.4865
G1 X-45.7739 Y97.9769
G1 X-49.9433 Y96.3222
G1 X-54.0531 Y94.5243
G1 X-58.0982 Y92.5853
G1 X-62.0739 Y90.5077
G1 X-65.9755 Y88.294
G1 X-69.7981 Y85.9466
G1 X-73.5373 Y83.4685
G1 X-77.1886 Y80.8626
G1 X-80.7476 Y78.1321
G1 X-84.2101 Y75.2801
G1 X-87.572 Y72.3101
G1 X-90.8291 Y69.2257
G1 X-93.9777 Y66.0306
G1 X-97.014 Y62.7285
G1 X-99.9342 Y59.3234
G1 X-102.735 Y55.8194
G1 X-105.413 Y52.2206
G1 X-107.965 Y48.5315
G1 X-110.388 Y44.7563
G1 X-112.6789 Y40.8996
G1 X-114.8352 Y36.966
G1 X-116.8542 Y32.9602
G1 X-118.7335 Y28.887
G1 X-120.4708 Y24.7513
G1 X-122.0642 Y20.558
G1 X-123.5116 Y16.3121
G1 X-124.8114 Y12.0187
G1 X-125.962 Y7.6829
G1 X-126.962 Y3.31
G1 X-127.8102 Y-1.0949
G1 X-128.5057 Y-5.5265
G1 X-129.0475 Y-9.9795
G1 X-129.435 Y-14.4485
G1 X-129.6679 Y-18.9283
G1 X-129.7457 Y-23.4135
G1 X-129.6684 Y-27.8986
G1 X-129.4361 Y-32.3784
G1 X-129.0491 Y-36.8475
G1 X-128.5004 Y-41.3534
G1 X-127.7945 Y-45.8373
G1 X-126.9321 Y-50.2938
G1 X-125.9144 Y-54.7174
G1 X-124.7426 Y-59.1027
G1 X-123.418 Y-63.4443
G1 X-121.9424 Y-67.7369
G1 X-120.3175 Y-71.9753
G1 X-118.5454 Y-76.1542
G1 X-116.6282 Y-80.2686
G1 X-114.5682 Y-84.3134
G1 X-112.368 Y-88.2837
G1 X-110.0302 Y-92.1746
G1 X-107.5577 Y-95.9813
G1 X-104.9537 Y-99.6992
G1 X-102.2211 Y-103.3237
G1 X-99.3634 Y-106.8504
G1 X-96.3841 Y-110.275
G1 X-93.2869 Y-113.5932
G1 X-90.0754 Y-116.8011
G1 X-86.7537 Y-119.8947
G1 X-83.3258 Y-122.8702
G1 X-79.7959 Y-125.7239
G1 X-76.1684 Y-128.4525
G1 X-72.4476 Y-131.0524
G1 X-68.6382 Y-133.5206
G1 X-64.7447 Y-135.8541
G1 X-64.1417 Y-136.1147
G1 X-63.4952 Y-136.2316
G1 X-62.8391 Y-136.1987
G1 X-62.2076 Y-136.0178
G1 X-61.6337 Y-135.6982
G1 X-61.1473 Y-135.2567
G1 X-60.7738 Y-134.7162
G1 X-60.5327 Y-134.1052
G1 X-60.4367 Y-133.4553
G1 X-59.7538 Y-112.2881
G1 X-59.7916 Y-111.7217
G1 X-59.9399 Y-111.1738
G1 X-60.193 Y-110.6658
G1 X-60.541 Y-110.2173
G1 X-60.9703 Y-109.846
G1 X-62.5473 Y-108.7338
G1 X-63.7282 Y-107.8486
G1 X-67.6786 Y-104.7212
G1 X-71.2688 Y-101.5939
G1 X-75.0567 Y-97.9739
G1 X-78.1841 Y-94.6799
G1 X-81.3114 Y-91.0786
G1 X-82.9208 Y-89.0844
G1 X-85.3171 Y-85.9571
G1 X-87.5662 Y-82.7636
G1 X-88.5803 Y-81.233
G1 X-90.6935 Y-77.8824
G1 X-93.2206 Y-73.4476
G1 X-95.5841 Y-68.7566
G1 X-97.6692 Y-64.0655
G1 X-98.8892 Y-60.9382
G1 X-100.0268 Y-57.8108
G1 X-101.0599 Y-54.6834
G1 X-101.9554 Y-51.5561
G1 X-102.785 Y-48.4287
G1 X-103.4872 Y-45.3013
G1 X-104.1037 Y-42.174
G1 X-104.6323 Y-39.0466
G1 X-105.0277 Y-35.9193
G1 X-105.3744 Y-32.7919
G1 X-105.5952 Y-29.6645
G1 X-105.7288 Y-26.5372
G1 X-105.8007 Y-23.4098
G1 X-105.7288 Y-20.2824
G1 X-105.5952 Y-17.1551
G1 X-105.3744 Y-14.0277
G1 X-105.0277 Y-10.9004
G1 X-104.6323 Y-7.773
G1 X-104.0937 Y-4.6456
G1 X-103.4872 Y-1.5183
G1 X-102.785 Y1.6091
G1 X-101.9554 Y4.7365
G1 X-101.0599 Y7.8638
G1 X-100.0756 Y10.8532
G1 X-98.8992 Y14.1186
G1 X-97.6692 Y17.2459
G1 X-95.5829 Y21.937
G1 X-93.2206 Y26.628
G1 X-90.6935 Y31.0596
G1 X-88.5803 Y34.4158
G1 X-87.5662 Y35.9489
G1 X-85.3171 Y39.1375
G1 X-84.4388 Y40.3184
G1 X-81.3114 Y44.2688
G1 X-78.1841 Y47.859
G1 X-74.5548 Y51.6469
G1 X-71.2688 Y54.7743
G1 X-67.6786 Y57.9016
G1 X-63.7282 Y61.029
G1 X-62.5473 Y61.9073
G1 X-59.3587 Y64.1564
G1 X-57.8256 Y65.1704
G1 X-54.4694 Y67.2837
G1 X-50.0378 Y69.8108
G1 X-45.3468 Y72.1742
G1 X-40.6557 Y74.2593
G1 X-37.5284 Y75.4794
G1 X-34.263 Y76.6658
G1 X-31.2736 Y77.6501
G1 X-28.1463 Y78.5456
G1 X-25.0189 Y79.3752
G1 X-21.8915 Y80.0774
G1 X-18.7642 Y80.6839
G1 X-15.6368 Y81.2225
G1 X-12.5095 Y81.6179
G1 X-9.3821 Y81.9646
G1 X-6.2547 Y82.1854
G1 X-3.1274 Y82.319
G1 X0. Y82.3909
G1 X3.1274 Y82.319
G1 X6.2547 Y82.1854
G1 X9.3821 Y81.9547
G1 X12.5095 Y81.6179
G1 X15.6368 Y81.2225
G1 X18.7642 Y80.6839
G1 X21.8915 Y80.0774
G1 X25.0189 Y79.3752
G1 X28.1463 Y78.5456
G1 X31.2736 Y77.6501
G1 X34.401 Y76.6169
G1 X37.5284 Y75.4794
G1 X40.6557 Y74.2593
G1 X45.3468 Y72.1731
G1 X50.0378 Y69.8108
G1 X54.4702 Y67.2837
G1 X57.8232 Y65.1704
G1 X59.3538 Y64.1564
G1 X62.5473 Y61.9073
G1 X65.6746 Y59.511
G1 X67.6688 Y57.9016
G1 X71.2715 Y54.7743
G1 X74.5643 Y51.6469
G1 X78.1841 Y47.859
G1 X81.3114 Y44.2688
G1 X84.4388 Y40.3184
G1 X85.324 Y39.1375
G1 X87.5296 Y36.0101
G1 X90.6935 Y31.0596
G1 X93.2114 Y26.628
G1 X95.5826 Y21.937
G1 X97.6692 Y17.2459
G1 X98.8892 Y14.1186
G1 X100.0756 Y10.8532
G1 X101.0619 Y7.8638
G1 X101.9554 Y4.7365
G1 X102.785 Y1.6091
G1 X103.4894 Y-1.5183
G1 X104.0937 Y-4.6456
G1 X104.6313 Y-7.773
G1 X105.0277 Y-10.9004
G1 X105.3645 Y-14.0277
G1 X105.5952 Y-17.1551
G1 X105.7243 Y-20.2824
G1 X105.7935 Y-23.4098
G1 X105.7243 Y-26.5372
G1 X105.5952 Y-29.6645
G1 X105.3745 Y-32.7919
G1 X105.0277 Y-35.9193
G1 X104.6313 Y-39.0466
G1 X104.0937 Y-42.174
G1 X103.4894 Y-45.3013
G1 X102.785 Y-48.4287
G1 X101.9554 Y-51.5561
G1 X101.0619 Y-54.6834
G1 X100.0268 Y-57.8108
G1 X98.8892 Y-60.9382
G1 X97.6692 Y-64.0655
G1 X95.5826 Y-68.7566
G1 X93.2114 Y-73.4476
G1 X90.6935 Y-77.88
G1 X87.5296 Y-82.8297
G1 X85.324 Y-85.9571
G1 X82.9134 Y-89.0844
G1 X81.3114 Y-91.0786
G1 X78.1841 Y-94.6813
G1 X74.5544 Y-98.4665
G1 X71.2701 Y-101.5939
G1 X67.6688 Y-104.7212
G1 X65.6746 Y-106.3232
G1 X62.5473 Y-108.7338
G1 X59.4199 Y-110.9394
G1 X54.4702 Y-114.1033
G1 X50.0378 Y-116.6212
G1 X45.3468 Y-118.9924
G1 X40.6557 Y-121.079
G1 X37.5284 Y-122.299
G1 X34.401 Y-123.4366
G1 X31.2736 Y-124.4717
G1 X28.1463 Y-125.3652
G1 X25.0189 Y-126.1948
G1 X21.8915 Y-126.8992
G1 X18.7642 Y-127.5035
G1 X15.6368 Y-128.0411
G1 X12.5095 Y-128.4376
G1 X9.3821 Y-128.7843
G1 X6.2547 Y-129.005
G1 X3.1274 Y-129.1341
G1 X0. Y-129.2033
G1 X-3.1274 Y-129.1341
G1 X-6.2547 Y-129.005
G1 X-9.3821 Y-128.7743
G1 X-12.5095 Y-128.4376
G1 X-15.6368 Y-128.0411
G1 X-18.7642 Y-127.5035
G1 X-21.8915 Y-126.8992
G1 X-25.0189 Y-126.1948
G1 X-28.1463 Y-125.3652
G1 X-31.2736 Y-124.4717
G1 X-34.263 Y-123.4854
G1 X-37.5284 Y-122.299
G1 X-40.6557 Y-121.079
G1 X-45.3468 Y-118.9924
G1 X-50.0378 Y-116.6212
G1 X-54.4694 Y-114.1033
G1 X-59.4199 Y-110.9394
G1 X-60.9703 Y-109.846
G1 X-64.7447 Y-135.8541
G1 X-64.2154 Y-136.2494
G1 X-63.7943 Y-136.7583
G1 X-63.5051 Y-137.3523
G1 X-63.3642 Y-137.9977
G1 X-63.3794 Y-138.6581
G1 X-63.55 Y-139.2963
G1 X-63.8663 Y-139.8762
G1 X-64.3105 Y-140.3652
G1 X-64.8575 Y-140.7356
G1 X-65.4764 Y-140.9666
G1 X-66.1323 Y-141.045
G1 X-139.1679 Y-141.0459
G1 X-139.5942 Y-141.2568
G1 X-140.0673 Y-141.3059
G1 X-140.5278 Y-141.1871
G1 X-140.7405 Y-140.7381
G1 X-140.9199 Y-140.5012
G1 X-141.0288 Y-140.2247
G1 X-141.0592 Y-139.9292
G1 X-141.0455 Y139.2131
G1 X-141.2473 Y139.6166
G1 X-141.2994 Y140.0647
G1 X-141.1953 Y140.5038
G1 X-140.7701 Y140.7137
G1 X-140.523 Y140.9081
G1 X-140.2298 Y141.0214
G1 X-131.3338 Y141.042
G1 X-73.5988 Y141.0427
G1 X-72.1282 Y140.9673
G1 X-70.673 Y140.7418
G1 X-69.2485 Y140.3687
G1 X-67.8697 Y139.8518
G1 X-66.551 Y139.1965
G1 X-65.3063 Y138.4098
G1 X-64.1485 Y137.4998
G1 X-63.09 Y136.4762
G1 X-62.1417 Y135.3497
G1 X-61.3136 Y134.132
G1 X-60.6144 Y132.8361
G1 X-60.0515 Y131.4754
G1 X-59.6308 Y130.0642
G1 X-59.3566 Y128.6175
G1 X-59.2319 Y127.1502
G1 X-59.2579 Y125.6779
G1 X-59.4345 Y124.216
G1 X-59.7596 Y122.7798
G1 X-60.23 Y121.3844
G1 X-60.8406 Y120.0445
G1 X-61.5852 Y118.7741
G1 X-62.4558 Y117.5865
G1 X-63.4433 Y116.4942
G1 X-64.5374 Y115.5086
G1 X-65.7266 Y114.6402
G1 X-103.5548 Y89.882
G1 X-104.5896 Y89.1372
G1 X-105.5543 Y88.3036
G1 X-108.561 Y85.3845
G1 X-109.2035 Y84.8432
G1 X-109.9275 Y84.4172
G1 X-110.7127 Y84.1183
G1 X-111.5369 Y83.9551
G1 X-112.3767 Y83.9323
G1 X-113.2085 Y84.0503
G1 X-114.0087 Y84.306
G1 X-114.7549 Y84.692
G1 X-115.4259 Y85.1976
G1 X-116.0028 Y85.8083
G1 X-116.4693 Y86.507
G1 X-116.8123 Y87.274
G1 X-117.0219 Y88.0875
G1 X-117.0924 Y88.9247
G1 X-117.0902 Y112.0848
G1 X-117.0141 Y112.9529
G1 X-116.7885 Y113.7947
G1 X-116.4201 Y114.5845
G1 X-115.9202 Y115.2984
G1 X-115.3039 Y115.9146
G1 X-114.59 Y116.4145
G1 X-113.8002 Y116.7827
G1 X-112.9584 Y117.0083
G1 X-112.0902 Y117.0843
G1 X-73.5985 Y117.0847
G1 X-72.9758 Y117.0093
G1 X-72.3891 Y116.7874
G1 X-71.8723 Y116.4319
G1 X-71.4553 Y115.9633
G1 X-71.1622 Y115.4087
G1 X-71.01 Y114.8002
G1 X-71.0075 Y114.173
G1 X-71.1547 Y113.5632
G1 X-71.4432 Y113.0063
G1 X-71.8564 Y112.5343
G1 X-72.3703 Y112.1746
G1 X-76.3569 Y109.9705
G1 X-80.2764 Y107.6493
G1 X-84.1255 Y105.2129
G1 X-87.9006 Y102.6636
G1 X-91.5985 Y100.0035
G1 X-95.216 Y97.2349
G1 X-98.7499 Y94.3604
G1 X-102.197 Y91.3824
G1 X-105.5543 Y88.3036
G1 X-73.5988 Y141.0427
G1 X139.1679 Y141.0451
G1 X139.5933 Y141.2584
G1 X140.0664 Y141.3097
G1 X140.5275 Y141.1924
G1 X140.7386 Y140.7409
G1 X140.9169 Y140.5064
G1 X141.0256 Y140.2326
G1 X141.0566 Y139.9397
G1 X141.0546 Y88.9012
G1 X140.9795 Y87.4347
G1 X140.7552 Y85.9836
G1 X140.3841 Y84.5628
G1 X139.8699 Y83.1874
G1 X139.2181 Y81.8715
G1 X138.4355 Y80.6291
G1 X137.5302 Y79.4729
G1 X136.5116 Y78.4152
G1 X135.3905 Y77.4669
G1 X134.1785 Y76.6379
G1 X132.8882 Y75.9369
G1 X131.5332 Y75.3711
G1 X130.1275 Y74.9466
G1 X128.6858 Y74.6677
G1 X127.2232 Y74.5373
G1 X125.7549 Y74.5568
G1 X124.2963 Y74.726
G1 X122.8625 Y75.0431
G1 X121.4686 Y75.5048
G1 X120.129 Y76.1064
G1 X118.8578 Y76.8414
G1 X117.6683 Y77.7023
G1 X81.7478 Y106.6052
G1 X81.0116 Y107.1597
G1 X80.2413 Y107.6659
G1 X76.3338 Y109.9792
G1 X72.3596 Y112.176
G1 X71.8457 Y112.5358
G1 X71.4326 Y113.0078
G1 X71.144 Y113.5647
G1 X70.9968 Y114.1745
G1 X70.9993 Y114.8017
G1 X71.1515 Y115.4103
G1 X71.4446 Y115.9649
G1 X71.8616 Y116.4335
G1 X72.3784 Y116.789
G1 X72.9651 Y117.0109
G1 X73.5878 Y117.0864
G1 X112.1075 Y117.0868
G1 X112.9758 Y117.0108
G1 X113.8177 Y116.7852
G1 X114.6076 Y116.4169
G1 X115.3216 Y115.9169
G1 X115.9379 Y115.3006
G1 X116.4378 Y114.5866
G1 X116.8061 Y113.7966
G1 X117.0316 Y112.9547
G1 X117.1075 Y112.0864
G1 X117.1057 Y88.9022
G1 X117.035 Y88.065
G1 X116.8252 Y87.2515
G1 X116.4821 Y86.4846
G1 X116.0155 Y85.786
G1 X115.4385 Y85.1753
G1 X114.7674 Y84.6699
G1 X114.0211 Y84.284
G1 X113.2208 Y84.0285
G1 X112.389 Y83.9106
G1 X111.5491 Y83.9337
G1 X110.725 Y84.097
G1 X109.9399 Y84.396
G1 X109.2159 Y84.8222
G1 X108.5735 Y85.3637
G1 X105.3297 Y88.5075
G1 X101.9948 Y91.5547
G1 X98.5718 Y94.5025
G1 X95.0637 Y97.3485
G1 X91.4734 Y100.0902
G1 X87.8041 Y102.7251
G1 X84.059 Y105.2511
G1 X80.2413 Y107.6659
G1 X141.0546 Y88.9012
G1 X141.051 Y0.0464
G1 X141.0507 Y-6.9536
G0 Z156.5088
G0 X-100.4775 Y-74.1569
G0 Z151.925
G1 Z146.925 F#901
G1 X-94.224 Y-71.0116 F#900
G1 X-93.9861 Y-70.892
G1 X-95.0602 Y-68.7566
G1 X-97.158 Y-64.0655
G1 X-98.3856 Y-60.9382
G1 X-99.5319 Y-57.8108
G1 X-100.5749 Y-54.6834
G1 X-101.0398 Y-53.1198
G1 X-102.3035 Y-48.4287
G1 X-103.203 Y-44.4227
G1 X-103.6268 Y-42.174
G1 X-104.1557 Y-39.0466
G1 X-104.5548 Y-35.9193
G1 X-104.9032 Y-32.7919
G1 X-105.124 Y-29.6645
G1 X-105.2543 Y-26.5372
G1 X-105.3235 Y-23.4098
G1 X-105.2543 Y-20.2824
G1 X-105.124 Y-17.1551
G1 X-104.9032 Y-14.0277
G1 X-104.5548 Y-10.9004
G1 X-104.1557 Y-7.773
G1 X-103.203 Y-2.3978
G1 X-102.3133 Y1.6091
G1 X-101.4681 Y4.7365
G1 X-100.5749 Y7.8638
G1 X-99.5319 Y10.9912
G1 X-98.3856 Y14.1186
G1 X-97.158 Y17.2459
G1 X-95.0652 Y21.937
G1 X-92.6848 Y26.628
G1 X-90.6935 Y30.1366
G1 X-87.5662 Y35.1159
G1 X-84.4388 Y39.5438
G1 X-81.3114 Y43.535
G1 X-78.1841 Y47.1702
G1 X-75.0567 Y50.4748
G1 X-73.8847 Y51.6469
G1 X-70.5701 Y54.7743
G1 X-66.9448 Y57.9016
G1 X-62.9536 Y61.029
G1 X-58.5257 Y64.1564
G1 X-53.5464 Y67.2837
G1 X-50.0378 Y69.275
G1 X-46.9104 Y70.8642
G1 X-43.7831 Y72.3632
G1 X-40.6557 Y73.7482
G1 X-37.5284 Y74.9758
G1 X-34.401 Y76.1221
G1 X-31.2736 Y77.1651
G1 X-29.7099 Y77.63
G1 X-25.0189 Y78.8936
G1 X-21.012 Y79.7932
G1 X-15.6368 Y80.7459
G1 X-12.5095 Y81.145
G1 X-9.3821 Y81.4934
G1 X-6.2547 Y81.7142
G1 X-3.1274 Y81.8445
G1 X0. Y81.9137
G1 X3.1274 Y81.8445
G1 X6.2547 Y81.7142
G1 X9.3821 Y81.4835
G1 X12.5095 Y81.145
G1 X15.6368 Y80.7459
G1 X21.0129 Y79.7932
G1 X25.0189 Y78.8936
G1 X29.7099 Y77.63
G1 X31.2736 Y77.1651
G1 X35.9647 Y75.5795
G1 X40.6557 Y73.7482
G1 X45.3468 Y71.6553
G1 X50.0378 Y69.265
G1 X53.5464 Y67.2837
G1 X58.5253 Y64.1564
G1 X62.9516 Y61.029
G1 X66.9495 Y57.9016
G1 X70.5704 Y54.7743
G1 X73.8835 Y51.6469
G1 X75.0567 Y50.4748
G1 X78.1841 Y47.1603
G1 X81.3114 Y43.535
G1 X84.7424 Y39.1375
G1 X87.5662 Y35.1159
G1 X88.998 Y32.8827
G1 X90.6935 Y30.1366
G1 X92.6748 Y26.628
G1 X95.0624 Y21.937
G1 X97.1591 Y17.2459
G1 X98.3856 Y14.1186
G1 X99.5319 Y10.9912
G1 X100.5687 Y7.8638
G1 X101.4679 Y4.7365
G1 X102.3034 Y1.6091
G1 X103.203 Y-2.3978
G1 X104.1557 Y-7.773
G1 X104.5543 Y-10.9004
G1 X104.8933 Y-14.0277
G1 X105.124 Y-17.1551
G1 X105.2543 Y-20.2824
G1 X105.3235 Y-23.4098
G1 X105.2543 Y-26.5372
G1 X105.124 Y-29.6645
G1 X104.8933 Y-32.7919
G1 X104.5543 Y-35.9193
G1 X104.1557 Y-39.0466
G1 X103.203 Y-44.4227
G1 X102.3034 Y-48.4287
G1 X101.4679 Y-51.5561
G1 X100.5687 Y-54.6834
G1 X99.5319 Y-57.8108
G1 X98.3856 Y-60.9382
G1 X97.1591 Y-64.0655
G1 X95.0624 Y-68.7566
G1 X92.6848 Y-73.4476
G1 X90.6935 Y-76.9562
G1 X88.998 Y-79.7023
G1 X87.5662 Y-81.936
G1 X84.7424 Y-85.9571
G1 X81.3114 Y-90.3593
G1 X78.1841 Y-93.9802
G1 X75.0567 Y-97.2933
G1 X73.8835 Y-98.4665
G1 X70.5758 Y-101.5939
G1 X66.9432 Y-104.7212
G1 X62.5473 Y-108.1522
G1 X58.5253 Y-110.976
G1 X53.5464 Y-114.1033
G1 X50.0378 Y-116.0846
G1 X45.3468 Y-118.4711
G1 X43.7831 Y-119.1928
G1 X40.6557 Y-120.5689
G1 X37.5284 Y-121.7954
G1 X34.401 Y-122.9417
G1 X31.2736 Y-123.9785
G1 X28.1463 Y-124.8777
G1 X25.0189 Y-125.7132
G1 X21.0129 Y-126.6128
G1 X15.6368 Y-127.5655
G1 X12.5095 Y-127.9641
G1 X9.3821 Y-128.3031
G1 X6.2547 Y-128.5338
G1 X3.1274 Y-128.6641
G1 X0. Y-128.7333
G1 X-3.1274 Y-128.6641
G1 X-6.2547 Y-128.5338
G1 X-9.3821 Y-128.3031
G1 X-12.5095 Y-127.9641
G1 X-15.6368 Y-127.5655
G1 X-21.012 Y-126.6128
G1 X-25.0189 Y-125.7132
G1 X-28.1463 Y-124.8777
G1 X-31.2736 Y-123.9785
G1 X-34.401 Y-122.9417
G1 X-37.5284 Y-121.7954
G1 X-40.6557 Y-120.5689
G1 X-45.3468 Y-118.4722
G1 X-50.0378 Y-116.0846
G1 X-53.5464 Y-114.1033
G1 X-58.5257 Y-110.976
G1 X-62.5473 Y-108.1522
G1 X-66.9448 Y-104.7212
G1 X-70.5701 Y-101.5939
G1 X-73.8847 Y-98.4665
G1 X-75.0567 Y-97.2933
G1 X-78.1841 Y-93.9856
G1 X-81.3114 Y-90.3593
G1 X-84.4388 Y-86.3614
G1 X-87.5662 Y-81.936
G1 X-90.6935 Y-76.9562
G1 X-92.6748 Y-73.4476
G1 X-93.9861 Y-70.892
G1 X-94.3865 Y-70.1199 Z146.9263
G1 X-95.1967 Y-68.6976 Z146.9286
G1 X-96.0182 Y-67.4342 Z146.9308
G1 X-96.8494 Y-66.3255 Z146.9328
G1 X-97.6884 Y-65.367 Z146.9346
G1 X-98.5336 Y-64.5546 Z146.9363
G1 X-99.3834 Y-63.8839 Z146.9379
G1 X-100.2361 Y-63.3507 Z146.9393
G1 X-101.0899 Y-62.9507 Z146.9407
G1 X-101.9433 Y-62.6795 Z146.942
G1 X-102.7945 Y-62.5329 Z146.9432
G1 X-103.6418 Y-62.5065 Z146.9445
G1 X-104.4836 Y-62.5962 Z146.9457
G1 X-105.3181 Y-62.7976 Z146.9469
G1 X-106.1438 Y-63.1063 Z146.9482
G1 X-106.9589 Y-63.5182 Z146.9495
G1 X-107.7617 Y-64.0289 Z146.9509
G1 X-108.158 Y-64.32 Z146.9516
G1 X-108.9393 Y-64.9709 Z146.9531
G1 X-109.7041 Y-65.7099 Z146.9546
G1 X-110.4508 Y-66.5327 Z146.9562
G1 X-111.1776 Y-67.435 Z146.9579
G1 X-111.8829 Y-68.4125 Z146.9596
G1 X-112.5651 Y-69.4609 Z146.9614
G1 X-113.2224 Y-70.576 Z146.9633
G1 X-113.8531 Y-71.7534 Z146.9652
G1 X-114.4556 Y-72.9889 Z146.9672
G1 X-115.0282 Y-74.2781 Z146.9692
G1 X-115.5692 Y-75.6168 Z146.9713
G1 X-116.077 Y-77.0007 Z146.9734
G1 X-116.5497 Y-78.4255 Z146.9756
G1 X-116.9859 Y-79.8868 Z146.9778
G1 X-117.3837 Y-81.3805 Z146.98
G1 X-117.7415 Y-82.9022 Z146.9823
G1 X-118.0577 Y-84.4475 Z146.9846
G1 X-118.3305 Y-86.0124 Z146.9868
G1 X-118.5582 Y-87.5923 Z146.9892
G1 X-118.7393 Y-89.1831 Z146.9915
G1 X-118.8719 Y-90.7804 Z146.9938
G1 X-118.9545 Y-92.38 Z146.9961
G1 X-118.9852 Y-93.9775 Z146.9984
G1 X-118.9626 Y-95.5688 Z147.0007
G1 X-118.8848 Y-97.1494 Z147.003
G1 X-118.7502 Y-98.7151 Z147.0052
G1 X-118.5572 Y-100.2616 Z147.0075
G1 X-118.3039 Y-101.7846 Z147.0097
G1 X-117.9888 Y-103.2798 Z147.0119
G1 X-117.6102 Y-104.7429 Z147.0141
G1 X-117.1664 Y-106.1697 Z147.0162
G1 X-116.6557 Y-107.5558 Z147.0184
G1 X-116.3747 Y-108.2323 Z147.0194
G1 X-115.7605 Y-109.5493 Z147.0215
G1 X-115.0752 Y-110.815 Z147.0236
G1 X-114.3171 Y-112.025 Z147.0257
G1 X-113.4846 Y-113.1751 Z147.0277
G1 X-112.5759 Y-114.2608 Z147.0298
G1 X-111.5895 Y-115.278 Z147.0318
G1 X-110.5235 Y-116.2224 Z147.0339
G1 X-109.3763 Y-117.0896 Z147.0359
G1 X-108.1463 Y-117.8754 Z147.038
G1 X-106.8318 Y-118.5754 Z147.0402
G1 X-105.431 Y-119.1854 Z147.0424
G1 X-103.9423 Y-119.7012 Z147.0447
G1 X-102.364 Y-120.1183 Z147.047
G1 X-100.6945 Y-120.4325 Z147.0495
G1 X-93.8 Y-121.2581 Z147.0595
G1 X-87.775 Y-121.9666 Z147.0682
G1 X-81.7501 Y-122.675 Z147.077
G1 X-75.7251 Y-123.3834 Z147.0857
G1 X-69.7001 Y-124.0919 Z147.0945
G1 X-63.6752 Y-124.8003 Z147.1032
G1 X-57.6502 Y-125.5087 Z147.112
G1 X-51.6252 Y-126.2172 Z147.1208
G1 X-45.6002 Y-126.9256 Z147.1295
G1 X-39.5753 Y-127.634 Z147.1383
G1 X-33.5503 Y-128.3425 Z147.147
G1 X-27.5253 Y-129.0509 Z147.1558
G1 X-21.5003 Y-129.7593 Z147.1645
G1 X-15.4754 Y-130.4677 Z147.1733
G1 X-9.4504 Y-131.1762 Z147.182
G1 X-3.4254 Y-131.8846 Z147.1908
G1 X2.5995 Y-132.593 Z147.1995
G1 X8.6245 Y-133.3015 Z147.2083
G1 X14.6495 Y-134.0099 Z147.217
G1 X20.6745 Y-134.7183 Z147.2258
G1 X26.6994 Y-135.4268 Z147.2345
G1 X32.7244 Y-136.1352 Z147.2433
G1 X38.7494 Y-136.8436 Z147.252
G1 X44.7744 Y-137.552 Z147.2608
G1 X50.7993 Y-138.2605 Z147.2695
G1 X56.8243 Y-138.9689 Z147.2783
G1 X58.4281 Y-139.134 Z147.2806
G1 X60.0165 Y-139.2511 Z147.2829
G1 X61.5885 Y-139.321 Z147.2852
G1 X63.1431 Y-139.3449 Z147.2874
G1 X64.6795 Y-139.3235 Z147.2896
G1 X66.1966 Y-139.2579 Z147.2918
G1 X67.6934 Y-139.149 Z147.294
G1 X69.1691 Y-138.9978 Z147.2961
G1 X70.6227 Y-138.8051 Z147.2982
G1 X72.0532 Y-138.5721 Z147.3003
G1 X73.4596 Y-138.2996 Z147.3024
G1 X74.8409 Y-137.9885 Z147.3044
G1 X76.1963 Y-137.6399 Z147.3065
G1 X77.5248 Y-137.2546 Z147.3085
G1 X78.8254 Y-136.8337 Z147.3104
G1 X80.0971 Y-136.3781 Z147.3124
G1 X81.339 Y-135.8887 Z147.3143
G1 X82.5501 Y-135.3664 Z147.3162
G1 X83.7295 Y-134.8124 Z147.3181
G1 X84.8762 Y-134.2274 Z147.3199
G1 X85.9892 Y-133.6124 Z147.3218
G1 X87.0676 Y-132.9684 Z147.3236
G1 X88.1105 Y-132.2964 Z147.3254
G1 X89.1168 Y-131.5973 Z147.3271
G1 X90.0856 Y-130.872 Z147.3289
G1 X91.0159 Y-130.1215 Z147.3306
G1 X91.9069 Y-129.3468 Z147.3323
G1 X92.7574 Y-128.5488 Z147.334
G1 X93.5667 Y-127.7285 Z147.3357
G1 X94.3336 Y-126.8867 Z147.3373
G1 X95.0573 Y-126.0245 Z147.3389
G1 X95.7368 Y-125.1428 Z147.3405
G1 X96.3711 Y-124.2426 Z147.3421
G1 X96.9592 Y-123.3248 Z147.3437
G1 X97.5003 Y-122.3904 Z147.3453
G1 X97.9933 Y-121.4403 Z147.3468
G1 X98.4373 Y-120.4754 Z147.3483
G1 X98.8313 Y-119.4968 Z147.3499
G1 X99.1744 Y-118.5054 Z147.3514
G1 X99.4657 Y-117.5021 Z147.3529
G1 X99.704 Y-116.4879 Z147.3544
G1 X99.8886 Y-115.4637 Z147.3559
G1 X100.0183 Y-114.4305 Z147.3574
G1 X100.0924 Y-113.3892 Z147.3589
G1 X100.1097 Y-112.3408 Z147.3604
G1 X100.0694 Y-111.2863 Z147.3619
G1 X99.9705 Y-110.2265 Z147.3635
G1 X99.8121 Y-109.1625 Z147.365
G1 X99.5931 Y-108.0952 Z147.3666
G1 X99.3126 Y-107.0255 Z147.3682
G1 X98.9696 Y-105.9545 Z147.3698
G1 X98.5633 Y-104.8829 Z147.3714
G1 X98.0926 Y-103.8119 Z147.3731
G1 X97.5565 Y-102.7424 Z147.3749
G1 X96.9542 Y-101.6752 Z147.3766
G1 X96.2846 Y-100.6115 Z147.3784
G1 X95.5468 Y-99.552 Z147.3803
G1 X94.7398 Y-98.4978 Z147.3822
G1 X93.8628 Y-97.4498 Z147.3842
G1 X92.9146 Y-96.409 Z147.3862
G1 X91.8944 Y-95.3763 Z147.3883
G1 X90.8011 Y-94.3526 Z147.3905
G1 X89.6339 Y-93.339 Z147.3927
G1 X88.3918 Y-92.3364 Z147.395
G1 X82.8692 Y-88.0352
G1 X82.6621 Y-87.8739
G1 X81.3114 Y-89.608
G1 X78.1841 Y-93.2749
G1 X75.0567 Y-96.6113
G1 X73.2014 Y-98.4665
G1 X69.8651 Y-101.5939
G1 X66.2079 Y-104.7212
G1 X62.5473 Y-107.5647
G1 X59.4199 Y-109.78
G1 X57.6714 Y-110.976
G1 X54.7289 Y-112.8389
G1 X53.1652 Y-113.7737
G1 X50.0378 Y-115.5553
G1 X46.7656 Y-117.2307
G1 X43.7831 Y-118.678
G1 X39.9394 Y-120.3581
G1 X37.5284 Y-121.2918
G1 X34.401 Y-122.4469
G1 X31.2736 Y-123.4854
G1 X29.7018 Y-123.9622
G1 X25.0189 Y-125.2312
G1 X21.8915 Y-125.9339
G1 X18.7642 Y-126.5498
G1 X15.6368 Y-127.0898
G1 X12.5095 Y-127.5007
G1 X9.3821 Y-127.832
G1 X6.2547 Y-128.0627
G1 X3.1274 Y-128.1941
G1 X0. Y-128.2633
G1 X-3.1274 Y-128.2037
G1 X-6.2547 Y-128.0627
G1 X-9.3821 Y-127.832
G1 X-12.5095 Y-127.4907
G1 X-15.6368 Y-127.0898
G1 X-18.7642 Y-126.5498
G1 X-21.8915 Y-125.9339
G1 X-25.0189 Y-125.2314
G1 X-28.1463 Y-124.4002
G1 X-31.2736 Y-123.4854
G1 X-34.401 Y-122.4469
G1 X-37.5284 Y-121.2918
G1 X-39.9443 Y-120.3581
G1 X-43.7831 Y-118.678
G1 X-45.2793 Y-117.9788
G1 X-50.0378 Y-115.5552
G1 X-53.1652 Y-113.7737
G1 X-54.7289 Y-112.8389
G1 X-57.6714 Y-110.976
G1 X-59.4199 Y-109.78
G1 X-62.5473 Y-107.5647
G1 X-66.1979 Y-104.7212
G1 X-69.8653 Y-101.5939
G1 X-73.2034 Y-98.4665
G1 X-75.0567 Y-96.6112
G1 X-78.1841 Y-93.2749
G1 X-81.3114 Y-89.608
G1 X-84.1558 Y-85.9571
G1 X-86.3702 Y-82.8297
G1 X-87.5662 Y-81.0812
G1 X-89.427 Y-78.1387
G1 X-90.3719 Y-76.575
G1 X-92.1454 Y-73.4476
G1 X-93.7541 Y-70.3203
G1 X-95.259 Y-67.1929
G1 X-96.9483 Y-63.3492
G1 X-97.882 Y-60.9382
G1 X-99.0371 Y-57.8108
G1 X-100.0756 Y-54.6834
G1 X-100.5524 Y-53.1116
G1 X-101.8216 Y-48.4287
G1 X-102.8673 Y-43.7377
G1 X-103.68 Y-39.0466
G1 X-104.0909 Y-35.9193
G1 X-104.4321 Y-32.7919
G1 X-104.6529 Y-29.6645
G1 X-104.7843 Y-26.5372
G1 X-104.8635 Y-23.4098
G1 X-104.7843 Y-20.2824
G1 X-104.6529 Y-17.1551
G1 X-104.4321 Y-14.0277
G1 X-104.0809 Y-10.9004
G1 X-103.6894 Y-7.773
G1 X-102.8673 Y-3.0819
G1 X-101.8218 Y1.6091
G1 X-100.9804 Y4.7365
G1 X-100.0756 Y7.8638
G1 X-99.0371 Y10.9912
G1 X-97.8919 Y14.1186
G1 X-96.9483 Y16.5345
G1 X-95.259 Y20.3733
G1 X-93.8209 Y23.3658
G1 X-92.1454 Y26.628
G1 X-90.3719 Y29.7554
G1 X-89.427 Y31.319
G1 X-87.5662 Y34.2616
G1 X-86.3702 Y36.0101
G1 X-84.1558 Y39.1375
G1 X-81.3114 Y42.7881
G1 X-78.1841 Y46.4553
G1 X-75.0567 Y49.7936
G1 X-73.2034 Y51.6469
G1 X-69.8651 Y54.7743
G1 X-66.1979 Y57.9016
G1 X-62.5473 Y60.7459
G1 X-59.4199 Y62.9604
G1 X-57.6714 Y64.1564
G1 X-54.7289 Y66.0171
G1 X-53.1652 Y66.9621
G1 X-50.0378 Y68.7355
G1 X-46.7756 Y70.4111
G1 X-43.7831 Y71.8492
G1 X-39.9443 Y73.5385
G1 X-37.5284 Y74.4722
G1 X-34.401 Y75.6273
G1 X-31.2736 Y76.6658
G1 X-28.1463 Y77.5706
G1 X-25.0189 Y78.4117
G1 X-20.3279 Y79.4575
G1 X-15.6368 Y80.2795
G1 X-12.5095 Y80.6711
G1 X-9.3821 Y81.0223
G1 X-6.2547 Y81.2431
G1 X-3.1274 Y81.3745
G1 X0. Y81.4437
G1 X3.1274 Y81.3745
G1 X6.2547 Y81.2431
G1 X9.3821 Y81.0124
G1 X12.5095 Y80.6711
G1 X15.6368 Y80.2795
G1 X20.3279 Y79.4575
G1 X25.0189 Y78.4116
G1 X29.7018 Y77.1426
G1 X31.2736 Y76.6658
G1 X34.401 Y75.6372
G1 X37.5284 Y74.4722
G1 X39.9394 Y73.5385
G1 X43.7831 Y71.8592
G1 X46.9104 Y70.3443
G1 X50.0378 Y68.7356
G1 X53.1652 Y66.9621
G1 X54.7289 Y66.0171
G1 X57.6713 Y64.1564
G1 X59.4199 Y62.9704
G1 X62.5473 Y60.7459
G1 X66.1982 Y57.9016
G1 X69.8651 Y54.7743
G1 X73.2014 Y51.6469
G1 X75.0567 Y49.7936
G1 X78.1841 Y46.4555
G1 X81.3114 Y42.7881
G1 X84.1549 Y39.1375
G1 X86.3702 Y36.0101
G1 X87.5662 Y34.2616
G1 X89.4291 Y31.319
G1 X90.3639 Y29.7554
G1 X92.1454 Y26.628
G1 X94.569 Y21.8695
G1 X95.2682 Y20.3733
G1 X96.9483 Y16.5345
G1 X97.882 Y14.1186
G1 X99.0371 Y10.9912
G1 X100.0756 Y7.8638
G1 X100.9804 Y4.7365
G1 X101.8216 Y1.6091
G1 X102.5241 Y-1.5183
G1 X103.14 Y-4.6456
G1 X103.68 Y-7.773
G1 X104.0809 Y-10.9004
G1 X104.4222 Y-14.0277
G1 X104.6529 Y-17.1551
G1 X104.7843 Y-20.2824
G1 X104.8535 Y-23.4098
G1 X104.789 Y-26.5372
G1 X104.6529 Y-29.6645
G1 X104.4222 Y-32.7919
G1 X104.0909 Y-35.9193
G1 X103.68 Y-39.0466
G1 X103.14 Y-42.174
G1 X102.5241 Y-45.3013
G1 X101.8214 Y-48.4287
G1 X100.5524 Y-53.1116
G1 X100.0756 Y-54.6834
G1 X99.0371 Y-57.8108
G1 X97.882 Y-60.9382
G1 X96.9483 Y-63.3492
G1 X95.2682 Y-67.1929
G1 X93.8209 Y-70.1754
G1 X92.1455 Y-73.4476
G1 X90.3639 Y-76.575
G1 X89.4291 Y-78.1387
G1 X87.5662 Y-81.0812
G1 X86.3702 Y-82.8297
G1 X84.1549 Y-85.9571
G1 X82.6621 Y-87.8739
G1 X82.2026 Y-88.4917 Z147.406
G1 X81.7846 Y-89.1108 Z147.4373
G1 X81.4073 Y-89.7305 Z147.4861
G1 X81.0699 Y-90.3502 Z147.5494
G1 X80.5113 Y-91.5869 Z147.7078
G1 X80.1022 Y-92.8159 Z147.8896
G1 X79.836 Y-94.032 Z148.0748
G1 X79.7242 Y-95.0064 Z148.2159
G1 X79.6901 Y-95.8207 Z148.2213
G1 X79.7545 Y-97.0002 Z148.2292
G1 X79.7907 Y-97.27 Z148.231 F#907
G1 X79.9339 Y-98.1129 Z148.2367
G1 X80.0675 Y-98.6651 Z148.2405
G1 X80.4164 Y-99.74 Z148.248
G1 X80.8684 Y-100.7714 Z148.2555
G1 X81.4169 Y-101.754 Z148.263
G1 X82.0554 Y-102.6829 Z148.2705
G1 X82.777 Y-103.5528 Z148.2781
G1 X83.5754 Y-104.3586 Z148.2856
G1 X84.4437 Y-105.0953 Z148.2932
G1 X85.3755 Y-105.7578 Z148.3008
G1 X86.3641 Y-106.3408 Z148.3085
G1 X87.4027 Y-106.8393 Z148.3162
G1 X88.485 Y-107.2482 Z148.3239
G1 X89.6041 Y-107.5624 Z148.3316
G1 X90.7535 Y-107.7767 Z148.3394
G1 X91.9266 Y-107.886 Z148.3473
G1 X93.1167 Y-107.8852 Z148.3552
G1 X94.3172 Y-107.7693 Z148.3632
G1 X95.5215 Y-107.533 Z148.3714
G1 X96.723 Y-107.1712 Z148.3798
G1 X97.9151 Y-106.6789 Z148.3884
G1 X99.091 Y-106.051 Z148.3973
G1 X100.2442 Y-105.2822 Z148.4065
G1 X101.3681 Y-104.3676 Z148.4162
G1 X102.4561 Y-103.3019 Z148.4263
G1 X106.7151 Y-98.7433 Z148.4679
G1 X110.9742 Y-94.1847 Z148.5095
G1 X115.2332 Y-89.6261 Z148.5511
G1 X119.7346 Y-84.808 Z148.595
G1 X123.7513 Y-80.5089
G1 X128.0103 Y-75.9503
G1 X132.2693 Y-71.3916
G1 X136.5283 Y-66.833
G1 X140.7874 Y-62.2744
G1 X145.0464 Y-57.7158
G1 X149.3054 Y-53.1572
G1 X153.5645 Y-48.5986
G1 X157.8235 Y-44.04
G1 X162.0825 Y-39.4814
G1 X166.0041 Y-35.284
G1 X170.6006 Y-30.3641 Z148.1244
G1 X171.7269 Y-29.1087 Z148.0065
G1 X172.7793 Y-27.8346 Z147.8909
G1 X173.7568 Y-26.5456 Z147.7778
G1 X174.6583 Y-25.2455 Z147.6673
G1 X175.4827 Y-23.9382 Z147.5592
G1 X176.229 Y-22.6275 Z147.4538
G1 X176.8962 Y-21.3173 Z147.351
G1 X177.4833 Y-20.0114 Z147.2509
G1 X177.9891 Y-18.7136 Z147.1536
G1 X178.4126 Y-17.4279 Z147.0589
G1 X178.7528 Y-16.158 Z146.967
G1 X179.0087 Y-14.9078 Z146.8778
G1 X179.1047 Y-14.2913 Z146.8342
G1 X179.232 Y-13.0778 Z146.7489
G1 X179.2725 Y-11.8936 Z146.6661
G1 X179.2249 Y-10.7425 Z146.5855
G1 X179.0882 Y-9.6285 Z146.507
G1 X178.8615 Y-8.5552 Z146.4303
G1 X178.5436 Y-7.5266 Z146.3551
G1 X178.1335 Y-6.5465 Z146.2808
G1 X177.6302 Y-5.6187 Z146.207
G1 X177.0326 Y-4.7471 Z146.1331
G1 X176.3397 Y-3.9356 Z146.0584
G1 X175.5505 Y-3.1879 Z145.9824
G1 X174.6638 Y-2.508 Z145.9043
G1 X173.6787 Y-1.8996 Z145.8233
G1 X172.594 Y-1.3666 Z145.7388
G1 X171.4089 Y-0.9128 Z145.6501
G1 X170.1221 Y-0.5422 Z145.5565
G1 X168.7328 Y-0.2584 Z145.4573
G1 X168.005 Y-0.1512 Z145.4059
G1 X167.9993 Y-0.1503 Z145.4055 F#900
G1 X167.0003 Y-0.0468 Z145.3353
G1 X165.642 Y0.0329 Z145.3196
G1 X164.8035 Y0.0454 Z145.31
G1 X141.051 Y0.0464
G1 X141.0455 Y-139.1222
G1 X141.2806 Y-139.5472
G1 X141.3511 Y-140.0276
G1 X141.248 Y-140.5022
G1 X140.7719 Y-140.7107
G1 X140.5228 Y-140.9074
G1 X140.2268 Y-141.022
G1 X140.0907 Y-141.037
G1 X128.2103 Y-141.0428
G1 X68.9612 Y-141.0435
G1 X68.3262 Y-140.9744
G1 X67.721 Y-140.7705
G1 X67.1738 Y-140.4412
G1 X66.7101 Y-140.002
G1 X66.3518 Y-139.4733
G1 X66.1154 Y-138.88
G1 X66.0122 Y-138.2497
G1 X66.0469 Y-137.612
G1 X66.2179 Y-136.9966
G1 X66.5172 Y-136.4324
G1 X66.9307 Y-135.9457
G1 X67.4393 Y-135.5594
G1 X71.224 Y-133.1948
G1 X74.9259 Y-130.7026
G1 X78.5406 Y-128.0856
G1 X82.0641 Y-125.3468
G1 X85.4921 Y-122.4895
G1 X88.8206 Y-119.517
G1 X92.0459 Y-116.4328
G1 X95.1642 Y-113.2403
G1 X98.1718 Y-109.9434
G1 X101.0652 Y-106.5459
G1 X103.8411 Y-103.0517
G1 X106.4963 Y-99.4649
G1 X109.0276 Y-95.7896
G1 X111.4322 Y-92.0301
G1 X113.7071 Y-88.1909
G1 X115.8498 Y-84.2763
G1 X117.8578 Y-80.2909
G1 X119.7288 Y-76.2394
G1 X121.4605 Y-72.1265
G1 X123.051 Y-67.9569
G1 X124.4984 Y-63.7355
G1 X125.801 Y-59.4672
G1 X126.9574 Y-55.1569
G1 X127.9661 Y-50.8098
G1 X128.8259 Y-46.4308
G1 X129.536 Y-42.025
G1 X130.0955 Y-37.5975
G1 X130.5036 Y-33.1536
G1 X130.76 Y-28.6983
G1 X130.8644 Y-24.2369
G1 X130.8165 Y-19.7745
G1 X130.6166 Y-15.3163
G1 X130.2647 Y-10.8676
G1 X129.7577 Y-6.4047
G1 X129.0977 Y-1.9618
G1 X128.2857 Y2.4559
G1 X127.3225 Y6.843
G1 X126.2094 Y11.1945
G1 X124.9476 Y15.5053
G1 X123.5386 Y19.7702
G1 X121.984 Y23.9842
G1 X120.2858 Y28.1424
G1 X118.4459 Y32.2399
G1 X116.4664 Y36.2719
G1 X114.3497 Y40.2335
G1 X112.0984 Y44.1201
G1 X109.7149 Y47.9272
G1 X107.2023 Y51.6503
G1 X104.5633 Y55.285
G1 X101.8012 Y58.8269
G1 X98.9191 Y62.272
G1 X95.9205 Y65.6161
G1 X92.8089 Y68.8554
G1 X89.588 Y71.9859
G1 X86.2616 Y75.0041
G1 X82.8335 Y77.9064
G1 X79.3078 Y80.6893
G1 X75.6888 Y83.3496
G1 X71.9805 Y85.8841
G1 X68.1875 Y88.2898
G1 X64.3141 Y90.564
G1 X60.365 Y92.7039
G1 X56.3448 Y94.707
G1 X52.2582 Y96.571
G1 X48.11 Y98.2937
G1 X43.9052 Y99.8729
G1 X39.6486 Y101.307
G1 X35.3454 Y102.5941
G1 X31.0005 Y103.7328
G1 X26.619 Y104.7217
G1 X22.2063 Y105.5597
G1 X17.7673 Y106.2457
G1 X13.3075 Y106.779
G1 X8.8319 Y107.159
G1 X4.346 Y107.3851
G1 X-0.145 Y107.4571
G1 X-4.6359 Y107.375
G1 X-9.1213 Y107.1388
G1 X-13.596 Y106.7489
G1 X-18.1068 Y106.1984
G1 X-22.5958 Y105.4916
G1 X-27.0576 Y104.6294
G1 X-31.4867 Y103.6129
G1 X-35.8779 Y102.4431
G1 X-40.2258 Y101.1216
G1 X-44.5252 Y99.65
G1 X-48.7709 Y98.0299
G1 X-52.9578 Y96.2634
G1 X-57.0808 Y94.3527
G1 X-61.135 Y92.2999
G1 X-65.1155 Y90.1076
G1 X-69.0175 Y87.7784
G1 X-72.8363 Y85.3151
G1 X-76.5672 Y82.7208
G1 X-80.2058 Y79.9984
G1 X-83.7477 Y77.1514
G1 X-87.1887 Y74.1831
G1 X-90.5244 Y71.0972
G1 X-93.7511 Y67.8973
G1 X-96.8647 Y64.5873
G1 X-99.8614 Y61.1712
G1 X-102.7378 Y57.653
G1 X-105.4903 Y54.0372
G1 X-108.1156 Y50.328
G1 X-110.6105 Y46.5298
G1 X-112.9721 Y42.6473
G1 X-115.1974 Y38.6852
G1 X-117.2838 Y34.6482
G1 X-119.2288 Y30.5412
G1 X-121.03 Y26.3691
G1 X-122.6853 Y22.137
G1 X-124.1927 Y17.85
G1 X-125.5503 Y13.5132
G1 X-126.7565 Y9.132
G1 X-127.8099 Y4.7114
G1 X-128.7091 Y0.257
G1 X-129.4532 Y-4.226
G1 X-130.0412 Y-8.7321
G1 X-130.4723 Y-13.2558
G1 X-130.7461 Y-17.7919
G1 X-130.8623 Y-22.3347
G1 X-130.8207 Y-26.8788
G1 X-130.6213 Y-31.4187
G1 X-130.2645 Y-35.949
G1 X-129.7532 Y-40.4441
G1 X-129.0868 Y-44.9188
G1 X-128.2661 Y-49.3679
G1 X-127.2922 Y-53.7859
G1 X-126.1661 Y-58.1677
G1 X-124.8892 Y-62.5079
G1 X-123.4631 Y-66.8013
G1 X-121.8894 Y-71.0429
G1 X-120.1701 Y-75.2276
G1 X-118.3071 Y-79.3503
G1 X-116.3027 Y-83.4062
G1 X-114.1594 Y-87.3904
G1 X-111.8796 Y-91.2981
G1 X-109.4661 Y-95.1246
G1 X-106.9218 Y-98.8655
G1 X-104.2496 Y-102.5162
G1 X-101.4529 Y-106.0723
G1 X-98.535 Y-109.5296
G1 X-95.4993 Y-112.884
G1 X-92.3494 Y-116.1315
G1 X-89.0892 Y-119.2682
G1 X-85.7225 Y-122.2902
G1 X-82.2534 Y-125.1942
G1 X-78.686 Y-127.9764
G1 X-75.0245 Y-130.6337
G1 X-71.2734 Y-133.1629
G1 X-67.437 Y-135.5608
G1 X-66.846 Y-135.8305
G1 X-66.2096 Y-135.9607
G1 X-65.5602 Y-135.9446
G1 X-64.9309 Y-135.7831
G1 X-64.354 Y-135.4845
G1 X-63.8588 Y-135.064
G1 X-63.4707 Y-134.543
G1 X-63.2095 Y-133.9482
G1 X-63.0885 Y-133.31
G1 X-61.5437 Y-112.5187
G1 X-61.5598 Y-111.935
G1 X-61.6936 Y-111.3665
G1 X-61.9394 Y-110.8368
G1 X-62.2872 Y-110.3677
G1 X-62.7226 Y-109.9786
G1 X-64.0441 Y-109.02
G1 X-67.2383 Y-106.5268
G1 X-68.802 Y-105.2238
G1 X-71.9294 Y-102.5106
G1 X-75.0567 Y-99.5471
G1 X-76.1371 Y-98.4665
G1 X-79.1051 Y-95.3392
G1 X-81.814 Y-92.2118
G1 X-84.4388 Y-88.96
G1 X-85.6061 Y-87.4585
G1 X-88.8904 Y-82.8297
G1 X-91.8447 Y-78.1387
G1 X-94.4795 Y-73.4476
G1 X-96.0547 Y-70.3203
G1 X-96.9483 Y-68.4764
G1 X-98.8916 Y-64.0655
G1 X-100.0903 Y-60.9382
G1 X-101.2169 Y-57.8108
G1 X-102.2401 Y-54.6834
G1 X-103.203 Y-51.2498
G1 X-103.9335 Y-48.4287
G1 X-104.6358 Y-45.3013
G1 X-105.2411 Y-42.174
G1 X-105.7648 Y-39.0466
G1 X-106.3303 Y-34.5135
G1 X-106.4982 Y-32.7919
G1 X-106.7189 Y-29.6645
G1 X-106.8553 Y-26.5372
G1 X-106.9145 Y-23.4098
G1 X-106.8553 Y-20.2824
G1 X-106.7189 Y-17.1551
G1 X-106.4882 Y-14.0277
G1 X-106.3303 Y-12.3032
G1 X-105.7648 Y-7.773
G1 X-105.2312 Y-4.6456
G1 X-104.6358 Y-1.5183
G1 X-103.9336 Y1.6091
G1 X-103.203 Y4.4302
G1 X-102.2401 Y7.8638
G1 X-101.207 Y10.9912
G1 X-100.0903 Y14.1186
G1 X-98.8916 Y17.2459
G1 X-96.9483 Y21.6468
G1 X-96.0647 Y23.5006
G1 X-94.4795 Y26.628
G1 X-93.8209 Y27.8382
G1 X-91.8447 Y31.319
G1 X-88.8903 Y36.0101
G1 X-86.6878 Y39.1375
G1 X-84.3444 Y42.2648
G1 X-83.1158 Y43.8285
G1 X-81.814 Y45.3922
G1 X-79.1051 Y48.5195
G1 X-76.1371 Y51.6469
G1 X-75.0567 Y52.7273
G1 X-71.9294 Y55.6953
G1 X-68.802 Y58.4042
G1 X-67.2383 Y59.7071
G1 X-64.0441 Y62.2024
G1 X-59.4199 Y65.4806
G1 X-54.7289 Y68.4349
G1 X-50.0378 Y71.0797
G1 X-46.9104 Y72.6449
G1 X-45.0566 Y73.5385
G1 X-40.6557 Y75.4818
G1 X-37.5284 Y76.6805
G1 X-34.401 Y77.7972
G1 X-31.2736 Y78.8303
G1 X-27.84 Y79.7932
G1 X-25.0189 Y80.5237
G1 X-21.8915 Y81.226
G1 X-18.7642 Y81.8213
G1 X-15.6368 Y82.355
G1 X-11.1066 Y82.9205
G1 X-9.3821 Y83.0884
G1 X-6.2547 Y83.3091
G1 X-3.1274 Y83.4355
G1 X0. Y83.5047
G1 X3.1274 Y83.4355
G1 X6.2547 Y83.3091
G1 X9.3821 Y83.0884
G1 X11.1036 Y82.9205
G1 X15.6368 Y82.355
G1 X18.7642 Y81.8213
G1 X21.8915 Y81.226
G1 X25.0189 Y80.5237
G1 X27.84 Y79.7932
G1 X31.2736 Y78.8303
G1 X34.401 Y77.7972
G1 X37.5284 Y76.6805
G1 X40.6557 Y75.4818
G1 X45.0666 Y73.5385
G1 X46.9104 Y72.6549
G1 X50.0378 Y71.0697
G1 X54.7289 Y68.4349
G1 X59.4199 Y65.4805
G1 X64.0487 Y62.1962
G1 X65.5502 Y61.029
G1 X68.802 Y58.4042
G1 X71.9294 Y55.6953
G1 X75.0567 Y52.7273
G1 X76.1373 Y51.6469
G1 X79.1008 Y48.5195
G1 X81.814 Y45.3922
G1 X83.1169 Y43.8285
G1 X85.6102 Y40.6343
G1 X86.696 Y39.1375
G1 X88.882 Y36.0101
G1 X91.8494 Y31.319
G1 X94.4795 Y26.628
G1 X96.0547 Y23.5006
G1 X96.9483 Y21.6468
G1 X98.8816 Y17.2459
G1 X100.6879 Y12.5549
G1 X102.2377 Y7.8638
G1 X103.203 Y4.4302
G1 X103.9335 Y1.6091
G1 X104.6358 Y-1.5183
G1 X105.2311 Y-4.6456
G1 X105.7648 Y-7.773
G1 X106.3303 Y-12.3032
G1 X106.4933 Y-14.0277
G1 X106.7189 Y-17.1551
G1 X106.8453 Y-20.2824
G1 X106.9145 Y-23.4098
G1 X106.8453 Y-26.5372
G1 X106.7189 Y-29.6645
G1 X106.4933 Y-32.7919
G1 X106.3303 Y-34.5135
G1 X105.7648 Y-39.0466
G1 X105.2311 Y-42.174
G1 X104.6358 Y-45.3013
G1 X103.9335 Y-48.4287
G1 X103.203 Y-51.2498
G1 X102.2377 Y-54.6834
G1 X100.6879 Y-59.3745
G1 X98.8816 Y-64.0655
G1 X96.9483 Y-68.4764
G1 X96.0547 Y-70.3203
G1 X94.4795 Y-73.4476
G1 X91.8494 Y-78.1387
G1 X88.882 Y-82.8297
G1 X86.696 Y-85.9571
G1 X85.604 Y-87.4585
G1 X84.4388 Y-88.96
G1 X81.814 Y-92.2118
G1 X79.1008 Y-95.3392
G1 X76.1373 Y-98.4665
G1 X75.0567 Y-99.5471
G1 X71.9294 Y-102.5106
G1 X68.802 Y-105.2238
G1 X65.5502 Y-107.8486
G1 X64.0487 Y-109.0139
G1 X62.5473 Y-110.1058
G1 X59.4199 Y-112.2918
G1 X54.7289 Y-115.2592
G1 X50.0378 Y-117.8893
G1 X46.9104 Y-119.4645
G1 X45.0666 Y-120.3581
G1 X40.6557 Y-122.2914
G1 X35.9647 Y-124.0978
G1 X31.2736 Y-125.6475
G1 X27.84 Y-126.6128
G1 X25.0189 Y-127.3433
G1 X21.8915 Y-128.0456
G1 X18.7642 Y-128.6409
G1 X15.6368 Y-129.1746
G1 X11.1036 Y-129.7402
G1 X9.3821 Y-129.9031
G1 X6.2547 Y-130.1287
G1 X3.1274 Y-130.2551
G1 X0. Y-130.3243
G1 X-3.1274 Y-130.2551
G1 X-6.2547 Y-130.1287
G1 X-9.3821 Y-129.9031
G1 X-11.1066 Y-129.7402
G1 X-15.6368 Y-129.1746
G1 X-18.7642 Y-128.6409
G1 X-21.8915 Y-128.0456
G1 X-25.0189 Y-127.3433
G1 X-27.84 Y-126.6128
G1 X-31.2736 Y-125.6475
G1 X-35.9647 Y-124.0978
G1 X-40.6557 Y-122.2914
G1 X-45.0566 Y-120.3581
G1 X-46.9104 Y-119.4645
G1 X-50.0378 Y-117.8893
G1 X-54.7289 Y-115.2592
G1 X-59.4199 Y-112.2918
G1 X-62.7226 Y-109.9786
G1 X-67.437 Y-135.5608
G1 X-66.9285 Y-135.9472
G1 X-66.5149 Y-136.4339
G1 X-66.2156 Y-136.9981
G1 X-66.0446 Y-137.6134
G1 X-66.0099 Y-138.2512
G1 X-66.1131 Y-138.8815
G1 X-66.3494 Y-139.4748
G1 X-66.7078 Y-140.0035
G1 X-67.1714 Y-140.4427
G1 X-67.7187 Y-140.772
G1 X-68.3239 Y-140.976
G1 X-68.9588 Y-141.0451
G1 X-139.1679 Y-141.0459
G1 X-139.5942 Y-141.2568
G1 X-140.0673 Y-141.3059
G1 X-140.5278 Y-141.1871
G1 X-140.7405 Y-140.7381
G1 X-140.9199 Y-140.5012
G1 X-141.0288 Y-140.2247
G1 X-141.0592 Y-139.9292
G1 X-141.0455 Y139.2131
G1 X-141.2473 Y139.6166
G1 X-141.2994 Y140.0647
G1 X-141.1953 Y140.5038
G1 X-140.7701 Y140.7137
G1 X-140.523 Y140.9081
G1 X-140.2298 Y141.0214
G1 X-131.3338 Y141.042
G1 X-76.5745 Y141.0427
G1 X-75.1147 Y140.9684
G1 X-73.6699 Y140.7462
G1 X-72.2552 Y140.3784
G1 X-70.8852 Y139.8689
G1 X-69.5739 Y139.2229
G1 X-68.3351 Y138.447
G1 X-67.1814 Y137.5494
G1 X-66.1249 Y136.5392
G1 X-65.1764 Y135.427
G1 X-64.3458 Y134.2241
G1 X-63.6417 Y132.9432
G1 X-63.0712 Y131.5973
G1 X-62.6404 Y130.2005
G1 X-62.3537 Y128.7672
G1 X-62.214 Y127.3121
G1 X-62.2228 Y125.8504
G1 X-62.3801 Y124.3972
G1 X-62.6841 Y122.9674
G1 X-63.1317 Y121.5759
G1 X-63.7183 Y120.237
G1 X-64.4379 Y118.9646
G1 X-65.2829 Y117.7719
G1 X-66.2447 Y116.6712
G1 X-67.3134 Y115.6738
G1 X-68.4778 Y114.7902
G1 X-105.859 Y89.3086
G1 X-106.847 Y88.5712
G1 X-107.7681 Y87.7518
G1 X-108.5856 Y86.9534
G1 X-109.2298 Y86.418
G1 X-109.9543 Y85.9977
G1 X-110.7389 Y85.7042
G1 X-111.5614 Y85.5458
G1 X-112.3989 Y85.527
G1 X-113.2277 Y85.6482
G1 X-114.0247 Y85.9061
G1 X-114.7674 Y86.2934
G1 X-115.435 Y86.7992
G1 X-116.0089 Y87.4095
G1 X-116.4728 Y88.1069
G1 X-116.8137 Y88.872
G1 X-117.0222 Y89.6833
G1 X-117.0923 Y90.5181
G1 X-117.0902 Y112.0848
G1 X-117.0141 Y112.9529
G1 X-116.7885 Y113.7947
G1 X-116.4201 Y114.5845
G1 X-115.9202 Y115.2984
G1 X-115.3039 Y115.9146
G1 X-114.59 Y116.4145
G1 X-113.8002 Y116.7827
G1 X-112.9584 Y117.0083
G1 X-112.0902 Y117.0843
G1 X-76.5743 Y117.0847
G1 X-75.9191 Y117.0058
G1 X-75.3013 Y116.7739
G1 X-74.7562 Y116.402
G1 X-74.3148 Y115.9114
G1 X-74.0024 Y115.3302
G1 X-73.8368 Y114.6914
G1 X-73.8274 Y114.0316
G1 X-73.9748 Y113.3884
G1 X-74.2705 Y112.7985
G1 X-74.6977 Y112.2955
G1 X-75.2321 Y111.9083
G1 X-79.1461 Y109.6569
G1 X-82.9929 Y107.2923
G1 X-86.769 Y104.8166
G1 X-90.4713 Y102.2317
G1 X-94.0967 Y99.5401
G1 X-97.6421 Y96.7438
G1 X-101.1044 Y93.8453
G1 X-104.4807 Y90.8472
G1 X-107.7681 Y87.7518
G1 X-76.5745 Y141.0427
G1 X139.1679 Y141.0451
G1 X139.5933 Y141.2584
G1 X140.0664 Y141.3097
G1 X140.5275 Y141.1924
G1 X140.7386 Y140.7409
G1 X140.9169 Y140.5064
G1 X141.0256 Y140.2326
G1 X141.0566 Y139.9397
G1 X141.0546 Y90.5035
G1 X140.9799 Y89.0401
G1 X140.7566 Y87.5919
G1 X140.387 Y86.174
G1 X139.875 Y84.8011
G1 X139.2258 Y83.4875
G1 X138.4464 Y82.2467
G1 X137.5446 Y81.0918
G1 X136.53 Y80.0346
G1 X135.413 Y79.0862
G1 X134.2053 Y78.2565
G1 X132.9193 Y77.554
G1 X131.5686 Y76.9861
G1 X130.167 Y76.5587
G1 X128.7293 Y76.2761
G1 X127.2702 Y76.1414
G1 X125.805 Y76.1559
G1 X124.3488 Y76.3195
G1 X122.9169 Y76.6305
G1 X121.5241 Y77.0856
G1 X120.1849 Y77.6802
G1 X118.9132 Y78.408
G1 X117.7221 Y79.2615
G1 X81.6189 Y108.0275
G1 X80.8755 Y108.5816
G1 X80.0979 Y109.0866
G1 X77.6768 Y110.5204
G1 X75.23 Y111.9099
G1 X74.6957 Y112.2971
G1 X74.2684 Y112.8001
G1 X73.9727 Y113.39
G1 X73.8253 Y114.0332
G1 X73.8347 Y114.693
G1 X74.0003 Y115.3318
G1 X74.3127 Y115.9131
G1 X74.7541 Y116.4037
G1 X75.2992 Y116.7756
G1 X75.917 Y117.0076
G1 X76.5721 Y117.0864
G1 X112.1075 Y117.0868
G1 X112.9758 Y117.0108
G1 X113.8177 Y116.7852
G1 X114.6076 Y116.4169
G1 X115.3216 Y115.9169
G1 X115.9379 Y115.3006
G1 X116.4378 Y114.5866
G1 X116.8061 Y113.7966
G1 X117.0316 Y112.9547
G1 X117.1075 Y112.0864
G1 X117.1058 Y90.5044
G1 X117.0356 Y89.6698
G1 X116.827 Y88.8585
G1 X116.4859 Y88.0935
G1 X116.0219 Y87.3961
G1 X115.448 Y86.786
G1 X114.7803 Y86.2802
G1 X114.0375 Y85.8931
G1 X113.2405 Y85.6353
G1 X112.4117 Y85.5142
G1 X111.5743 Y85.5332
G1 X110.7518 Y85.6917
G1 X109.9673 Y85.9852
G1 X109.2428 Y86.4057
G1 X108.5987 Y86.9411
G1 X105.3298 Y90.0654
G1 X101.9712 Y93.0929
G1 X98.5255 Y96.021
G1 X94.9958 Y98.8473
G1 X91.3851 Y101.5692
G1 X87.6964 Y104.1846
G1 X83.9329 Y106.6911
G1 X80.0979 Y109.0866
G1 X141.0546 Y90.5035
G1 X141.051 Y0.0464
G1 X141.0676 Y-1.1898 Z145.3382
G1 X141.1164 Y-2.3635 Z145.4148
G1 X141.1961 Y-3.4767 Z145.5268
G1 X141.3053 Y-4.5313 Z145.6604
G1 X141.4429 Y-5.5292 Z145.8036
G1 X141.7972 Y-7.3629 Z146.0797
G1 X142.0113 Y-8.2025 Z146.1989
G1 X142.2482 Y-8.9932 Z146.3001
G1 X142.5067 Y-9.7369 Z146.3814
G1 X142.7853 Y-10.4356 Z146.4423
G1 X143.0827 Y-11.0912 Z146.4831
G1 X143.6552 Y-12.1536 Z146.51
G1 X143.7285 Y-12.2809 F#907
G1 X144.4334 Y-13.3215
G1 X145.1866 Y-14.2284
G1 X145.9773 Y-15.0173
G1 X146.7947 Y-15.7035
G1 X147.6282 Y-16.3025
G1 X148.4668 Y-16.83
G1 X149.2999 Y-17.3013
G1 X150.9064 Y-18.1376 Z146.5093
G1 X152.3615 Y-18.9354 Z146.503
G1 X153.0053 Y-19.3586 Z146.5001
G1 X153.5789 Y-19.8186 Z146.4973
G1 X153.614 Y-19.8525 Z147.5971
G1 X154.0717 Y-20.331 Z147.5946
G1 X154.4727 Y-20.9113 Z147.5919
G1 X154.7712 Y-21.575 Z147.5892
G1 X154.9566 Y-22.3375 Z147.5862
G1 X155.0179 Y-23.2144 Z147.5829
G1 X154.9444 Y-24.2212 Z147.579
G1 X154.7254 Y-25.3733 Z147.5746
G1 X154.3501 Y-26.6863 Z147.5694
G1 X153.8077 Y-28.1756 Z147.5634
G1 X153.0874 Y-29.8568 Z147.5565
G1 X152.1786 Y-31.7454 Z147.5485
G1 X151.0703 Y-33.8568 Z147.5395
G1 X148.3082 Y-38.9364 Z147.5176
G1 X145.546 Y-44.016 Z147.4957
G1 X142.7839 Y-49.0956 Z147.4738
G1 X139.7852 Y-54.5873 Z147.4501
G1 X139.5274 Y-54.9934 Z147.4482
G1 X138.9503 Y-55.7871 Z147.4445
G1 X138.2952 Y-56.5556 Z147.4407
G1 X137.5665 Y-57.2981 Z147.4368
G1 X136.7691 Y-58.0136 Z147.4327
G1 X135.9074 Y-58.7014 Z147.4285
G1 X134.9861 Y-59.3607 Z147.4242
G1 X134.0098 Y-59.9907 Z147.4198
G1 X132.9832 Y-60.5905 Z147.4153
G1 X131.9109 Y-61.1593 Z147.4107
G1 X130.7975 Y-61.6964 Z147.406
G1 X129.6476 Y-62.2009 Z147.4013
G1 X128.4659 Y-62.672 Z147.3965
G1 X127.257 Y-63.1089 Z147.3916
G1 X126.0255 Y-63.5107 Z147.3867
G1 X124.776 Y-63.8767 Z147.3818
G1 X123.5133 Y-64.2061 Z147.3768
G1 X122.2418 Y-64.498 Z147.3719
G1 X120.9662 Y-64.7516 Z147.3669
G1 X119.6912 Y-64.9661 Z147.362
G1 X118.4214 Y-65.1407 Z147.3567
G1 X117.1614 Y-65.2745 Z147.3177
G1 X115.9158 Y-65.3669 Z147.2295
G1 X114.6893 Y-65.4168 Z147.1024
G1 X113.4865 Y-65.4237 Z146.9499
G1 X112.312 Y-65.3865 Z146.787
G1 X111.1704 Y-65.3046 Z146.628
G1 X110.0664 Y-65.177 Z146.4852
G1 X109.0046 Y-65.003 Z146.3678
G1 X108.3243 Y-64.8548 Z146.3079
G1 X107.9896 Y-64.7818 Z146.2817 F#900
G1 X107.026 Y-64.5126 Z146.2293
G1 X106.1186 Y-64.1945 Z146.21
G1 X99.5981 Y-61.6483 Z145.7077
G1 X99.4456 Y-61.5887
G1 X98.4784 Y-64.0655
G1 X96.9483 Y-67.5446
G1 X95.6365 Y-70.3203
G1 X93.8209 Y-73.8947
G1 X92.3026 Y-76.575
G1 X90.6935 Y-79.2858
G1 X88.4306 Y-82.8297
G1 X86.2309 Y-85.9571
G1 X84.4388 Y-88.3505
G1 X82.6399 Y-90.6481
G1 X81.3114 Y-92.2318
G1 X78.589 Y-95.3392
G1 X75.0567 Y-99.0204
G1 X71.9294 Y-101.9988
G1 X68.822 Y-104.7212
G1 X67.2383 Y-106.0497
G1 X64.9407 Y-107.8486
G1 X62.5473 Y-109.6407
G1 X59.4199 Y-111.8404
G1 X55.876 Y-114.1033
G1 X53.1652 Y-115.7124
G1 X50.4849 Y-117.2307
G1 X46.9104 Y-119.0463
G1 X44.1348 Y-120.3581
G1 X40.6557 Y-121.8882
G1 X36.5286 Y-123.4854
G1 X34.401 Y-124.2234
G1 X31.2736 Y-125.2552
G1 X26.4393 Y-126.6128
G1 X25.0189 Y-126.9642
G1 X21.8915 Y-127.6627
G1 X18.7642 Y-128.2618
G1 X15.6368 Y-128.7969
G1 X12.5095 Y-129.1903
G1 X9.3821 Y-129.5234
G1 X6.2547 Y-129.7602
G1 X4.691 Y-129.8456
G1 X0. Y-129.9531
G1 X-4.691 Y-129.8456
G1 X-6.2547 Y-129.7602
G1 X-9.3821 Y-129.5234
G1 X-12.5095 Y-129.1903
G1 X-15.6368 Y-128.7969
G1 X-18.7642 Y-128.2618
G1 X-21.8915 Y-127.6627
G1 X-25.0189 Y-126.9642
G1 X-26.4402 Y-126.6128
G1 X-31.2736 Y-125.2552
G1 X-34.401 Y-124.2234
G1 X-36.5286 Y-123.4854
G1 X-40.6557 Y-121.8882
G1 X-44.1348 Y-120.3581
G1 X-46.9104 Y-119.0463
G1 X-50.0378 Y-117.4694
G1 X-53.1652 Y-115.7124
G1 X-55.876 Y-114.1033
G1 X-59.4199 Y-111.8404
G1 X-62.5473 Y-109.6407
G1 X-64.9337 Y-107.8486
G1 X-67.2383 Y-106.0497
G1 X-70.371 Y-103.3784
G1 X-71.9294 Y-101.9988
G1 X-75.0567 Y-99.0204
G1 X-78.5892 Y-95.3392
G1 X-81.3114 Y-92.2318
G1 X-82.6399 Y-90.6481
G1 X-84.4388 Y-88.3505
G1 X-86.2346 Y-85.9571
G1 X-88.432 Y-82.8297
G1 X-90.6935 Y-79.2858
G1 X-92.3026 Y-76.575
G1 X-93.8209 Y-73.8947
G1 X-95.6365 Y-70.3203
G1 X-96.9483 Y-67.5446
G1 X-98.4884 Y-64.0655
G1 X-100.0756 Y-59.9384
G1 X-100.8235 Y-57.8108
G1 X-101.846 Y-54.6834
G1 X-103.203 Y-49.8491
G1 X-103.5507 Y-48.4287
G1 X-104.2529 Y-45.3013
G1 X-104.862 Y-42.174
G1 X-105.3871 Y-39.0466
G1 X-105.7805 Y-35.9193
G1 X-106.1234 Y-32.7919
G1 X-106.3443 Y-29.6645
G1 X-106.4816 Y-26.5372
G1 X-106.5408 Y-23.4098
G1 X-106.4816 Y-20.2824
G1 X-106.3443 Y-17.1551
G1 X-106.1234 Y-14.0277
G1 X-105.7805 Y-10.9004
G1 X-105.3871 Y-7.773
G1 X-104.852 Y-4.6456
G1 X-104.2529 Y-1.5183
G1 X-103.5507 Y1.6091
G1 X-103.203 Y3.0304
G1 X-101.846 Y7.8638
G1 X-100.8136 Y10.9912
G1 X-100.0756 Y13.1188
G1 X-98.4884 Y17.2459
G1 X-96.9483 Y20.725
G1 X-95.6464 Y23.5006
G1 X-94.0586 Y26.628
G1 X-92.3026 Y29.7554
G1 X-90.6935 Y32.4662
G1 X-88.432 Y36.0101
G1 X-86.2346 Y39.1375
G1 X-84.4388 Y41.5239
G1 X-82.6399 Y43.8285
G1 X-79.9686 Y46.9612
G1 X-78.5892 Y48.5195
G1 X-75.0567 Y52.2006
G1 X-71.9294 Y55.1794
G1 X-70.371 Y56.5588
G1 X-67.2383 Y59.2301
G1 X-64.9337 Y61.029
G1 X-62.5473 Y62.8248
G1 X-59.4199 Y65.0222
G1 X-55.876 Y67.2837
G1 X-53.1652 Y68.8928
G1 X-50.0378 Y70.6588
G1 X-46.9104 Y72.2267
G1 X-44.1348 Y73.5385
G1 X-40.6557 Y75.0786
G1 X-36.5286 Y76.6658
G1 X-34.401 Y77.4038
G1 X-31.2736 Y78.4362
G1 X-26.4402 Y79.7932
G1 X-25.0189 Y80.1409
G1 X-21.8915 Y80.8431
G1 X-18.7642 Y81.4422
G1 X-15.6368 Y81.9773
G1 X-12.5095 Y82.3707
G1 X-9.3821 Y82.7136
G1 X-6.2547 Y82.9345
G1 X-3.1274 Y83.0618
G1 X0. Y83.131
G1 X3.1274 Y83.0618
G1 X6.2547 Y82.9345
G1 X9.3821 Y82.7038
G1 X12.5095 Y82.3707
G1 X15.6368 Y81.9773
G1 X18.7642 Y81.4422
G1 X21.8915 Y80.8431
G1 X25.0189 Y80.1409
G1 X26.4393 Y79.7932
G1 X31.2736 Y78.4362
G1 X34.401 Y77.4038
G1 X36.5286 Y76.6658
G1 X40.6557 Y75.0786
G1 X44.1348 Y73.5385
G1 X46.9104 Y72.2366
G1 X50.4849 Y70.4111
G1 X53.1652 Y68.8928
G1 X55.876 Y67.2837
G1 X59.4199 Y65.0222
G1 X62.5473 Y62.8248
G1 X64.9407 Y61.029
G1 X67.2383 Y59.2301
G1 X68.822 Y57.9016
G1 X71.9294 Y55.1794
G1 X75.6106 Y51.6469
G1 X78.589 Y48.5195
G1 X79.9686 Y46.9612
G1 X82.6399 Y43.8285
G1 X84.4388 Y41.5239
G1 X86.2309 Y39.1375
G1 X88.4306 Y36.0101
G1 X90.6935 Y32.4662
G1 X92.3026 Y29.7554
G1 X94.0595 Y26.628
G1 X95.6365 Y23.5006
G1 X96.9483 Y20.725
G1 X98.4784 Y17.2459
G1 X100.0756 Y13.1188
G1 X100.8136 Y10.9912
G1 X101.8454 Y7.8638
G1 X103.203 Y3.0304
G1 X103.5544 Y1.6091
G1 X104.2529 Y-1.5183
G1 X104.852 Y-4.6456
G1 X105.3971 Y-7.773
G1 X105.7805 Y-10.9004
G1 X106.1136 Y-14.0277
G1 X106.3503 Y-17.1551
G1 X106.4358 Y-18.7188
G1 X106.5433 Y-23.4098
G1 X106.4358 Y-28.1008
G1 X106.3503 Y-29.6645
G1 X106.1136 Y-32.7919
G1 X105.7805 Y-35.9193
G1 X105.3871 Y-39.0466
G1 X104.852 Y-42.174
G1 X104.2529 Y-45.3013
G1 X103.5544 Y-48.4287
G1 X103.203 Y-49.8491
G1 X101.8454 Y-54.6834
G1 X100.8136 Y-57.8108
G1 X100.0756 Y-59.9384
G1 X99.4456 Y-61.5887
G1 X99.24 Y-62.1718 Z145.7171
G1 X99.085 Y-62.7346 Z145.726
G1 X98.9787 Y-63.2763 Z145.7344
G1 X98.9194 Y-63.7964 Z145.7423
G1 X98.9052 Y-64.294 Z145.7499
G1 X98.9343 Y-64.7685 Z145.7571
G1 X99.0047 Y-65.2193 Z145.7641
G1 X99.1147 Y-65.6455 Z145.7708
G1 X99.2624 Y-66.0466 Z145.7773
G1 X99.446 Y-66.4219 Z145.7836
G1 X99.6636 Y-66.7705 Z145.7899
G1 X99.9134 Y-67.0919 Z145.7961
G1 X100.1935 Y-67.3854 Z145.8023
G1 X100.5021 Y-67.6502 Z145.8084
G1 X100.8374 Y-67.8857 Z145.8147
G1 X101.1975 Y-68.0911 Z145.821
G1 X101.5805 Y-68.2658 Z145.8274
G1 X101.9846 Y-68.4091 Z145.8339
G1 X102.8488 Y-68.5987 Z145.8474
G1 X103.7753 Y-68.6543 Z145.8615
G1 X104.7494 Y-68.5703 Z145.8764
G1 X105.7562 Y-68.3412 Z145.8921
G1 X106.7811 Y-67.9615 Z145.9087
G1 X107.8093 Y-67.4256 Z145.9264
G1 X108.32 Y-67.0974 Z145.9356
G1 X110.3159 Y-65.558 Z145.974
G1 X111.2776 Y-64.6982 Z145.9936
G1 X112.1109 Y-63.8277 Z146.0119
G1 X112.8124 Y-62.9525 Z146.029
G1 X113.3785 Y-62.0789 Z146.0448
G1 X113.806 Y-61.2129 Z146.0595
G1 X114.0914 Y-60.3607 Z146.0732
G1 X114.2313 Y-59.5284 Z146.0861
G1 X114.2456 Y-59.1217 Z146.0922
G1 X114.2223 Y-58.7223 Z146.0983
