%
<UN4313_9100_90_OP20>(--UN4313_9100_90_OP20)
( CREATED BY HYPERMILL 2025 OPEN MIND TECHNOLOGIES AG )
( TOOL LIST BEGIN )
( T196 R8. R20. L175. SQUARE END MILL D16.00  CERATIZIT - 53595160  LT=140 BT40-SHRINKFIT-D16X090 )
( T193 R5. R20. L130. SQUARE END MILL D10.00  OSG - EP019810  )
( T200 R3. R20. L120. SQUARE END MILL D6.00  CERATIZIT - 53524060  )
( T201 D4.2 L110. SOLID CARBIDE DRILL D4.20  WALTER - DC160-05-04.200A1-WJ30ET  LT=110 BT40-ER32X070 )
( T11000041 R1. R20. L144. SQUARE END MILL D2.00  CERATIZIT - 5361102100  )
( T20000244 D3. L125. SOLID CARBIDE DRILL D3.00  OSG - 32210300  )
( T20000042 D3.1 L105. SOLID CARBIDE DRILL D3.10  OSG - 31200310  LT=105 BT40-ER32X070 )
( T197 R4. R20. L149. SQUARE END MILL D8.00  CERATIZIT - 53562080  LT=149 BT40-REGOFIX-4140.72566-PG25X120H )
( T14000006 R1.5 R20. L125. SQUARE END MILL D3.0 LONG  CERATIZIT  5361103400  LT=125 BT40-SHRINKFIT-D06X090 )
( T202 R2. R22. L145. BALL MILL D4.00  OSG - 3041740  LT=145 BT40-ER16X120 )
( T194 R1.5 R20. L120. SOLID CARBIDE CHAMFER MILL D6.0 K90  OSG - 20900600  )
( TOOL LIST END )
( PROGRAM BEGIN )
M145 (CANCEL INTERFERANCE)
M301
M11 M71 ( CLAMP OFF B, C )
G80 G40
G90 G17
G49
G69
( ORIGIN LIST BEGIN )
( ORIGIN DEFINITION )
( ORIGIN LIST END )
( SAFE POS. PROGRAM BEGIN )
G0 G53 Z-1.
G0 G53 X-394. Y-1.
G0 B0. C0.
( --- )
G54
( TOOL 196: SQUARE END MILL D16.00  CERATIZIT - 53595160  LT=140 BT40-SHRINKFIT-D16X090 )
( BEFORE TOOL CHANGE )
T196 M6
T193
( AFTER TOOL CHANGE )
G05 P10000
( OPERATION 200: T196 3D OPTIMIZED ROUGHING )
G0 G43 H#544
G65 P7000 A175. B10. C-0.02 D#5083
G49
#900=2865. (XY FEEDRATE)
#901=955. (Z FEEDRATE)
#906=3.4904*#900 (REPOSITIONING FEEDRATE)
S5968.
M3
M8
G0 B0. C0.
M10 M70 ( CLAMP ON B, C )
G0 G91 G43.4 H#544 Z-0.01
G90
G0 X-135.014 Y-127.9404
G0 Z91.
G0 Z66.2
G1 Z64.2 F#901
G1 X-134.203 Y-126.5065 Z64.0077 F#900
#911=0.7368*#900
G1 X-134.045 Y-126.0984 Z63.9564 F#911
G1 X-134.0108 Y-125.662 Z63.9051
G1 X-134.1033 Y-125.2342 Z63.8538
G1 X-134.3145 Y-124.851 Z63.8026
G1 X-134.6269 Y-124.5444 Z63.7513
G1 X-135.0141 Y-124.3404 Z63.7
G1 X-137.5061 Y-123.3919
G1 X-139.9492 Y-122.3238
G1 X-142.3378 Y-121.1387
G1 X-144.0369 Y-120.2051
G1 X-145.8473 Y-119.1234 F#900
G1 X-147.6163 Y-117.9753
G1 X-148.2519 Y-117.625 Z63.7636
G1 X-148.9403 Y-117.3949 Z63.8272
G1 X-149.6588 Y-117.2926 Z63.8908
G1 X-150.384 Y-117.3215 Z63.9543
G1 X-151.0922 Y-117.4804 Z64.0179
G1 X-151.3975 Y-117.6414 Z64.0483 F#906
G1 X-151.6297 Y-117.8966 Z64.0786
G1 X-151.7612 Y-118.2157 Z64.109
G1 X-151.7761 Y-118.5605 Z64.1393
G1 X-151.6727 Y-118.8898 Z64.1697
G1 X-151.4634 Y-119.1642 Z64.2
G1 X-149.605 Y-120.4891
G1 X-147.7882 Y-121.6783
G1 X-145.9294 Y-122.8008
G1 X-143.4526 Y-124.1579
G1 X-140.9137 Y-125.3949
G1 X-138.3185 Y-126.509
G1 X-135.673 Y-127.4976
G1 X-132.9833 Y-128.3581
G1 X-130.2553 Y-129.0881
G1 X-127.4957 Y-129.6887
G1 X-124.7113 Y-130.161
G1 X-121.9086 Y-130.4996
G1 X-119.0926 Y-130.6993
G1 X-117.5693 Y-130.7586
G1 X-116.9504 Y-130.7075
G1 X-116.3591 Y-130.5178
G1 X-115.8261 Y-130.1993
G1 X-115.3788 Y-129.7685
G1 X-115.0406 Y-129.2477
G1 X-114.8289 Y-128.664
G1 X-114.7547 Y-128.0474
G1 X-114.7775 Y-127.6789 Z64.1677
#911=0.7368*#900
G1 X-114.9507 Y-126.9364 Z64.1009 F#911
G1 X-115.2671 Y-126.2428 Z64.034
G1 X-115.7143 Y-125.6254 Z63.9672
G1 X-116.2747 Y-125.1084 Z63.9004
G1 X-116.9261 Y-124.7124 Z63.8336
G1 X-117.6429 Y-124.4528 Z63.7668
G1 X-118.3969 Y-124.34 Z63.7
G1 X-121.8503 Y-124.0719
G1 X-124.0993 Y-123.7815
G1 X-126.3339 Y-123.3954
G1 X-127.1423 Y-123.2313 F#900
G1 X-129.7503 Y-122.6136
G1 X-132.3248 Y-121.8685
G1 X-134.8586 Y-120.9944
G1 X-137.3438 Y-119.9903
G1 X-139.7737 Y-118.8589
G1 X-142.1418 Y-117.6033
G1 X-144.0618 Y-116.4674
G1 X-145.9329 Y-115.2524
G1 X-147.7517 Y-113.9606
G1 X-148.3992 Y-113.5602 Z63.7667
G1 X-149.105 Y-113.2748 Z63.8334
G1 X-149.8488 Y-113.1126 Z63.9001
G1 X-150.6093 Y-113.078 Z63.9667
G1 X-151.3647 Y-113.1722 Z64.0334
G1 X-151.7126 Y-113.3211 Z64.0667 F#906
G1 X-151.9773 Y-113.5915 Z64.1001
G1 X-152.1188 Y-113.9424 Z64.1334
G1 X-152.1157 Y-114.3208 Z64.1667
G1 X-151.9684 Y-114.6693 Z64.2
G1 X-151.7789 Y-114.8767
G1 X-149.9278 Y-116.3279
G1 X-148.0182 Y-117.7012
G1 X-146.0535 Y-118.9943
G1 X-144.0369 Y-120.2051
G1 X-141.615 Y-121.5126
G1 X-139.1308 Y-122.6974
G1 X-136.5904 Y-123.7565
G1 X-134.0003 Y-124.6873
G1 X-131.3679 Y-125.4903
G1 X-128.7001 Y-126.1665
G1 X-126.0028 Y-126.7125
G1 X-123.2819 Y-127.1253
G1 X-120.5442 Y-127.4071
G1 X-117.7966 Y-127.5683
G1 X-37.0922 Y-131.0669
G1 X-36.416 Y-131.017
G1 X-35.7698 Y-130.8118
G1 X-35.1887 Y-130.4623
G1 X-34.7044 Y-129.9877
G1 X-34.3432 Y-129.4138
G1 X-34.1249 Y-128.7719
G1 X-34.0608 Y-128.1998 Z64.1496
#911=0.7368*#900
G1 X-34.1193 Y-127.4691 Z64.0853 F#911
G1 X-34.3106 Y-126.7615 Z64.0211
G1 X-34.6285 Y-126.101 Z63.9569
G1 X-35.062 Y-125.5099 Z63.8927
G1 X-35.5965 Y-125.0083 Z63.8284
G1 X-36.214 Y-124.6132 Z63.7642
G1 X-36.8933 Y-124.338 Z63.7
G1 X-41.0196 Y-123.0248
G1 X-44.2094 Y-121.9256
#911=0.6339*#900
G1 X-44.4958 Y-121.8276 F#911
#911=0.7941*#900
G1 X-45.7671 Y-121.483 F#911
G1 X-47.0676 Y-121.2748
G1 X-48.383 Y-121.2051
G1 X-48.5765 Y-121.2055 F#900
G1 X-109.9886 Y-121.1986
#911=0.9958*#900
G1 X-115.2074 Y-121.2117 F#911
G1 X-117.8143 Y-121.1643 F#900
G1 X-120.4161 Y-120.9954
G1 X-123.0077 Y-120.7013
G1 X-125.5815 Y-120.279
G1 X-128.1301 Y-119.7258
G1 X-130.646 Y-119.0394
G1 X-133.1204 Y-118.2169
G1 X-135.5444 Y-117.256
G1 X-137.9162 Y-116.1701
G1 X-140.2338 Y-114.9733
G1 X-142.4879 Y-113.6614
G1 X-144.6687 Y-112.2311
G1 X-146.2331 Y-111.0976
G1 X-147.7517 Y-109.9034
G1 X-148.3667 Y-109.4827 Z63.7653
G1 X-149.0447 Y-109.1736 Z63.8305
G1 X-149.7657 Y-108.9854 Z63.8958
G1 X-150.5082 Y-108.9236 Z63.9611
G1 X-151.2504 Y-108.99 Z64.0264
G1 X-151.5603 Y-109.101 Z64.0553 F#906
G1 X-151.8161 Y-109.3083 Z64.0842
G1 X-151.9889 Y-109.5886 Z64.1132
G1 X-152.0593 Y-109.9102 Z64.1421
G1 X-152.0193 Y-110.237 Z64.1711
G1 X-151.8734 Y-110.5322 Z64.2
G1 X-151.7414 Y-110.6801
G1 X-150.896 Y-111.4381
G1 X-149.5255 Y-112.5856
G1 X-148.1174 Y-113.6867
G1 X-146.1844 Y-115.0805
G1 X-144.1912 Y-116.3869
G1 X-142.1418 Y-117.6033
G1 X-139.7737 Y-118.8589
G1 X-137.3438 Y-119.9903
G1 X-134.8586 Y-120.9944
G1 X-132.3248 Y-121.8685
G1 X-129.7503 Y-122.6136
G1 X-127.1423 Y-123.2313
G1 X-124.5069 Y-123.7184
G1 X-121.8503 Y-124.0719
G1 X-119.1795 Y-124.2969
G1 X-114.9193 Y-124.5905
G1 X-23.8804 Y-130.8647
G1 X-23.2108 Y-130.8329
G1 X-22.5664 Y-130.648
G1 X-21.9819 Y-130.3196
G1 X-21.4887 Y-129.8656
G1 X-21.1132 Y-129.3102
G1 X-20.8757 Y-128.6833
G1 X-20.7894 Y-128.0512 Z64.1441
#911=0.7368*#900
G1 X-20.8418 Y-127.3291 Z64.0806 F#911
G1 X-21.033 Y-126.6309 Z64.0172
G1 X-21.3559 Y-125.9829 Z63.9538
G1 X-21.7982 Y-125.4098 Z63.8903
G1 X-22.3432 Y-124.9332 Z63.8269
G1 X-22.9702 Y-124.5713 Z63.7634
G1 X-23.6554 Y-124.3376 Z63.7
#911=0.7236*#900
G1 X-26.484 Y-123.7007 F#911
G1 X-26.8449 Y-123.6236
#911=0.7368*#900
G1 X-28.9716 Y-123.1465 F#911
G1 X-31.4501 Y-122.539
G1 X-34.2663 Y-121.7738 F#900
G1 X-37.0627 Y-120.9392
G1 X-40.0176 Y-119.9859
G1 X-43.0877 Y-118.9282
#911=0.8241*#900
G1 X-44.3896 Y-118.5266 F#911
G1 X-45.7212 Y-118.2376
G1 X-47.0725 Y-118.0633
G1 X-48.4338 Y-118.0051
G1 X-48.5761 Y-118.0055 F#900
G1 X-108.8366 Y-117.9988
#911=0.9904*#900
G1 X-113.9109 Y-118.028 F#911
G1 X-116.4467 Y-118.0094 F#900
G1 X-118.9799 Y-117.8945
G1 X-121.5064 Y-117.6678
G1 X-124.0182 Y-117.3143
G1 X-126.5068 Y-116.8267
G1 X-128.9636 Y-116.1981
G1 X-131.3824 Y-115.4343
G1 X-133.7565 Y-114.5412
G1 X-136.079 Y-113.5214
G1 X-138.3433 Y-112.3781
G1 X-140.5417 Y-111.1136
G1 X-142.6677 Y-109.7306
G1 X-144.7147 Y-108.2332
G1 X-146.6766 Y-106.626
G1 X-147.7518 Y-105.6534
G1 X-148.3273 Y-105.2068 Z63.7638
G1 X-148.9732 Y-104.87 Z63.8276
G1 X-149.6688 Y-104.6538 Z63.8914
G1 X-150.3918 Y-104.565 Z63.9553
G1 X-151.1191 Y-104.6066 Z64.0191
G1 X-151.4446 Y-104.7144 Z64.0492 F#906
G1 X-151.7143 Y-104.9263 Z64.0794
G1 X-151.896 Y-105.217 Z64.1095
G1 X-151.9684 Y-105.5523 Z64.1397
G1 X-151.9228 Y-105.8921 Z64.1698
G1 X-151.7645 Y-106.1964 Z64.2
G1 X-150.2605 Y-107.6873
G1 X-148.7863 Y-109.0321
G1 X-146.7701 Y-110.6864
G1 X-144.6687 Y-112.2311
G1 X-142.4879 Y-113.6614
G1 X-140.2338 Y-114.9733
G1 X-137.9162 Y-116.1701
G1 X-135.5444 Y-117.256
G1 X-133.1204 Y-118.2169
G1 X-130.646 Y-119.0394
G1 X-128.1301 Y-119.7258
G1 X-125.5815 Y-120.279
G1 X-123.0077 Y-120.7013
G1 X-120.4161 Y-120.9954
G1 X-15.082 Y-129.9656
G1 X-14.2586 Y-129.9728
G1 X-13.4437 Y-129.8549
G1 X-12.6561 Y-129.6146
G1 X-11.9142 Y-129.2574
G1 X-11.235 Y-128.7918
G1 X-10.6708 Y-128.2677 Z64.1326
G1 X-10.1867 Y-127.6687 Z64.0651
#911=0.7368*#900
G1 X-9.9428 Y-127.209 Z64.0195 F#911
G1 X-9.8158 Y-126.7043 Z63.9738
G1 X-9.8131 Y-126.1839 Z63.9282
G1 X-9.9348 Y-125.6779 Z63.8826
G1 X-10.1738 Y-125.2156 Z63.8369
G1 X-10.5164 Y-124.8239 Z63.7913
G1 X-10.9427 Y-124.5254 Z63.7456
G1 X-11.4279 Y-124.3373 Z63.7
G1 X-13.2118 Y-123.845
#911=0.7238*#900
G1 X-13.3558 Y-123.801 F#911
#911=0.7368*#900
G1 X-15.1879 Y-123.1841 F#911
G1 X-17.1114 Y-122.4461
#911=0.6326*#900
G1 X-18.0524 Y-122.1011 F#911
G1 X-19.0185 Y-121.8345
#911=0.7915*#900
G1 X-19.812 Y-121.6779 F#911
G1 X-19.9371 Y-121.6576 F#900
G1 X-22.8805 Y-121.1487
G1 X-25.8112 Y-120.572
#911=0.974*#900
G1 X-26.1798 Y-120.4935 F#911
G1 X-28.2467 Y-120.0297 F#900
G1 X-30.3049 Y-119.5292
G1 X-33.2297 Y-118.7418
G1 X-36.1327 Y-117.8774
G1 X-39.0155 Y-116.9469
G1 X-41.9814 Y-115.9253
#911=0.846*#900
G1 X-43.5612 Y-115.4379 F#911
G1 X-45.1768 Y-115.0872
G1 X-46.8165 Y-114.8758
G1 X-48.4682 Y-114.8051
G1 X-48.5758 Y-114.8055 F#900
G1 X-107.6847 Y-114.7989
G1 X-110.1493 Y-114.7964
#911=0.9847*#900
G1 X-112.6138 Y-114.8029 F#911
G1 X-115.0785 Y-114.816 F#900
G1 X-117.5421 Y-114.7679
G1 X-120.0012 Y-114.6031
G1 X-122.4493 Y-114.3179
G1 X-124.8775 Y-113.901
G1 X-127.2769 Y-113.3418
G1 X-129.6402 Y-112.6441
G1 X-131.9596 Y-111.812
G1 X-134.2269 Y-110.8473
G1 X-136.4341 Y-109.7519
G1 X-138.578 Y-108.5369
G1 X-140.6565 Y-107.2131
G1 X-142.6569 Y-105.7756
G1 X-144.5669 Y-104.2199
G1 X-146.1951 Y-102.7202
G1 X-147.7518 Y-101.1463
G1 X-148.1399 Y-100.8166 Z63.7446
G1 X-148.5906 Y-100.5795 Z63.7893
G1 X-149.0822 Y-100.4465 Z63.8339
G1 X-149.5909 Y-100.424 Z63.8786
G1 X-150.0924 Y-100.513 Z63.9232
G1 X-150.5623 Y-100.7092 Z63.9679
G1 X-151.3518 Y-101.1463 Z64.0468
G1 X-151.3389 Y-99.3955 Z64.2 F#906
G1 X-149.3561 Y168.1825
G1 X-149.3438 Y169.8472 Z64.0544
G1 X-148.8851 Y168.8441 Z63.9578 F#900
#911=0.7368*#900
G1 X-148.6291 Y168.4262 Z63.9149 F#911
G1 X-148.2807 Y168.0817 Z63.8719
G1 X-147.8599 Y167.8305 Z63.8289
G1 X-147.3914 Y167.6872 Z63.7859
G1 X-146.9021 Y167.6601 Z63.743
G1 X-146.4206 Y167.7507 Z63.7
G1 X-144.1908 Y168.4278
G1 X-141.9455 Y169.0512
G1 X-138.7032 Y169.8496
G1 X-136.5855 Y170.3072 F#900
G1 X-134.2591 Y170.7566
G1 X-131.9237 Y171.1565
G1 X-131.3511 Y171.3207 Z63.7522
G1 X-130.8341 Y171.6168 Z63.8045
G1 X-130.4027 Y172.0276 Z63.8567
G1 X-130.0818 Y172.5295 Z63.909
G1 X-129.8897 Y173.0934 Z63.9612
G1 X-129.872 Y173.4709 Z63.9944 F#906
G1 X-129.9746 Y173.8347 Z64.0276
G1 X-130.1869 Y174.1473 Z64.0609
G1 X-130.4872 Y174.3768 Z64.0941
G1 X-130.8447 Y174.4996 Z64.1273
G1 X-131.2226 Y174.503 Z64.1605
G1 X-131.6692 Y174.4354 Z64.2
G1 X-134.4557 Y173.9727
G1 X-137.2299 Y173.4415
G1 X-140.0041 Y172.8334
G1 X-142.7597 Y172.1459
G1 X-145.4946 Y171.3803
G1 X-148.2066 Y170.5375
G1 X-150.5746 Y169.7372
G1 X-152.9252 Y168.8874
G1 X-153.4175 Y168.6284
G1 X-153.8289 Y168.2541
G1 X-154.1331 Y167.7885
G1 X-154.3107 Y167.2613
G1 X-154.3502 Y166.7065
G1 X-154.249 Y166.1596
G1 X-154.0138 Y165.6556
G1 X-153.6595 Y165.2268
#911=0.7368*#900
G1 X-152.9498 Y164.6576 Z64.1286 F#911
G1 X-152.1608 Y164.2045 Z64.0571
G1 X-151.3114 Y163.8784 Z63.9857
G1 X-150.4219 Y163.687 Z63.9143
G1 X-149.5136 Y163.635 Z63.8429
G1 X-148.6081 Y163.7236 Z63.7714
G1 X-147.727 Y163.9506 Z63.7
G1 X-146.2436 Y164.4464
G1 X-143.6982 Y165.2378
G1 X-140.0619 Y166.2329
G1 X-138.0069 Y166.7262 F#900
G1 X-135.9411 Y167.1728
G1 X-133.3228 Y167.6741
G1 X-130.6929 Y168.1104
G1 X-128.3936 Y168.4229
G1 X-126.0882 Y168.6873
G1 X-123.7774 Y168.8958
G1 X-121.4617 Y169.0408
G1 X-119.1434 Y169.1312
G1 X-116.8237 Y169.176
G1 X-112.1829 Y169.1984
G1 X-102.9015 Y169.1991
G1 X-93.62 Y169.2005
G1 X-92.9381 Y169.2007
#911=0.7814*#900
G1 X-91.8176 Y169.257 F#911
G1 X-90.7083 Y169.4246
G1 X-89.6212 Y169.7017
G1 X-88.5671 Y170.0856
G1 X-87.5564 Y170.5725
G1 X-86.5992 Y171.1576
G1 X-86.1975 Y171.4997 Z63.7463 F#900
G1 X-85.8774 Y171.9193 Z63.7925
G1 X-85.6537 Y172.3973 Z63.8388
G1 X-85.5364 Y172.9118 Z63.885
G1 X-85.531 Y173.4395 Z63.9313
G1 X-85.646 Y173.8868 Z63.9719 F#906
G1 X-85.8917 Y174.2779 Z64.0124
G1 X-86.2449 Y174.5755 Z64.053
G1 X-86.6719 Y174.7513 Z64.0936
G1 X-87.1323 Y174.7887 Z64.1341
G1 X-87.8831 Y174.7332 Z64.2
G1 X-121.8175 Y172.2261
G1 X-124.1619 Y172.0668
G1 X-126.5021 Y171.8547
G1 X-128.837 Y171.5906
G1 X-131.1656 Y171.2753
G1 X-133.8815 Y170.8248
G1 X-136.5855 Y170.3072
G1 X-139.2745 Y169.7176
G1 X-141.9455 Y169.0512
G1 X-144.5964 Y168.309
G1 X-147.2251 Y167.492
G1 X-149.832 Y166.6066
G1 X-153.0758 Y165.4064
G1 X-153.5638 Y165.1412
G1 X-153.9692 Y164.7616
G1 X-154.2658 Y164.2921
G1 X-154.4345 Y163.7629
G1 X-154.4643 Y163.2083
G1 X-154.3533 Y162.6641
G1 X-154.1087 Y162.1655
G1 X-153.7464 Y161.7446
#911=0.7368*#900
G1 X-153.0213 Y161.1865 Z64.1286 F#911
G1 X-152.2195 Y160.7456 Z64.0571
G1 X-151.3598 Y160.4323 Z63.9857
G1 X-150.4623 Y160.2538 Z63.9143
G1 X-149.5482 Y160.2144 Z63.8429
G1 X-148.6387 Y160.3149 Z63.7714
G1 X-147.7552 Y160.5531 Z63.7
G1 X-145.2621 Y161.4009
G1 X-142.8 Y162.1665
G1 X-140.0244 Y162.9388
G1 X-137.668 Y163.5205 F#900
G1 X-135.2967 Y164.0385
G1 X-132.7641 Y164.5235
G1 X-130.2202 Y164.9455
G1 X-127.9501 Y165.2529
G1 X-125.6738 Y165.5102
G1 X-123.3921 Y165.7125
G1 X-121.1059 Y165.8544
G1 X-118.8171 Y165.9422
G1 X-116.5269 Y165.9821
G1 X-111.9451 Y165.9984
G1 X-102.782 Y165.9991
G1 X-93.6188 Y166.0005
G1 X-93.104 Y166.0007
#911=0.8148*#900
G1 X-91.6935 Y166.0688 F#911
G1 X-90.296 Y166.2717
G1 X-88.9244 Y166.6074
G1 X-87.5912 Y167.0729
G1 X-86.3087 Y167.6639
G1 X-85.0886 Y168.3749
G1 X-83.9423 Y169.1994
G1 X-82.88 Y170.1298
G1 X-81.9118 Y171.1577
G1 X-81.595 Y171.6077 Z63.7482 F#900
G1 X-81.3681 Y172.109 Z63.7964
G1 X-81.2391 Y172.644 Z63.8446
G1 X-81.2126 Y173.1936 Z63.8929
G1 X-81.2896 Y173.7385 Z63.9411
G1 X-81.4691 Y174.1849 Z63.9833 F#906
G1 X-81.7711 Y174.5596 Z64.0256
G1 X-82.1692 Y174.8299 Z64.0678
G1 X-82.6288 Y174.9724 Z64.1101
G1 X-83.11 Y174.9746 Z64.1523
G1 X-83.6492 Y174.8969 Z64.2
G1 X-107.7982 Y171.4132
G1 X-130.6929 Y168.1104
G1 X-133.3228 Y167.6741
G1 X-135.9411 Y167.1728
G1 X-138.5449 Y166.6018
G1 X-141.1313 Y165.9565
G1 X-143.6982 Y165.2378
G1 X-146.2436 Y164.4464
G1 X-148.7678 Y163.5889
G1 X-151.2709 Y162.6717
G1 X-153.1207 Y161.9467
G1 X-153.6051 Y161.675
G1 X-154.0055 Y161.2901
G1 X-154.2961 Y160.8168
G1 X-154.4582 Y160.2856
G1 X-154.4814 Y159.7307
G1 X-154.3641 Y159.1878
G1 X-154.1139 Y158.6919
G1 X-153.747 Y158.275
#911=0.7368*#900
G1 X-153.0173 Y157.7258 Z64.1286 F#911
G1 X-152.2124 Y157.2945 Z64.0571
G1 X-151.351 Y156.9911 Z63.9857
G1 X-150.4535 Y156.8228 Z63.9143
G1 X-149.5407 Y156.7936 Z63.8429
G1 X-148.6342 Y156.9041 Z63.7714
G1 X-147.7552 Y157.1517 Z63.7
G1 X-145.2385 Y158.0332
G1 X-142.6978 Y158.8427
G1 X-140.135 Y159.5793
G1 X-136.7011 Y160.4441 F#900
G1 X-133.237 Y161.1782
G1 X-129.7475 Y161.7806
G1 X-127.5066 Y162.0828
G1 X-125.2594 Y162.3332
G1 X-123.0069 Y162.5291
G1 X-120.7501 Y162.668
G1 X-118.4907 Y162.7532
G1 X-116.23 Y162.7882
G1 X-111.7073 Y162.7984
G1 X-102.6625 Y162.7992
G1 X-93.6177 Y162.8005
G1 X-93.2129 Y162.8006
#911=0.8388*#900
G1 X-91.5657 Y162.8763 F#911
G1 X-89.9322 Y163.1014
G1 X-88.3259 Y163.4741
G1 X-86.7601 Y163.9913
G1 X-85.2478 Y164.6487
G1 X-83.8016 Y165.4408
G1 X-82.4334 Y166.3612
G1 X-81.1545 Y167.4022
G1 X-79.9756 Y168.5551
G1 X-78.9064 Y169.8105
G1 X-77.9557 Y171.1578
G1 X-77.6243 Y171.8128 Z63.7643 F#900
G1 X-77.4303 Y172.5207 Z63.8287
G1 X-77.3816 Y173.2531 Z63.893
G1 X-77.4801 Y173.9805 Z63.9573
G1 X-77.667 Y174.4371 Z64.0006 F#906
G1 X-77.9829 Y174.8161 Z64.044
G1 X-78.3984 Y175.0821 Z64.0873
G1 X-78.8748 Y175.2103 Z64.1306
G1 X-79.3677 Y175.1889 Z64.174
G1 X-79.6594 Y175.1307 Z64.2
G1 X-98.3061 Y171.4132
G1 X-135.2967 Y164.0385
G1 X-137.8153 Y163.4861
G1 X-140.3171 Y162.8619
G1 X-142.8 Y162.1665
G1 X-145.2621 Y161.4009
G1 X-147.7037 Y160.5713
G1 X-150.1249 Y159.684
G1 X-153.1658 Y158.4664
G1 X-153.6462 Y158.1877
G1 X-154.0412 Y157.7972
G1 X-154.3254 Y157.32
G1 X-154.4805 Y156.7866
G1 X-154.4966 Y156.2314
G1 X-154.3726 Y155.69
G1 X-154.1165 Y155.1971
G1 X-153.7448 Y154.7844
#911=0.7368*#900
G1 X-153.0107 Y154.2449 Z64.1286 F#911
G1 X-152.2027 Y153.824 Z64.0571
G1 X-151.3399 Y153.5316 Z63.9857
G1 X-150.4425 Y153.3746 Z63.9143
G1 X-149.5316 Y153.3568 Z63.8429
G1 X-148.6288 Y153.4784 Z63.7714
G1 X-147.7551 Y153.7367 Z63.7
G1 X-145.2497 Y154.6497
G1 X-142.7184 Y155.4883
G1 X-140.1635 Y156.2517
G1 X-136.5674 Y157.189 F#900
G1 X-132.9358 Y157.9774
G1 X-129.2748 Y158.6157
G1 X-127.0632 Y158.9127
G1 X-124.845 Y159.1561
G1 X-122.6216 Y159.3458
G1 X-120.3943 Y159.4816
G1 X-118.1644 Y159.5642
G1 X-115.9332 Y159.5943
G1 X-111.4694 Y159.5985
G1 X-102.543 Y159.5992
G1 X-93.6165 Y159.6005
G1 X-93.2899 Y159.6006
#911=0.857*#900
G1 X-91.5005 Y159.676 F#911
G1 X-89.7237 Y159.9005
G1 X-87.9718 Y160.2724
G1 X-86.2571 Y160.7892
G1 X-84.5914 Y161.4472
G1 X-82.9865 Y162.2419
G1 X-81.4534 Y163.1678
G1 X-80.003 Y164.2183
G1 X-78.6452 Y165.3862
G1 X-77.3896 Y166.6632
G1 X-76.245 Y168.0406
G1 X-75.2192 Y169.5087
G1 X-74.3195 Y171.0572
G1 X-74.2665 Y171.1579 F#900
G1 X-73.9706 Y171.8564 Z63.7664
G1 X-73.7955 Y172.5946 Z63.8329
G1 X-73.7461 Y173.3516 Z63.8993
G1 X-73.8239 Y174.1062 Z63.9658
G1 X-73.9894 Y174.5614 Z64.0084 F#906
G1 X-74.2914 Y174.94 Z64.0509
G1 X-74.6984 Y175.2026 Z64.0935
G1 X-75.1678 Y175.3216 Z64.136
G1 X-75.6507 Y175.2848 Z64.1786
G1 X-75.8885 Y175.227 Z64.2
G1 X-91.5834 Y171.4132
G1 X-137.5672 Y160.239
G1 X-140.4614 Y159.4899
G1 X-143.3302 Y158.6486
G1 X-146.1706 Y157.7161
G1 X-148.9798 Y156.6932
G1 X-151.1065 Y155.8497
G1 X-153.2116 Y154.9535
G1 X-153.6869 Y154.6675
G1 X-154.0752 Y154.2713
G1 X-154.3517 Y153.7904
G1 X-154.4987 Y153.2555
G1 X-154.5067 Y152.7009
G1 X-154.3753 Y152.1619
G1 X-154.1128 Y151.6732
G1 X-153.7362 Y151.266
#911=0.7368*#900
G1 X-152.9977 Y150.7381 Z64.1286 F#911
G1 X-152.1872 Y150.3295 Z64.0571
G1 X-151.3236 Y150.0498 Z63.9857
G1 X-150.4274 Y149.9056 Z63.9143
G1 X-149.5197 Y149.9004 Z63.8429
G1 X-148.6218 Y150.0342 Z63.7714
G1 X-147.7551 Y150.3039 Z63.7
G1 X-146.6884 Y150.7198
G1 X-143.4636 Y151.8804
G1 X-140.1955 Y152.913
G1 X-137.3807 Y153.6906 F#900
G1 X-134.5414 Y154.3732
G1 X-131.6808 Y154.9602
G1 X-128.8021 Y155.4508
G1 X-126.6197 Y155.7445
G1 X-124.431 Y155.9866
G1 X-122.2369 Y156.1717
G1 X-120.0385 Y156.2948
G1 X-117.8377 Y156.3652
G1 X-111.2316 Y156.3985
G1 X-102.4235 Y156.3992
G1 X-93.6153 Y156.4005
G1 X-93.3469 Y156.4006
#911=0.8714*#900
G1 X-91.4297 Y156.4757 F#911
G1 X-89.5241 Y156.6991
G1 X-87.6415 Y157.0695
G1 X-85.7932 Y157.5847
G1 X-83.9905 Y158.2415
G1 X-82.244 Y159.036
G1 X-80.5644 Y159.9635
G1 X-78.9617 Y161.0183
G1 X-77.4455 Y162.1942
G1 X-76.025 Y163.4839
G1 X-74.7087 Y164.8799
G1 X-73.5045 Y166.3737
G1 X-72.4197 Y167.9562
G1 X-71.4608 Y169.6181
G1 X-71.3358 Y169.8555 F#900
G1 X-70.6297 Y171.158
G1 X-70.3165 Y171.858 Z63.7672
G1 X-70.1264 Y172.601 Z63.8344
G1 X-70.0647 Y173.3654 Z63.9015
G1 X-70.1334 Y174.1293 Z63.9687
G1 X-70.2574 Y174.5113 Z64.004 F#906
G1 X-70.4814 Y174.8447 Z64.0392
G1 X-70.7884 Y175.1038 Z64.0745
G1 X-71.1546 Y175.2687 Z64.1097
G1 X-71.5521 Y175.3268 Z64.145
G1 X-71.9502 Y175.2735 Z64.1802
G1 X-72.1678 Y175.2128 Z64.2
G1 X-85.7919 Y171.4132
G1 X-140.5394 Y156.1445
G1 X-142.9938 Y155.4011
G1 X-145.426 Y154.5882
G1 X-147.8341 Y153.7065
G1 X-150.5649 Y152.6103
G1 X-153.2579 Y151.4242
G1 X-153.7286 Y151.1305
G1 X-154.1107 Y150.7282
G1 X-154.3798 Y150.243
G1 X-154.5189 Y149.7059
G1 X-154.5191 Y149.1511
G1 X-154.3802 Y148.6139
G1 X-154.1113 Y148.1286
G1 X-153.7294 Y147.7261
#911=0.7368*#900
G1 X-152.9866 Y147.2091 Z64.1286 F#911
G1 X-152.1732 Y146.8124 Z64.0571
G1 X-151.3085 Y146.5452 Z63.9857
G1 X-150.413 Y146.414 Z63.9143
G1 X-149.508 Y146.4218 Z63.8429
G1 X-148.615 Y146.5685 Z63.7714
G1 X-147.755 Y146.8506 Z63.7
G1 X-145.5428 Y147.7332
G1 X-142.9026 Y148.692
G1 X-140.2317 Y149.5616
G1 X-137.2954 Y150.4052 F#900
G1 X-134.3303 Y151.1411
G1 X-131.3403 Y151.7683
G1 X-128.3294 Y152.2859
G1 X-126.1762 Y152.5742
G1 X-124.0165 Y152.8086
G1 X-121.8516 Y152.9869
G1 X-119.6826 Y153.1069
G1 X-117.5113 Y153.175
G1 X-115.3392 Y153.198
G1 X-102.3039 Y153.1992
G1 X-93.6141 Y153.2005
G1 X-93.3909
#911=0.8831*#900
G1 X-91.3644 Y153.2747 F#911
G1 X-89.3486 Y153.4952
G1 X-87.354 Y153.8609
G1 X-85.391 Y154.37
G1 X-83.4701 Y155.0196
G1 X-81.6012 Y155.8066
G1 X-79.794 Y156.7266
G1 X-78.0582 Y157.7749
G1 X-76.4027 Y158.946
G1 X-74.8363 Y160.2338
G1 X-73.3671 Y161.6315
G1 X-72.0028 Y163.1318
G1 X-70.7506 Y164.7269
G1 X-69.6171 Y166.4084
G1 X-68.6082 Y168.1674
G1 X-68.5042 Y168.3649 F#900
G1 X-66.9468 Y171.1581
G1 X-66.6152 Y171.8576 Z63.7678
G1 X-66.4092 Y172.6038 Z63.8356
G1 X-66.335 Y173.3744 Z63.9034
G1 X-66.3948 Y174.1462 Z63.9712
G1 X-66.5153 Y174.527 Z64.0063 F#906
G1 X-66.7378 Y174.8587 Z64.0414
G1 X-67.0446 Y175.1146 Z64.0764
G1 X-67.4108 Y175.274 Z64.1115
G1 X-67.807 Y175.3242 Z64.1466
G1 X-68.2015 Y175.2611 Z64.1816
G1 X-68.402 Y175.1989 Z64.2
G1 X-80.5999 Y171.4132
G1 X-142.3178 Y152.2586
G1 X-144.5134 Y151.5183
G1 X-146.6884 Y150.7198
G1 X-150.0275 Y149.3621
G1 X-153.3064 Y147.8649
G1 X-153.772 Y147.5628
G1 X-154.1472 Y147.1539
G1 X-154.4084 Y146.6643
G1 X-154.5389 Y146.1249
G1 X-154.5305 Y145.57
G1 X-154.3837 Y145.0348
G1 X-154.1078 Y144.5532
G1 X-153.7203 Y144.1559
#911=0.7368*#900
G1 X-152.973 Y143.6508 Z64.1286 F#911
G1 X-152.1567 Y143.2669 Z64.0571
G1 X-151.2911 Y143.0133 Z63.9857
G1 X-150.3967 Y142.896 Z63.9143
G1 X-149.4949 Y142.9179 Z63.8429
G1 X-148.6073 Y143.0785 Z63.7714
G1 X-147.755 Y143.3739 Z63.7
G1 X-146.0839 Y144.0794
G1 X-144.3971 Y144.7465
G1 X-142.3448 Y145.4991
G1 X-140.2728 Y146.1958
G1 X-137.2148 Y147.1114 F#900
G1 X-134.1228 Y147.9049
G1 X-131.0018 Y148.5751
G1 X-127.8567 Y149.121
G1 X-125.7327 Y149.4058
G1 X-123.6024 Y149.6385
G1 X-121.4667 Y149.8116
G1 X-119.3266 Y149.9179
G1 X-115.042 Y149.9945
G1 X-110.756 Y149.9986
G1 X-102.1844 Y149.9993
G1 X-93.6129 Y150.0005
G1 X-93.4256
#911=0.8928*#900
G1 X-91.3046 Y150.0733 F#911
G1 X-89.1933 Y150.2898
G1 X-87.1016 Y150.6489
G1 X-85.039 Y151.1491
G1 X-83.0151 Y151.788
G1 X-81.0392 Y152.5626
G1 X-79.1204 Y153.4695
G1 X-77.2675 Y154.5044
G1 X-75.4891 Y155.6625
G1 X-73.7932 Y156.9387
G1 X-72.1878 Y158.3268
G1 X-70.6803 Y159.8207
G1 X-69.2775 Y161.4133
G1 X-67.986 Y163.0974
G1 X-66.8116 Y164.8652
G1 X-65.7598 Y166.7086
G1 X-65.6726 Y166.8742 F#900
G1 X-64.4802 Y169.036
G1 X-63.2187 Y171.1582
G1 X-62.8691 Y171.8548 Z63.7683
G1 X-62.6461 Y172.6015 Z63.8365
G1 X-62.5563 Y173.3757 Z63.9048
G1 X-62.6026 Y174.1537 Z63.9731
G1 X-62.7166 Y174.532 Z64.0078 F#906
G1 X-62.9345 Y174.8614 Z64.0425
G1 X-63.238 Y175.1143 Z64.0771
G1 X-63.6014 Y175.2693 Z64.1118
G1 X-63.994 Y175.3132 Z64.1465
G1 X-64.3826 Y175.2423 Z64.1812
G1 X-64.5862 Y175.1735 Z64.2
G1 X-75.7037 Y171.4132
G1 X-141.3366 Y149.2139
G1 X-143.4495 Y148.5015
G1 X-145.5428 Y147.7332
G1 X-148.1871 Y146.6695
G1 X-150.793 Y145.515
G1 X-153.3574 Y144.271
G1 X-153.8172 Y143.9599
G1 X-154.1848 Y143.544
G1 X-154.4373 Y143.0495
G1 X-154.5584 Y142.5078
G1 X-154.5407 Y141.9529
G1 X-154.3853 Y141.42
G1 X-154.1019 Y140.9426
G1 X-153.7085 Y140.551
#911=0.7368*#900
G1 X-152.9565 Y140.0588 Z64.1286 F#911
G1 X-152.1374 Y139.6888 Z64.0571
G1 X-151.271 Y139.4499 Z63.9857
G1 X-150.3781 Y139.3478 Z63.9143
G1 X-149.4801 Y139.3849 Z63.8429
G1 X-148.5987 Y139.5605 Z63.7714
G1 X-147.755 Y139.8702 Z63.7
G1 X-145.5184 Y140.8512
G1 X-143.2514 Y141.7598
G1 X-140.3198 Y142.813
G1 X-137.1398 Y143.8076 F#900
G1 X-133.9198 Y144.664
G1 X-130.6659 Y145.3806
G1 X-127.384 Y145.9561
G1 X-125.2893 Y146.2353
G1 X-123.1879 Y146.4595
G1 X-121.0813 Y146.6251
G1 X-118.9707 Y146.7282
G1 X-114.7451 Y146.799
#911=0.9992*#900
G1 X-110.5182 Y146.7986 F#911
G1 X-102.0649 Y146.7997 F#900
G1 X-93.6117 Y146.8005
G1 X-93.4538
#911=0.901*#900
G1 X-91.1124 Y146.8809 F#911
G1 X-88.7819 Y147.1198
G1 X-86.4729 Y147.5163
G1 X-84.1961 Y148.0684
G1 X-81.9621 Y148.7736
G1 X-79.7809 Y149.6287
G1 X-77.6628 Y150.6298
G1 X-75.6175 Y151.7722
G1 X-73.6543 Y153.0506
G1 X-71.7823 Y154.4593
G1 X-70.0102 Y155.9916
G1 X-68.3461 Y157.6406
G1 X-66.7976 Y159.3986
G1 X-65.3719 Y161.2577
G1 X-64.0755 Y163.2091
G1 X-62.9145 Y165.2439
G1 X-62.841 Y165.3836 F#900
G1 X-61.4219 Y167.9334
G1 X-59.4274 Y171.1583
G1 X-59.0574 Y171.8507 Z63.7688
G1 X-58.8169 Y172.5981 Z63.8376
G1 X-58.7136 Y173.3764 Z63.9063
G1 X-58.7509 Y174.1606 Z63.9751
G1 X-58.8616 Y174.5378 Z64.0096 F#906
G1 X-59.078 Y174.866 Z64.0442
G1 X-59.3809 Y175.1165 Z64.0787
G1 X-59.7438 Y175.2674 Z64.1132
G1 X-60.135 Y175.3055 Z64.1477
G1 X-60.5203 Y175.2274 Z64.1822
G1 X-60.7112 Y175.158 Z64.2
G1 X-71.0161 Y171.4132
G1 X-144.3971 Y144.7465
G1 X-147.4577 Y143.5027
G1 X-150.4637 Y142.1323
G1 X-153.4099 Y140.6376
G1 X-153.8631 Y140.3169
G1 X-154.2222 Y139.8936
G1 X-154.4648 Y139.3942
G1 X-154.5757 Y138.8503
G1 X-154.5478 Y138.2959
G1 X-154.383 Y137.7657
G1 X-154.0916 Y137.2932
G1 X-153.6919 Y136.908
#911=0.7368*#900
G1 X-152.9352 Y136.4302 Z64.1286 F#911
G1 X-152.1136 Y136.0755 Z64.0571
G1 X-151.2469 Y135.8527 Z63.9857
G1 X-150.3561 Y135.7671 Z63.9143
G1 X-149.4628 Y135.8208 Z63.8429
G1 X-148.5887 Y136.0125 Z63.7714
G1 X-147.7549 Y136.3376 Z63.7
G1 X-144.9551 Y137.615
G1 X-142.1027 Y138.77
G1 X-140.3713 Y139.4064
G1 X-138.3916 Y140.0822 F#900
G1 X-136.5128 Y140.6679
G1 X-134.6177 Y141.199
G1 X-132.7082 Y141.6757
G1 X-130.786 Y142.098
G1 X-128.853 Y142.4689
G1 X-126.9113 Y142.7912
G1 X-124.8458 Y143.0647
G1 X-122.7735 Y143.2806
G1 X-120.6959 Y143.4386
G1 X-118.6147 Y143.5385
G1 X-114.4482 Y143.6039
#911=0.9972*#900
G1 X-110.2804 Y143.5986 F#911
G1 X-93.477 Y143.6005 F#900
#911=0.908*#900
G1 X-91.0664 Y143.6784 F#911
G1 X-88.6656 Y143.9101
G1 X-86.2844 Y144.2945
G1 X-83.9327 Y144.8301
G1 X-81.62 Y145.5147
G1 X-79.3557 Y146.3455
G1 X-77.149 Y147.3192
G1 X-75.009 Y148.4318
G1 X-72.9443 Y149.6787
G1 X-70.9635 Y151.0548
G1 X-69.0745 Y152.5546
G1 X-67.2851 Y154.1718
G1 X-65.6026 Y155.9
G1 X-64.0339 Y157.7321
G1 X-62.5852 Y159.6606
G1 X-61.2627 Y161.6776
G1 X-60.0715 Y163.7749
G1 X-60.0094 Y163.8929 F#900
G1 X-58.6558 Y166.325
G1 X-57.2062 Y168.701
G1 X-55.5599 Y171.1584
G1 X-55.1673 Y171.8429 Z63.7691
G1 X-54.9067 Y172.5877 Z63.8383
G1 X-54.7869 Y173.3676 Z63.9074
G1 X-54.8119 Y174.1563 Z63.9765
G1 X-54.9178 Y174.5316 Z64.0108 F#906
G1 X-55.1307 Y174.8582 Z64.045
G1 X-55.4312 Y175.1066 Z64.0793
G1 X-55.7921 Y175.2542 Z64.1135
G1 X-56.1806 Y175.2875 Z64.1477
G1 X-56.5613 Y175.2036 Z64.182
G1 X-56.7534 Y175.1295 Z64.2
G1 X-66.3865 Y171.4132
G1 X-143.2514 Y141.7598
G1 X-145.8707 Y140.7024
G1 X-148.4488 Y139.5483
G1 X-150.9822 Y138.299
G1 X-153.4673 Y136.9563
G1 X-153.9133 Y136.6249
G1 X-154.2631 Y136.1933
G1 X-154.4952 Y135.6884
G1 X-154.5948 Y135.1418
G1 X-154.5559 Y134.5875
G1 X-154.3808 Y134.0602
G1 X-154.0806 Y133.5927
G1 X-153.6738 Y133.2142
#911=0.7368*#900
G1 X-152.9122 Y132.7516 Z64.1286 F#911
G1 X-152.0877 Y132.4134 Z64.0571
G1 X-151.2206 Y132.2079 Z63.9857
G1 X-150.3321 Y132.1403 Z63.9143
G1 X-149.4439 Y132.212 Z63.8429
G1 X-148.5777 Y132.4215 Z63.7714
G1 X-147.7549 Y132.7634 Z63.7
G1 X-145.5264 Y133.8518
G1 X-143.2605 Y134.8599
G1 X-140.4366 Y135.984
G1 X-137.7015 Y136.9411 F#900
G1 X-134.9295 Y137.7851
G1 X-132.1252 Y138.5148
G1 X-129.2933 Y139.1289
G1 X-126.4387 Y139.6263
G1 X-124.4023 Y139.8961
G1 X-122.3592 Y140.1094
G1 X-120.3109 Y140.2617
G1 X-118.2588 Y140.3485
G1 X-114.151 Y140.4005
#911=0.9989*#900
G1 X-110.0426 Y140.3986 F#911
G1 X-93.4965 Y140.4005 F#900
#911=0.9141*#900
G1 X-91.0246 Y140.476 F#911
G1 X-88.5617 Y140.7004
G1 X-86.1169 Y141.0729
G1 X-83.6989 Y141.5921
G1 X-81.3167 Y142.2561
G1 X-78.9788 Y143.0625
G1 X-76.6938 Y144.0084
G1 X-74.4699 Y145.0904
G1 X-72.3154 Y146.3044
G1 X-70.2379 Y147.6462
G1 X-68.2452 Y149.1107
G1 X-66.3443 Y150.6927
G1 X-64.5423 Y152.3865
G1 X-62.8457 Y154.1858
G1 X-61.2606 Y156.0841
G1 X-59.7929 Y158.0745
G1 X-58.4478 Y160.1498
G1 X-57.2303 Y162.3025
G1 X-57.1778 Y162.4023 F#900
G1 X-55.9119 Y164.6749
G1 X-54.5548 Y166.8942
G1 X-53.1087 Y169.0566
G1 X-51.5759 Y171.1585
G1 X-51.1572 Y171.8337 Z63.7696
G1 X-50.874 Y172.5761 Z63.8392
G1 X-50.7367 Y173.3587 Z63.9089
G1 X-50.7502 Y174.1531 Z63.9785
G1 X-50.8523 Y174.5279 Z64.0126 F#906
G1 X-51.063 Y174.8541 Z64.0467
G1 X-51.3626 Y175.1013 Z64.0808
G1 X-51.7229 Y175.2463 Z64.1149
G1 X-52.1102 Y175.2754 Z64.149
G1 X-52.4881 Y175.186 Z64.1832
G1 X-52.6665 Y175.1136 Z64.2
G1 X-61.7726 Y171.4132
G1 X-142.1027 Y138.77
G1 X-144.5382 Y137.7928
G1 X-146.9359 Y136.7265
G1 X-149.2926 Y135.5724
G1 X-151.4297 Y134.4313
G1 X-153.5277 Y133.22
G1 X-153.9652 Y132.8769
G1 X-154.3044 Y132.4364
G1 X-154.5244 Y131.9258
G1 X-154.6115 Y131.3767
G1 X-154.5602 Y130.8231
G1 X-154.3739 Y130.2992
G1 X-154.0639 Y129.8377
G1 X-153.6496 Y129.4669
#911=0.7368*#900
G1 X-152.883 Y129.0214 Z64.1286 F#911
G1 X-152.056 Y128.7016 Z64.0571
G1 X-151.189 Y128.5155 Z63.9857
G1 X-150.3036 Y128.4676 Z63.9143
G1 X-149.4217 Y128.5591 Z63.8429
G1 X-148.565 Y128.7878 Z63.7714
G1 X-147.7548 Y129.148 Z63.7
G1 X-145.3859 Y130.3722
G1 X-142.9696 Y131.4999
G1 X-140.5099 Y132.5294
G1 X-139.8144 Y132.7997 F#900
G1 X-137.1121 Y133.7668
G1 X-134.3712 Y134.618
G1 X-131.5965 Y135.3517
G1 X-128.793 Y135.9665
G1 X-125.966 Y136.4614
G1 X-123.9588 Y136.7252
G1 X-121.9447 Y136.9288
G1 X-119.9254 Y137.0727
G1 X-117.9028 Y137.1569
G1 X-113.8541 Y137.2048
#911=0.9966*#900
G1 X-109.8048 Y137.1987 F#911
G1 X-93.5605 Y137.2005 F#900
#911=0.9194*#900
G1 X-91.029 Y137.2712 F#911
G1 X-88.5057 Y137.4867
G1 X-85.9989 Y137.8462
G1 X-83.5168 Y138.3487
G1 X-81.0675 Y138.9923
G1 X-78.659 Y139.7751
G1 X-76.2993 Y140.6944
G1 X-73.9961 Y141.7473
G1 X-71.7569 Y142.9303
G1 X-69.5891 Y144.2395
G1 X-67.4998 Y145.6706
G1 X-65.4957 Y147.219
G1 X-63.5836 Y148.8795
G1 X-61.7697 Y150.6467
G1 X-60.0599 Y152.5148
G1 X-58.4598 Y154.4777
G1 X-56.9746 Y156.529
G1 X-55.6093 Y158.662
G1 X-54.3683 Y160.8695
G1 X-53.1356 Y163.0875 F#900
G1 X-51.8145 Y165.254
G1 X-50.4182 Y167.3441
G1 X-48.9348 Y169.3733
G1 X-47.5139 Y171.1586
G1 X-47.0702 Y171.8154 Z63.7695
G1 X-46.7629 Y172.5461 Z63.8389
G1 X-46.6039 Y173.3226 Z63.9084
G1 X-46.5992 Y174.1152 Z63.9778
G1 X-46.6931 Y174.4851 Z64.0114 F#906
G1 X-46.8965 Y174.8081 Z64.0449
G1 X-47.1895 Y175.0526 Z64.0784
G1 X-47.5436 Y175.1949 Z64.1119
G1 X-47.9243 Y175.2212 Z64.1455
G1 X-48.2946 Y175.1288 Z64.179
G1 X-48.5157 Y175.035 Z64.2
G1 X-57.0554 Y171.4132
G1 X-144.2352 Y134.4381
G1 X-146.6441 Y133.3182
G1 X-149.0084 Y132.107
G1 X-151.3247 Y130.8063
G1 X-153.5895 Y129.4179
G1 X-154.0174 Y129.0623
G1 X-154.3448 Y128.6124
G1 X-154.5514 Y128.0958
G1 X-154.6246 Y127.5442
G1 X-154.5599 Y126.9916
G1 X-154.3612 Y126.4719
G1 X-154.0409 Y126.017
G1 X-153.6184 Y125.6548
#911=0.7368*#900
G1 X-152.8469 Y125.2281 Z64.1286 F#911
G1 X-152.0177 Y124.9285 Z64.0571
G1 X-151.1516 Y124.7635 Z63.9857
G1 X-150.2703 Y124.7373 Z63.9143
G1 X-149.3959 Y124.8505 Z63.8429
G1 X-148.5503 Y125.1002 Z63.7714
G1 X-147.7548 Y125.4803 Z63.7
G1 X-145.4196 Y126.7676
G1 X-143.032 Y127.9548
G1 X-140.5963 Y129.0399
G1 X-138.6687 Y129.813 F#900
G1 X-136.0978 Y130.733
G1 X-133.49 Y131.5428
G1 X-130.8501 Y132.2407
G1 X-128.1829 Y132.8257
G1 X-125.4933 Y133.2965
G1 X-123.5153 Y133.5556
G1 X-121.5303 Y133.7539
G1 X-119.5402 Y133.8905
G1 X-117.5467 Y133.9645
G1 X-113.5571 Y134.0029
#911=0.9976*#900
G1 X-109.567 Y133.9987 F#911
G1 X-93.567 Y134.0005 F#900
#911=0.9241*#900
G1 X-90.8521 Y134.0769 F#911
G1 X-88.146 Y134.3086
G1 X-85.4576 Y134.6946
G1 X-82.7957 Y135.2338
G1 X-80.169 Y135.9245
G1 X-77.5861 Y136.7642
G1 X-75.0555 Y137.7504
G1 X-72.5854 Y138.8797
G1 X-70.184 Y140.1484
G1 X-67.8591 Y141.5525
G1 X-65.6184 Y143.0872
G1 X-63.4691 Y144.7477
G1 X-61.4183 Y146.5283
G1 X-59.4728 Y148.4234
G1 X-57.6388 Y150.4267
G1 X-55.9224 Y152.5316
G1 X-54.3293 Y154.7312
G1 X-52.8646 Y157.0184
G1 X-51.5332 Y159.3856
G1 X-50.3677 Y161.4824 F#900
G1 X-49.1186 Y163.5305
G1 X-47.7972 Y165.5086
G1 X-46.3934 Y167.4289
G1 X-44.9082 Y169.2872
G1 X-43.2698 Y171.1587
G1 X-42.879 Y171.6624 Z63.7558
G1 X-42.5757 Y172.2231 Z63.8117
G1 X-42.3678 Y172.8258 Z63.8675
G1 X-42.261 Y173.4543 Z63.9234
G1 X-42.2582 Y174.0919 Z63.9792
G1 X-42.3472 Y174.4611 Z64.0126 F#906
G1 X-42.5472 Y174.7839 Z64.0459
G1 X-42.838 Y175.0281 Z64.0793
G1 X-43.1907 Y175.169 Z64.1127
G1 X-43.5697 Y175.1927 Z64.146
G1 X-43.9371 Y175.0966 Z64.1794
G1 X-44.1527 Y175.0017 Z64.2
G1 X-52.3042 Y171.4132
G1 X-143.1291 Y131.4291
G1 X-145.5638 Y130.2844
G1 X-147.9499 Y129.0418
G1 X-150.2837 Y127.7032
G1 X-152.5611 Y126.2709
G1 X-153.0471 Y125.856
G1 X-153.4155 Y125.3339
G1 X-153.6435 Y124.7369
G1 X-153.7167 Y124.102
G1 X-153.6308 Y123.4688
G1 X-153.3911 Y122.8764
G1 X-153.0124 Y122.3617
G1 X-152.9036 Y122.2537 Z64.1866
#911=0.7368*#900
G1 X-152.2761 Y121.7683 Z64.1171 F#911
G1 X-151.5692 Y121.4079 Z64.0476
G1 X-150.8078 Y121.1851 Z63.9781
G1 X-150.0182 Y121.1077 Z63.9085
G1 X-149.228 Y121.1783 Z63.839
G1 X-148.4646 Y121.3946 Z63.7695
G1 X-147.7547 Y121.7489 Z63.7
G1 X-145.4596 Y123.1062
G1 X-143.1062 Y124.3597
G1 X-140.6992 Y125.507
G1 X-139.1206 Y126.1895 F#900
G1 X-137.523 Y126.8263
G1 X-135.0834 Y127.6992
G1 X-132.6088 Y128.4675
G1 X-130.1038 Y129.1298
G1 X-127.5729 Y129.6849
G1 X-125.0206 Y130.1317
G1 X-123.0718 Y130.3846
G1 X-121.1158 Y130.5731
G1 X-119.1547 Y130.7008
G1 X-117.1907 Y130.7714
G1 X-113.2602 Y130.806
#911=0.9958*#900
G1 X-109.3292 Y130.7987 F#911
G1 X-93.5724 Y130.8005 F#900
#911=0.9282*#900
G1 X-90.819 Y130.8745 F#911
G1 X-88.0736 Y131.0981
G1 X-85.3445 Y131.4705
G1 X-82.6396 Y131.9906
G1 X-79.9669 Y132.6569
G1 X-77.3344 Y133.4675
G1 X-74.7498 Y134.4199
G1 X-72.2208 Y135.5112
G1 X-69.7549 Y136.7384
G1 X-67.3592 Y138.0978
G1 X-65.0409 Y139.5853
G1 X-62.8069 Y141.1965
G1 X-60.6637 Y142.9268
G1 X-58.6177 Y144.7709
G1 X-56.6749 Y146.7235
G1 X-54.8411 Y148.7788
G1 X-53.1216 Y150.9306
G1 X-51.5216 Y153.1727
G1 X-50.0458 Y155.4984
G1 X-48.6985 Y157.9009
G1 X-47.5937 Y159.8925 F#900
G1 X-46.4265 Y161.8092
G1 X-45.1779 Y163.6739
G1 X-43.8519 Y165.4846
G1 X-42.4508 Y167.2375
G1 X-40.9743 Y168.9274
G1 X-39.9136 Y170.0577
G1 X-38.8224 Y171.1588
G1 X-38.4057 Y171.6441 Z63.756
G1 X-38.0771 Y172.193 Z63.8121
G1 X-37.8462 Y172.7895 Z63.8681
G1 X-37.7195 Y173.4165 Z63.9241
G1 X-37.7007 Y174.056 Z63.9802
G1 X-37.7818 Y174.423 Z64.0132 F#906
G1 X-37.9753 Y174.7451 Z64.0462
G1 X-38.2613 Y174.9891 Z64.0792
G1 X-38.61 Y175.1294 Z64.1123
G1 X-38.9852 Y175.1516 Z64.1453
G1 X-39.348 Y175.0533 Z64.1783
G1 X-39.5735 Y174.9509 Z64.2
G1 X-47.3623 Y171.4132
G1 X-141.8223 Y128.5091
G1 X-144.1387 Y127.4201
G1 X-146.4089 Y126.2379
G1 X-148.6292 Y124.9644
G1 X-150.7959 Y123.6018
G1 X-152.2848 Y122.5764
G1 X-153.7429 Y121.5077
G1 X-154.1431 Y121.1197
G1 X-154.4368 Y120.646
G1 X-154.6065 Y120.1151
G1 X-154.6419 Y119.5588
G1 X-154.541 Y119.0106
G1 X-154.3097 Y118.5035
G1 X-153.962 Y118.0679
G1 X-153.5188 Y117.7299
#911=0.7368*#900
G1 X-152.7361 Y117.3537 Z64.1286 F#911
G1 X-151.9033 Y117.108 Z64.0571
G1 X-151.0418 Y116.999 Z63.9857
G1 X-150.174 Y117.0297 Z63.9143
G1 X-149.3223 Y117.1991 Z63.8429
G1 X-148.5088 Y117.503 Z63.7714
G1 X-147.7547 Y117.9334 Z63.7
G1 X-145.173 Y119.5752
G1 X-143.0249 Y120.7941
G1 X-140.8257 Y121.9181
G1 X-138.6221 Y122.9266 F#900
G1 X-136.3773 Y123.8396
G1 X-134.069 Y124.6655
G1 X-131.7276 Y125.3923
G1 X-129.3575 Y126.0189
G1 X-126.9628 Y126.544
G1 X-124.5479 Y126.9668
G1 X-121.9886 Y127.2826
G1 X-119.4175 Y127.4817
G1 X-116.8401 Y127.5635
G1 X-109.0914 Y127.5987
G1 X-93.5771 Y127.6005
#911=0.932*#900
G1 X-90.6496 Y127.6796 F#911
G1 X-87.7306 Y127.9177
G1 X-84.8289 Y128.314
G1 X-81.953 Y128.8673
G1 X-79.1114 Y129.576
G1 X-76.3125 Y130.4379
G1 X-73.5645 Y131.4507
G1 X-70.8756 Y132.6112
G1 X-68.2538 Y133.916
G1 X-65.7066 Y135.3614
G1 X-63.2417 Y136.9429
G1 X-60.8664 Y138.656
G1 X-58.5876 Y140.4956
G1 X-56.4121 Y142.4562
G1 X-54.3463 Y144.5322
G1 X-52.3963 Y146.7172
G1 X-50.5679 Y149.005
G1 X-48.8665 Y151.3887
G1 X-47.297 Y153.8612
G1 X-45.8641 Y156.4154
G1 X-44.8276 Y158.284 F#900
G1 X-43.7305 Y160.0857
G1 X-42.5568 Y161.8383
G1 X-41.3104 Y163.5402
G1 X-39.9935 Y165.1878
G1 X-38.6055 Y166.7761
G1 X-37.1525 Y168.3055
G1 X-35.6404 Y169.7765
G1 X-34.0785 Y171.1589
G1 X-33.4795 Y171.7371 Z63.7729
G1 X-32.9573 Y172.3854 Z63.8458
G1 X-32.52 Y173.0938 Z63.9186
G1 X-32.1745 Y173.8513 Z63.9915
G1 X-31.9261 Y174.6459 Z64.0644
G1 X-31.906 Y175.0305 Z64.0983 F#906
G1 X-32.0287 Y175.3956 Z64.1322
G1 X-32.2769 Y175.6901 Z64.1661
G1 X-32.616 Y175.8727 Z64.2
G1 X-32.9942 Y175.9183
G1 X-33.363 Y175.8232
G1 X-42.7699 Y171.4132
G1 X-140.5156 Y125.5891
G1 X-142.7137 Y124.5558
G1 X-144.8679 Y123.4341
G1 X-146.9748 Y122.2257
G1 X-149.0308 Y120.9327
G1 X-151.47 Y119.2132
G1 X-153.8181 Y117.3713
G1 X-154.2018 Y116.966
G1 X-154.4762 Y116.4799
G1 X-154.6249 Y115.9419
G1 X-154.6392 Y115.3839
G1 X-154.5181 Y114.839
G1 X-154.269 Y114.3396
G1 X-153.9065 Y113.9151
G1 X-153.4522 Y113.5909
#911=0.7368*#900
G1 X-152.6647 Y113.2427 Z64.1286 F#911
G1 X-151.8313 Y113.0268 Z64.0571
G1 X-150.9739 Y112.9487 Z63.9857
G1 X-150.1151 Y113.0106 Z63.9143
G1 X-149.2778 Y113.2109 Z63.8429
G1 X-148.4839 Y113.5443 Z63.7714
G1 X-147.7546 Y114.0018 Z63.7
G1 X-145.5006 Y115.5944
G1 X-143.2771 Y116.9795
G1 X-140.9882 Y118.2537
G1 X-139.1041 Y119.1958 F#900
G1 X-137.1843 Y120.0626
G1 X-135.2316 Y120.8529
G1 X-132.5054 Y121.8118
G1 X-129.7319 Y122.6244
G1 X-126.9192 Y123.2884
G1 X-124.0752 Y123.8019
G1 X-121.5548 Y124.1115
G1 X-119.0228 Y124.3033
G1 X-116.4845 Y124.3768
G1 X-108.8535 Y124.3988
G1 X-93.5812 Y124.4005
#911=0.9353*#900
G1 X-90.6271 Y124.4769 F#911
G1 X-87.6809 Y124.706
G1 X-84.7506 Y125.0871
G1 X-81.8438 Y125.6193
G1 X-78.9685 Y126.3012
G1 X-76.1323 Y127.1308
G1 X-73.3428 Y128.106
G1 X-70.6075 Y129.2242
G1 X-67.9337 Y130.4824
G1 X-65.3285 Y131.8772
G1 X-62.7989 Y133.4048
G1 X-60.3518 Y135.0612
G1 X-57.9936 Y136.842
G1 X-55.7306 Y138.7424
G1 X-53.569 Y140.7573
G1 X-51.5145 Y142.8813
G1 X-49.5726 Y145.1087
G1 X-47.7485 Y147.4335
G1 X-46.047 Y149.8496
G1 X-44.4728 Y152.3505
G1 X-43.0301 Y154.9294
G1 X-41.7298 Y157.2265 F#900
G1 X-40.3043 Y159.4482
G1 X-38.7581 Y161.5876
G1 X-37.1008 Y163.6326
G1 X-35.3333 Y165.5831
G1 X-33.461 Y167.4334
G1 X-31.9914 Y168.7338
G1 X-30.4726 Y169.9763
G1 X-28.9067 Y171.159
G1 X-28.2505 Y171.7032 Z63.7746
G1 X-27.6702 Y172.3277 Z63.8493
G1 X-27.1755 Y173.022 Z63.9239
G1 X-26.7747 Y173.7744 Z63.9985
G1 X-26.4746 Y174.5724 Z64.0732
G1 X-26.4353 Y174.9305 Z64.1049 F#906
G1 X-26.5287 Y175.2785 Z64.1366
G1 X-26.742 Y175.5689 Z64.1683
G1 X-27.0461 Y175.762 Z64.2
G1 X-27.3057 Y175.8263
G1 X-27.5729 Y175.8176
G1 X-27.8278 Y175.7368
G1 X-36.9025 Y171.4132
G1 X-139.2088 Y122.6692
G1 X-141.2886 Y121.6915
G1 X-143.3269 Y120.6302
G1 X-145.3204 Y119.4869
G1 X-147.2657 Y118.2635
G1 X-149.5642 Y116.6434
G1 X-151.777 Y114.9081
G1 X-153.8984 Y113.0622
G1 X-154.2621 Y112.6374
G1 X-154.5132 Y112.1378
G1 X-154.6372 Y111.5925
G1 X-154.6267 Y111.0334
G1 X-154.4824 Y110.4931
G1 X-154.2127 Y110.0032
G1 X-153.8334 Y109.5924
G1 X-153.3665 Y109.2845
#911=0.7368*#900
G1 X-152.5746 Y108.9687 Z64.1286 F#911
G1 X-151.7415 Y108.7871 Z64.0571
G1 X-150.89 Y108.7446 Z63.9857
G1 X-150.043 Y108.8423 Z63.9143
G1 X-149.2235 Y109.0777 Z63.8429
G1 X-148.4537 Y109.4444 Z63.7714
G1 X-147.7546 Y109.9323 Z63.7
G1 X-145.7836 Y111.4806
G1 X-143.7354 Y112.9252
G1 X-142.4752 Y113.7263
G1 X-141.1908 Y114.4881
G1 X-139.0403 Y115.6477 F#900
G1 X-136.5882 Y116.8142
G1 X-134.0805 Y117.8559
G1 X-131.5218 Y118.764
G1 X-128.9171 Y119.5302
G1 X-126.2745 Y120.1544
G1 X-123.6025 Y120.637
G1 X-121.1211 Y120.9404
G1 X-118.628 Y121.1249
G1 X-116.129 Y121.1901
G1 X-108.6157 Y121.1988
G1 X-93.5846 Y121.2005
#911=0.9384*#900
G1 X-90.6065 Y121.2743 F#911
G1 X-87.6357 Y121.495
G1 X-84.6794 Y121.8621
G1 X-81.7448 Y122.3747
G1 X-78.8391 Y123.0315
G1 X-75.9693 Y123.8309
G1 X-73.1425 Y124.7711
G1 X-70.3656 Y125.8496
G1 X-67.6453 Y127.0639
G1 X-64.9882 Y128.411
G1 X-62.4009 Y129.8876
G1 X-59.8896 Y131.4902
G1 X-57.4605 Y133.2147
G1 X-55.1195 Y135.0571
G1 X-52.8723 Y137.0127
G1 X-50.7244 Y139.0769
G1 X-48.6809 Y141.2447
G1 X-46.747 Y143.5106
G1 X-44.9273 Y145.8693
G1 X-43.2262 Y148.3149
G1 X-41.648 Y150.8415
G1 X-40.1963 Y153.4429
G1 X-38.9851 Y155.5822 F#900
G1 X-37.6574 Y157.6513
G1 X-36.2173 Y159.6436
G1 X-34.6729 Y161.549
G1 X-33.026 Y163.3664
G1 X-31.2815 Y165.0903
G1 X-29.7255 Y166.4602
G1 X-28.1108 Y167.7603
G1 X-26.4405 Y168.9884
G1 X-24.7443 Y170.1169
G1 X-22.9938 Y171.1592
G1 X-22.2568 Y171.6427 Z63.7772
G1 X-21.5928 Y172.2224 Z63.8544
G1 X-21.0144 Y172.8875 Z63.9315
G1 X-20.5324 Y173.6255 Z64.0087
G1 X-20.1558 Y174.4224 Z64.0859
G1 X-20.0937 Y174.7408 Z64.1144 F#906
G1 X-20.1477 Y175.0606 Z64.1429
G1 X-20.311 Y175.3408 Z64.1715
G1 X-20.5626 Y175.5455 Z64.2
G1 X-20.8312 Y175.6419
G1 X-21.1165 Y175.6499
G1 X-21.3901 Y175.5687
G1 X-30.0643 Y171.4132
G1 X-140.5088 Y118.5023
G1 X-143.0441 Y117.116
G1 X-145.5006 Y115.5944
G1 X-147.6458 Y114.0829
G1 X-149.7118 Y112.4648
G1 X-151.6932 Y110.7442
G1 X-153.9815 Y108.5205
G1 X-154.3207 Y108.074
G1 X-154.544 Y107.5596
G1 X-154.6386 Y107.0069
G1 X-154.5991 Y106.4476
G1 X-154.4277 Y105.9136
G1 X-154.1343 Y105.4358
G1 X-153.7356 Y105.0414
G1 X-153.2547 Y104.753
#911=0.7368*#900
G1 X-152.4588 Y104.4748 Z64.1286 F#911
G1 X-151.6277 Y104.333 Z64.0571
G1 X-150.7845 Y104.3317 Z63.9857
G1 X-149.953 Y104.4709 Z63.9143
G1 X-149.1562 Y104.7466 Z63.8429
G1 X-148.4165 Y105.1512 Z63.7714
G1 X-147.7545 Y105.6734 Z63.7
G1 X-145.9105 Y107.3051
G1 X-143.9805 Y108.8341
G1 X-141.9703 Y110.2561
G1 X-141.4566 Y110.5891
G1 X-139.4124 Y111.8233 F#900
G1 X-137.3079 Y112.9516
G1 X-135.1487 Y113.9713
G1 X-132.9403 Y114.8795
G1 X-130.5429 Y115.7225
G1 X-128.104 Y116.4369
G1 X-125.6307 Y117.0206
G1 X-123.1298 Y117.4721
G1 X-120.6873 Y117.7693
G1 X-118.2333 Y117.9467
G1 X-115.7734 Y118.0038
#911=0.9993*#900
G1 X-108.3779 Y117.9988 F#911
#911=0.9998*#900
G1 X-100.9894 Y117.9992 F#911
G1 X-93.5877 Y118.0005
#911=0.9411*#900
G1 X-90.4514 Y118.0784 F#911
G1 X-87.3227 Y118.3111
G1 X-84.2094 Y118.6979
G1 X-81.119 Y119.2379
G1 X-78.059 Y119.9297
G1 X-75.0368 Y120.7717
G1 X-72.0599 Y121.7619
G1 X-69.1355 Y122.8978
G1 X-66.2707 Y124.1767
G1 X-63.4726 Y125.5953
G1 X-60.7478 Y127.1504
G1 X-58.1032 Y128.838
G1 X-55.545 Y130.6542
G1 X-53.0796 Y132.5943
G1 X-50.713 Y134.6538
G1 X-48.4509 Y136.8276
G1 X-46.2988 Y139.1104
G1 X-44.2621 Y141.4966
G1 X-42.3456 Y143.9804
G1 X-40.554 Y146.5558
G1 X-38.8917 Y149.2165
G1 X-37.3628 Y151.956
G1 X-36.2407 Y153.9376 F#900
G1 X-35.0106 Y155.8542
G1 X-33.6764 Y157.6997
G1 X-32.2451 Y159.4654
G1 X-30.7188 Y161.1496
G1 X-29.1021 Y162.7473
G1 X-27.6609 Y164.016
G1 X-26.1655 Y165.2204
G1 X-24.6187 Y166.358
G1 X-23.0207 Y167.4206
G1 X-21.3706 Y168.4004
G1 X-19.6728 Y169.295
G1 X-17.5098 Y170.2896
G1 X-15.2936 Y171.1594
G1 X-14.4902 Y171.512 Z63.7768
G1 X-13.742 Y171.9705 Z63.8537
G1 X-13.0631 Y172.5264 Z63.9305
G1 X-12.4658 Y173.1692 Z64.0073
G1 X-11.9615 Y173.8873 Z64.0841
G1 X-11.8446 Y174.1951 Z64.1131 F#906
G1 X-11.8445 Y174.5243 Z64.1421
G1 X-11.9612 Y174.8322 Z64.171
G1 X-12.1795 Y175.0787 Z64.2
G1 X-12.4258 Y175.2162
G1 X-12.7022 Y175.272
G1 X-12.9825 Y175.2407
G1 X-15.3561 Y174.5228
G1 X-17.3064 Y173.8233
G1 X-19.2224 Y173.0348
G1 X-22.6565 Y171.4132
G1 X-139.0403 Y115.6477
G1 X-141.4262 Y114.3525
G1 X-143.7354 Y112.9252
G1 X-145.7506 Y111.5052
G1 X-147.6911 Y109.9848
G1 X-149.5519 Y108.3678
G1 X-151.3283 Y106.6585
G1 X-152.7244 Y105.1897
G1 X-154.0632 Y103.6684
G1 X-154.3737 Y103.1982
G1 X-154.5649 Y102.6682
G1 X-154.626 Y102.108
G1 X-154.5535 Y101.5492
G1 X-154.3517 Y101.0232
G1 X-154.0317 Y100.5594
G1 X-153.6116 Y100.1839
G1 X-153.1149 Y99.9178
#911=0.7368*#900
G1 X-152.3159 Y99.6814 Z64.1286 F#911
G1 X-151.4883 Y99.5842 Z64.0571
G1 X-150.6562 Y99.629 Z63.9857
G1 X-149.8439 Y99.8145 Z63.9143
G1 X-149.0749 Y100.1354 Z63.8429
G1 X-148.3716 Y100.5824 Z63.7714
G1 X-147.7545 Y101.1423 Z63.7
G1 X-146.8147 Y102.1246
G1 X-145.2204 Y103.6597
G1 X-143.5475 Y105.1089
G1 X-141.8007 Y106.4679
G1 X-140.2052 Y107.5869 F#900
G1 X-138.1933 Y108.8331
G1 X-136.1169 Y109.9683
G1 X-133.9818 Y110.9892
G1 X-131.7946 Y111.8928
G1 X-129.5616 Y112.6778
G1 X-127.2901 Y113.3431
G1 X-124.9864 Y113.8867
G1 X-122.6571 Y114.3072
G1 X-120.2536 Y114.5981
G1 X-117.8385 Y114.7681
G1 X-115.4179 Y114.8167
#911=0.997*#900
G1 X-108.1401 Y114.7988 F#911
G1 X-93.5903 Y114.8005 F#900
#911=0.9437*#900
G1 X-90.4389 Y114.8756 F#911
G1 X-87.2947 Y115.0994
G1 X-84.1645 Y115.4714
G1 X-81.0554 Y115.9908
G1 X-77.9742 Y116.6563
G1 X-74.9279 Y117.4666
G1 X-71.9233 Y118.4197
G1 X-68.967 Y119.5137
G1 X-66.0656 Y120.7459
G1 X-63.2256 Y122.1137
G1 X-60.4534 Y123.6141
G1 X-57.7551 Y125.2437
G1 X-55.1367 Y126.9988
G1 X-52.6041 Y128.8756
G1 X-50.1629 Y130.8699
G1 X-47.8186 Y132.9771
G1 X-45.5763 Y135.1927
G1 X-43.4412 Y137.5116
G1 X-41.4179 Y139.9288
G1 X-39.5109 Y142.4388
G1 X-37.7246 Y145.036
G1 X-36.0629 Y147.7146
G1 X-34.5294 Y150.4687
G1 X-33.4963 Y152.2928 F#900
G1 X-32.3639 Y154.057
G1 X-31.1355 Y155.7558
G1 X-29.8173 Y157.3818
G1 X-28.4116 Y158.9328
G1 X-26.9226 Y160.4042
G1 X-25.5963 Y161.5719
G1 X-24.2202 Y162.6804
G1 X-22.7969 Y163.7277
G1 X-21.3264 Y164.7058
G1 X-19.8079 Y165.6078
G1 X-18.2454 Y166.4311
G1 X-17.0489 Y167.0002
G1 X-15.8352 Y167.5319
G1 X-14.6042 Y168.0212
G1 X-13.3554 Y168.4633
G1 X-12.0908 Y168.8582
G1 X-10.8124 Y169.2057
G1 X-9.5226 Y169.5088
G1 X-8.2238 Y169.7706
#911=0.9737*#900
G1 X-8.1116 Y169.7904 F#911
G1 X-6.4256 Y170.0418 F#900
G1 X-4.7311 Y170.2275
G1 X-3.0307 Y170.3488
G1 X-1.0863 Y170.4097
#911=0.7681*#900
G1 X-0.1305 Y170.4641 F#911
G1 X0.816 Y170.6082
G1 X1.7446 Y170.8408
G1 X2.6473 Y171.1598
G1 X3.2716 Y171.4888 Z63.7618 F#900
G1 X3.8197 Y171.9334 Z63.8237
G1 X4.2706 Y172.4763 Z63.8855
G1 X4.6069 Y173.0967 Z63.9474
G1 X4.8157 Y173.7708 Z64.0092
G1 X4.889 Y174.4727 Z64.0711
G1 X4.8239 Y175.1755 Z64.1329
G1 X4.623 Y175.852 Z64.1947
G1 X138.526 Y174.7687 Z64.2 F#906
G1 X140.0896 Y174.7561 Z64.0632
G1 X139.4201 Y173.6043 Z63.9466 F#900
#911=0.7368*#900
G1 X139.2398 Y173.1719 Z63.9055 F#911
G1 X139.1782 Y172.7074 Z63.8644
G1 X139.2396 Y172.243 Z63.8233
G1 X139.4196 Y171.8104 Z63.7822
G1 X139.7059 Y171.4396 Z63.7411
G1 X140.0789 Y171.1561 Z63.7
G1 X142.3135 Y169.8358
G1 X144.507 Y168.4482
G1 X146.6573 Y166.9947
G1 X146.9052 Y166.821 F#900
G1 X147.4045 Y166.5442 Z63.741
G1 X147.8608 Y166.4431 Z63.782
G1 X148.3278 Y166.4647 Z63.8231
G1 X148.773 Y166.6074 Z63.8641
G1 X149.1654 Y166.8613 Z63.9051
G1 X149.4779 Y167.2089 Z63.9461
G1 X150.2329 Y168.312 Z64.063
G1 X148.7685 Y168.8652 Z64.2 F#906
G1 X134.5672 Y174.2298
G1 X133.1556 Y174.763 Z64.068
G1 X132.4273 Y173.4962 Z63.9401 F#900
#911=0.7368*#900
G1 X132.2562 Y173.0735 Z63.9001 F#911
G1 X132.2064 Y172.6202 Z63.8601
G1 X132.2814 Y172.1704 Z63.8201
G1 X132.4756 Y171.7578 Z63.78
G1 X132.7746 Y171.4134 Z63.74
G1 X133.1557 Y171.163 Z63.7
G1 X135.6697 Y169.9139
G1 X138.1385 Y168.5779
G1 X140.1991 Y167.3763
G1 X142.6612 Y165.8324 F#900
G1 X145.0672 Y164.2026
G1 X147.7552 Y162.2363
G1 X148.3992 Y161.8296 Z63.7667
G1 X149.1037 Y161.5402 Z63.8334
G1 X149.8476 Y161.3767 Z63.9002
G1 X150.6085 Y161.3441 Z63.9669
G1 X151.3637 Y161.4433 Z64.0336
G1 X151.7101 Y161.5946 Z64.0669 F#906
G1 X151.9731 Y161.8661 Z64.1002
G1 X152.1136 Y162.217 Z64.1334
G1 X152.1104 Y162.595 Z64.1667
G1 X151.964 Y162.9436 Z64.2
G1 X151.7661 Y163.1592
G1 X149.3653 Y165.0296
G1 X146.9052 Y166.821
G1 X144.5555 Y168.4164
G1 X142.1542 Y169.9329
G1 X139.7039 Y171.3688
G1 X137.8352 Y172.3914
G1 X135.9411 Y173.366
G1 X134.0228 Y174.292
G1 X132.0815 Y175.1688
G1 X128.8455 Y176.5033
G1 X125.558 Y177.7053
G1 X124.9327 Y177.8364
G1 X124.2944 Y177.8107
G1 X123.6817 Y177.6296
G1 X123.1319 Y177.3041
G1 X122.6783 Y176.8541
G1 X122.3486 Y176.3068
G1 X122.1627 Y175.6956
G1 X122.1384 Y175.5194 Z64.1844
#911=0.7368*#900
G1 X122.1318 Y174.7296 Z64.1152 F#911
G1 X122.2739 Y173.9526 Z64.046
G1 X122.5597 Y173.2163 Z63.9768
G1 X122.979 Y172.547 Z63.9076
G1 X123.5168 Y171.9685 Z63.8384
G1 X124.1538 Y171.5015 Z63.7692
G1 X124.8673 Y171.1628 Z63.7
G1 X127.2129 Y170.2683
G1 X129.5289 Y169.3001
G1 X132.2355 Y168.0555
G1 X134.4223 Y166.9555 F#900
G1 X136.5732 Y165.787
G1 X138.838 Y164.4599
G1 X141.0575 Y163.0585
G1 X143.2293 Y161.5842
G1 X145.5202 Y159.9161
G1 X147.7552 Y158.1738
G1 X148.3588 Y157.773 Z63.7635
G1 X149.0258 Y157.4897 Z63.827
G1 X149.7334 Y157.3337 Z63.8905
G1 X150.4576 Y157.3103 Z63.9539
G1 X151.1739 Y157.4202 Z64.0174
G1 X151.4902 Y157.5606 Z64.0479 F#906
G1 X151.74 Y157.8001 Z64.0783
G1 X151.8938 Y158.1101 Z64.1087
G1 X151.9332 Y158.4539 Z64.1391
G1 X151.8535 Y158.7907 Z64.1696
G1 X151.6643 Y159.0804 Z64.2
G1 X149.9963 Y160.476
G1 X148.3818 Y161.7557
G1 X146.7385 Y162.9981
G1 X145.0672 Y164.2026
G1 X142.8065 Y165.7375
G1 X140.4961 Y167.1964
G1 X138.1385 Y168.5779
G1 X135.7359 Y169.8795
G1 X133.2906 Y171.0988
G1 X130.8052 Y172.2344
G1 X128.9167 Y173.0312
G1 X127.0091 Y173.7809
G1 X115.9294 Y177.6779
G1 X115.3052 Y177.8155
G1 X114.6662 Y177.7991
G1 X114.0499 Y177.6298
G1 X113.4922 Y177.3173
G1 X113.0259 Y176.8801
G1 X112.6783 Y176.3437
G1 X112.4696 Y175.7395
G1 X112.4334 Y175.5293 Z64.1813
#911=0.7368*#900
G1 X112.4064 Y174.745 Z64.1126 F#911
G1 X112.5295 Y173.97 Z64.0438
G1 X112.7984 Y173.2328 Z63.975
G1 X113.2031 Y172.5604 Z63.9063
G1 X113.7286 Y171.9777 Z63.8375
G1 X114.3558 Y171.5059 Z63.7688
G1 X115.0614 Y171.1626 Z63.7
#911=0.7223*#900
G1 X118.1147 Y170.0655 F#911
G1 X121.1932 Y169.0412
G1 X121.8832 Y168.8933 Z63.7618 F#900
G1 X122.5889 Y168.8828 Z63.8237
G1 X123.283 Y169.0102 Z63.8855
G1 X123.9389 Y169.2706 Z63.9474
G1 X124.5315 Y169.6539 Z64.0092
G1 X125.0378 Y170.1455 Z64.0711
G1 X125.4386 Y170.7264 Z64.1329
G1 X125.7183 Y171.3743 Z64.1947
G1 X125.5712 Y171.4132 Z64.1948 F#906
G1 X114.1875 Y174.4213 Z64.2
G1 X112.896 Y174.7625 Z64.0831
G1 X111.9898 Y173.0947 Z63.9171 F#900
#911=0.7368*#900
G1 X111.8518 Y172.7066 Z63.8809 F#911
G1 X111.8397 Y172.295 Z63.8447
G1 X111.9545 Y171.8995 Z63.8085
G1 X112.1852 Y171.5584 Z63.7724
G1 X112.5095 Y171.3045 Z63.7362
G1 X112.8961 Y171.1625 Z63.7
G1 X115.5024 Y170.5992
G1 X118.0882 Y169.948
G1 X120.6505 Y169.2097
G1 X121.1932 Y169.0412 F#900
G1 X123.5754 Y168.2275
G1 X125.9295 Y167.3354
G1 X128.2526 Y166.3658
G1 X130.542 Y165.3189
G1 X132.7946 Y164.1953
G1 X135.0079 Y162.9961
G1 X137.1798 Y161.7234
G1 X139.3084 Y160.3795
G1 X141.3913 Y158.9659
G1 X143.4401 Y157.4778
G1 X145.4424 Y155.9278
G1 X147.7551 Y154.0005
G1 X148.2715 Y153.6434 Z63.8
G1 X148.8586 Y153.421 Z63.9
G1 X149.4819 Y153.3462 Z64.
G1 X150.1049 Y153.4235 Z64.1
G1 X150.691 Y153.6483 Z64.2
G1 X151.3551 Y154.0005
G1 X153.5914 Y155.1863 F#906
G1 X154.6811 Y155.7996
G1 X155.3696 Y156.2354
G1 X155.9055 Y156.6257
G1 X156.2887 Y156.9704
G1 X156.602 Y157.3134
G1 X156.8454 Y157.6547
G1 X157.019 Y157.9944
G1 X157.1228 Y158.3324
G1 X157.1843 Y158.6833
G1 X157.2035 Y159.0473
G1 X157.1805 Y159.4242
G1 X157.1153 Y159.814
G1 X157.0078 Y160.2169
G1 X156.666 Y161.0614
G1 X156.4318 Y161.5031
G1 X155.9171 Y162.3297
G1 X155.3408 Y163.0802
G1 X154.703 Y163.7548
G1 X154.0035 Y164.3535
G1 X153.6007 Y164.633
G1 X153.4499 Y164.7235 Z65.3
G1 X152.6586 Y165.1608
G1 X152.1195 Y165.4092
G1 X150.6345 Y165.9524
G1 X146.9854 Y167.0232
G1 X139.7491 Y169.1002
G1 X132.5128 Y171.1771
G1 X125.2766 Y173.2541
G1 X118.0403 Y175.3311
G1 X114.4222 Y176.3696
G1 X107.1859 Y178.4465
G1 X101.1348 Y180.1833 Z65.2984
G1 X99.9177 Y180.5011 Z65.2589
G1 X99.1055 Y180.6711 Z65.2053
G1 X98.4278 Y180.771 Z65.1464
G1 X97.8848 Y180.8006 Z65.0913
G1 X97.3862 Y180.786 Z65.0353
G1 X96.9321 Y180.727 Z64.9799
G1 X96.5224 Y180.6237 Z64.9262
G1 X96.1572 Y180.4761 Z64.8744
G1 X95.7908 Y180.2658 Z64.8175
G1 X95.4233 Y179.9927 Z64.7549
G1 X95.0545 Y179.6568 Z64.6868
G1 X94.6846 Y179.2581 Z64.6136
G1 X94.2666 Y178.7155 Z64.5252
G1 X93.8006 Y178.0289 Z64.427
G1 X93.146 Y176.9547 Z64.3056
G1 X92.512 Y175.8553 Z64.2269
G1 X91.8814 Y174.762 Z64.2
G1 X91.2576 Y173.6803 Z63.7 F#900
#911=0.7368*#900
G1 X91.074 Y173.2406 F#911
G1 X91.0074 Y172.7688
G1 X91.0622 Y172.2955
G1 X91.2348 Y171.8513
G1 X91.5139 Y171.4652
G1 X91.8815 Y171.162
#911=0.6262*#900
G1 X92.9499 Y170.5694 F#911
G1 X94.0772 Y170.0985
G1 X95.2497 Y169.7553
G1 X96.453 Y169.5438
G1 X97.6723 Y169.4668
#911=0.7368*#900
G1 X98.2705 Y169.4621 F#911
G1 X99.5603 Y169.4401
G1 X102.8434 Y169.2838 F#900
G1 X106.1164 Y168.9841
G1 X109.3732 Y168.5416
G1 X112.1181 Y168.0552
G1 X114.8432 Y167.4677
G1 X117.5447 Y166.7801
G1 X120.2189 Y165.9931
G1 X122.4993 Y165.2141
G1 X124.7526 Y164.3599
G1 X126.9764 Y163.4314
G1 X129.1677 Y162.429
G1 X131.3239 Y161.3532
G1 X133.4426 Y160.2052
G1 X135.5217 Y158.987
G1 X137.5594 Y157.7006
G1 X139.5534 Y156.3475
G1 X141.5154 Y154.9226
G1 X143.4329 Y153.4384
G1 X145.3041 Y151.8962
G1 X147.7551 Y149.6528
G1 X148.3257 Y149.2004 Z63.7638
G1 X148.9689 Y148.859 Z63.8276
G1 X149.6634 Y148.6401 Z63.8914
G1 X150.3861 Y148.5509 Z63.9552
G1 X151.113 Y148.5943 Z64.019
G1 X151.4383 Y148.7033 Z64.0492 F#906
G1 X151.7077 Y148.9158 Z64.0793
G1 X151.8895 Y149.2069 Z64.1095
G1 X151.9622 Y149.5422 Z64.1397
G1 X151.9174 Y149.8824 Z64.1698
G1 X151.7602 Y150.1875 Z64.2
G1 X150.5965 Y151.3579
G1 X149.0154 Y152.8581
G1 X147.3964 Y154.3174
G1 X145.4424 Y155.9278
G1 X143.4401 Y157.4778
G1 X141.3913 Y158.9659
G1 X139.3084 Y160.3795
G1 X137.1798 Y161.7234
G1 X135.0079 Y162.9961
G1 X132.7946 Y164.1953
G1 X130.542 Y165.3189
G1 X128.2526 Y166.3658
G1 X125.9295 Y167.3354
G1 X123.5754 Y168.2275
G1 X121.1932 Y169.0412
G1 X118.7146 Y169.7761
G1 X116.2133 Y170.4294
G1 X113.692 Y171.0003
G1 X91.3128 Y176.0425
G1 X90.6088 Y176.1432
G1 X89.8978 Y176.1309
G1 X89.1977 Y176.006
G1 X88.5263 Y175.7718
G1 X88.0236 Y175.5108 Z64.1504
G1 X87.5578 Y175.1884 Z64.1008
G1 X87.1366 Y174.8096 Z64.0512
#911=0.7368*#900
G1 X86.7821 Y174.3602 Z64.0011 F#911
G1 X86.5312 Y173.8457 Z63.9509
G1 X86.3954 Y173.2897 Z63.9007
G1 X86.3809 Y172.7174 Z63.8505
G1 X86.4884 Y172.1552 Z63.8004
G1 X86.7129 Y171.6287 Z63.7502
G1 X87.0442 Y171.1619 Z63.7
#911=0.6433*#900
G1 X87.9724 Y170.2053 F#911
G1 X88.9844 Y169.3379
G1 X90.0717 Y168.567
G1 X91.2251 Y167.899
G1 X92.4349 Y167.3396
G1 X93.6909 Y166.8936
#911=0.813*#900
G1 X95.0398 Y166.553 F#911
G1 X96.4151 Y166.343
G1 X97.8041 Y166.2657
G1 X98.2459 Y166.2622 F#900
G1 X100.9119 Y166.1901
G1 X103.5734 Y166.0192
G1 X106.2267 Y165.7499
G1 X108.8683 Y165.3824
G1 X111.4944 Y164.9174
G1 X114.1016 Y164.3556
G1 X116.6862 Y163.6979
G1 X119.2447 Y162.945
G1 X121.4232 Y162.2008
G1 X123.5758 Y161.3845
G1 X125.7001 Y160.4971
G1 X127.7934 Y159.5391
G1 X129.8532 Y158.5111
G1 X131.8772 Y157.4143
G1 X133.3696 Y156.5457
G1 X134.8376 Y155.6368
G1 X137.7167 Y153.729
G1 X139.1242 Y152.729
G1 X140.5005 Y151.6864
G1 X143.2118 Y149.475
G1 X144.6893 Y148.1432
G1 X146.1319 Y146.7737
G1 X147.755 Y145.1376
G1 X148.2695 Y144.6984 Z63.7593
G1 X148.8607 Y144.3699 Z63.8185
G1 X149.5053 Y144.1651 Z63.8778
G1 X150.1777 Y144.0921 Z63.9371
G1 X150.8513 Y144.1539 Z63.9964
G1 X151.1935 Y144.2855 Z64.0286 F#906
G1 X151.4695 Y144.527 Z64.0609
G1 X151.6453 Y144.8488 Z64.0931
G1 X151.6994 Y145.2114 Z64.1254
G1 X151.6253 Y145.5705 Z64.1576
G1 X151.432 Y145.8821 Z64.1898
G1 X149.8203 Y147.6057 Z64.2
G1 X148.3642 Y149.0658
G1 X146.8523 Y150.5007
G1 X145.3041 Y151.8962
G1 X143.4329 Y153.4384
G1 X141.5154 Y154.9226
G1 X139.5534 Y156.3475
G1 X137.5594 Y157.7006
G1 X135.5217 Y158.987
G1 X133.4426 Y160.2052
G1 X131.3239 Y161.3532
G1 X129.1677 Y162.429
G1 X126.9764 Y163.4314
G1 X124.7526 Y164.3599
G1 X122.4993 Y165.2141
G1 X120.2189 Y165.9931
G1 X118.4393 Y166.5287
G1 X116.647 Y167.0204
G1 X88.1513 Y175.0447
G1 X87.3098 Y175.2123
G1 X86.4524 Y175.2474
G1 X85.6001 Y175.1491
G1 X84.9647 Y174.9854 Z64.1426
G1 X84.3533 Y174.7475 Z64.0851
G1 X83.7745 Y174.4386 Z64.0277
#911=0.7368*#900
G1 X83.354 Y174.1096 Z63.9809 F#911
G1 X83.0191 Y173.6938 Z63.9341
G1 X82.7871 Y173.2128 Z63.8873
G1 X82.6702 Y172.6919 Z63.8404
G1 X82.6745 Y172.158 Z63.7936
G1 X82.7997 Y171.6389 Z63.7468
G1 X83.0393 Y171.1618 Z63.7
#911=0.6556*#900
G1 X83.9743 Y169.8641 F#911
G1 X85.0214 Y168.655
G1 X86.1722 Y167.5442
G1 X87.4176 Y166.5406
G1 X88.7476 Y165.652
#911=0.8375*#900
G1 X90.1528 Y164.8851 F#911
G1 X91.6209 Y164.2468
G1 X93.1402 Y163.7421
G1 X94.6985 Y163.3751
G1 X96.2833 Y163.1488
G1 X97.882 Y163.065
G1 X98.2214 Y163.0623 F#900
G1 X100.7668 Y162.9935
G1 X103.3079 Y162.8305
G1 X105.8412 Y162.5736
G1 X108.3633 Y162.2232
G1 X110.8707 Y161.7796
G1 X113.36 Y161.2435
G1 X115.8277 Y160.6157
G1 X118.2705 Y159.8969
G1 X120.7586 Y159.0368
G1 X123.2099 Y158.0767
G1 X125.6203 Y157.018
G1 X127.9858 Y155.8627
G1 X130.3027 Y154.6124
G1 X133.1382 Y152.9172
G1 X135.8903 Y151.0896
G1 X138.5527 Y149.1337
G1 X141.1195 Y147.0538
G1 X142.5262 Y145.7857
G1 X143.8996 Y144.4816
G1 X145.2203 Y143.1566
G1 X146.5021 Y141.7939
#911=0.9747*#900
G1 X146.7092 Y141.5629 F#911
G1 X147.6664 Y140.4838 F#900
#911=0.8079*#900
G1 X147.755 Y140.3827 F#911
G1 X148.2846 Y139.8938 Z63.7632 F#900
G1 X148.9017 Y139.5213 Z63.8263
G1 X149.5811 Y139.2806 Z63.8895
G1 X150.295 Y139.1814 Z63.9527
G1 X151.0143 Y139.2278 Z64.0158
G1 X151.3446 Y139.3413 Z64.0465 F#906
G1 X151.6202 Y139.5557 Z64.0772
G1 X151.8115 Y139.8479 Z64.1079
G1 X151.8976 Y140.1863 Z64.1386
G1 X151.8694 Y140.5344 Z64.1693
G1 X151.7298 Y140.8546 Z64.2
G1 X148.8677 Y143.9489
G1 X147.5203 Y145.3811
G1 X146.1319 Y146.7737
G1 X144.6893 Y148.1432
G1 X143.2118 Y149.475
G1 X140.5005 Y151.6864
G1 X139.1242 Y152.729
G1 X137.7167 Y153.729
G1 X134.8376 Y155.6368
G1 X133.3696 Y156.5457
G1 X131.8772 Y157.4143
G1 X129.8532 Y158.5111
G1 X127.7934 Y159.5391
G1 X125.7001 Y160.4971
G1 X124.1096 Y161.1693
G1 X122.5029 Y161.8016
G1 X82.8367 Y177.1207
G1 X82.2697 Y177.2797
G1 X81.6828 Y177.3284
G1 X81.0973 Y177.2652
G1 X80.5343 Y177.0922
G1 X80.0143 Y176.8158
G1 X79.5561 Y176.4459
G1 X79.2609 Y176.1125 Z64.161
G1 X79.0166 Y175.7402 Z64.122
#911=0.7368*#900
G1 X78.6917 Y175.0061 Z64.0517 F#911
G1 X78.5064 Y174.2249 Z63.9813
G1 X78.4672 Y173.4231 Z63.911
G1 X78.5751 Y172.6276 Z63.8407
G1 X78.8268 Y171.8652 Z63.7703
G1 X79.2136 Y171.1617 Z63.7
G1 X80.2145 Y169.6373
#911=0.6648*#900
G1 X81.0945 Y168.369 F#911
G1 X82.0643 Y167.1679
G1 X83.1189 Y166.0405
G1 X84.2525 Y164.9926
#911=0.856*#900
G1 X85.55 Y163.963 F#911
G1 X86.9239 Y163.0377
G1 X88.3656 Y162.2223
G1 X89.8665 Y161.5217
G1 X91.4175 Y160.9402
G1 X93.0091 Y160.4813
G1 X94.6315 Y160.1478
G1 X96.2751 Y159.9418
G1 X97.9296 Y159.8645
G1 X98.1968 Y159.8624 F#900
G1 X101.4291 Y159.7552
G1 X104.6523 Y159.4888
G1 X107.8583 Y159.0639
G1 X111.0395 Y158.4814
G1 X114.1881 Y157.7424
G1 X117.2962 Y156.8488
G1 X120.2486 Y155.8115
G1 X123.1447 Y154.626
G1 X125.9771 Y153.2954
G1 X128.7384 Y151.8231
G1 X131.4355 Y150.2104
G1 X134.0533 Y148.4718
G1 X136.5857 Y146.6111
G1 X139.0271 Y144.6326
G1 X140.3632 Y143.4283
G1 X141.6673 Y142.1895
G1 X142.9203 Y140.932
G1 X144.1365 Y139.6389
#911=0.9752*#900
G1 X144.3478 Y139.4033 F#911
G1 X145.2486 Y138.3876 F#900
#911=0.8324*#900
G1 X146.1868 Y137.3894 F#911
G1 X147.1888 Y136.3759 F#900
#911=0.9752*#900
G1 X147.2623 Y136.3008 F#911
G1 X147.7549 Y135.781 F#900
G1 X148.2873 Y135.3094 Z63.7623
G1 X148.898 Y134.9448 Z63.8246
G1 X149.5658 Y134.6998 Z63.887
G1 X150.2674 Y134.583 Z63.9493
G1 X150.9784 Y134.5983 Z64.0116
G1 X151.3204 Y134.7012 Z64.043 F#906
G1 X151.6053 Y134.9164 Z64.0744
G1 X151.7977 Y135.2172 Z64.1058
G1 X151.8737 Y135.566 Z64.1372
G1 X151.8239 Y135.9196 Z64.1686
G1 X151.6544 Y136.2338 Z64.2
G1 X148.005 Y140.189
G1 X146.5021 Y141.7939
G1 X145.2203 Y143.1566
G1 X143.8996 Y144.4816
G1 X142.5262 Y145.7857
G1 X141.1195 Y147.0538
G1 X138.5527 Y149.1337
G1 X135.8903 Y151.0896
G1 X133.1382 Y152.9172
G1 X130.3027 Y154.6124
G1 X128.3755 Y155.6608
G1 X126.414 Y156.6436
G1 X124.4205 Y157.5596
G1 X78.7438 Y177.1964
G1 X78.1627 Y177.378
G1 X77.5568 Y177.4369
G1 X76.9516 Y177.3705
G1 X76.3729 Y177.1816
G1 X75.845 Y176.8783
G1 X75.3904 Y176.4734
G1 X75.1477 Y176.1697 Z64.166
G1 X74.9469 Y175.8368 Z64.1319
#911=0.7368*#900
G1 X74.6384 Y175.0752 Z64.0599 F#911
G1 X74.4749 Y174.27 Z63.988
G1 X74.4618 Y173.4485 Z63.916
G1 X74.5996 Y172.6384 Z63.844
G1 X74.8836 Y171.8674 Z63.772
G1 X75.3042 Y171.1616 Z63.7
G1 X76.3626 Y169.6634
G1 X77.4918 Y167.955
#911=0.6721*#900
G1 X78.2647 Y166.821 F#911
G1 X79.0997 Y165.7319
G1 X79.9944 Y164.6912
#911=0.8706*#900
G1 X81.2826 Y163.3773 F#911
G1 X82.6657 Y162.1637
G1 X84.1359 Y161.0571
G1 X85.6848 Y160.0638
G1 X87.3038 Y159.1893
G1 X88.9838 Y158.4387
G1 X90.7153 Y157.816
G1 X92.4886 Y157.3248
G1 X94.2938 Y156.9679
G1 X96.1206 Y156.7473
G1 X97.9588 Y156.6642
G1 X98.1722 Y156.6625 F#900
G1 X101.2438 Y156.5607
G1 X104.3067 Y156.3079
G1 X107.3534 Y155.9047
G1 X110.3764 Y155.3517
G1 X113.3684 Y154.6498
G1 X116.322 Y153.8007
G1 X119.1222 Y152.8168
G1 X121.8689 Y151.6924
G1 X124.5552 Y150.4302
G1 X127.1742 Y149.0337
G1 X129.7329 Y147.5036
G1 X132.2162 Y145.854
G1 X134.6187 Y144.0886
G1 X136.9348 Y142.2114
G1 X138.2001 Y141.0708
G1 X139.435 Y139.8975
G1 X140.6203 Y138.7075
G1 X141.7709 Y137.484
#911=0.9757*#900
G1 X141.9864 Y137.2437 F#911
G1 X142.8308 Y136.2913 F#900
#911=0.8513*#900
G1 X143.9442 Y135.1066 F#911
G1 X144.8836 Y134.1565 F#900
#911=0.9757*#900
G1 X144.9586 Y134.0799 F#911
G1 X146.3858 Y132.5355 F#900
G1 X147.7549 Y130.9394
G1 X148.247 Y130.4485 Z63.7612
G1 X148.8238 Y130.0606 Z63.8225
G1 X149.4641 Y129.7901 Z63.8837
G1 X150.1442 Y129.6469 Z63.945
G1 X150.8392 Y129.6362 Z64.0062
G1 X151.1922 Y129.73 Z64.0385 F#906
G1 X151.4899 Y129.9413 Z64.0708
G1 X151.6949 Y130.2435 Z64.1031
G1 X151.7811 Y130.5983 Z64.1354
G1 X151.7377 Y130.9609 Z64.1677
G1 X151.5702 Y131.2853 Z64.2
G1 X150.7932 Y132.2753
G1 X149.0725 Y134.3273
G1 X147.2623 Y136.3008
G1 X144.1365 Y139.6389
G1 X142.9203 Y140.932
G1 X141.6673 Y142.1895
G1 X140.3632 Y143.4283
G1 X139.0271 Y144.6326
G1 X136.5857 Y146.6111
G1 X134.0533 Y148.4718
G1 X131.4355 Y150.2104
G1 X128.7384 Y151.8231
G1 X125.9771 Y153.2954
G1 X123.1447 Y154.626
G1 X74.4925 Y177.2828
G1 X73.8962 Y177.4836
G1 X73.2704 Y177.5484
G1 X72.6457 Y177.4738
G1 X72.0527 Y177.2635
G1 X71.5205 Y176.928
G1 X71.0751 Y176.4835
G1 X70.7239 Y175.9215 Z64.1419
#911=0.7368*#900
G1 X70.4367 Y175.1315 Z64.0682 F#911
G1 X70.3006 Y174.302 Z63.9946
G1 X70.3203 Y173.4617 Z63.9209
G1 X70.4952 Y172.6395 Z63.8473
G1 X70.8191 Y171.8638 Z63.7736
G1 X71.281 Y171.1615 Z63.7
G1 X72.2095 Y169.9639
G1 X73.4787 Y168.2082
G1 X74.7757 Y166.2625
#911=0.6781*#900
G1 X75.9027 Y164.6356 F#911
#911=0.8824*#900
G1 X77.1376 Y163.0986 F#911
G1 X78.4784 Y161.653
G1 X79.9181 Y160.3059
G1 X81.4497 Y159.0643
G1 X83.0654 Y157.9342
G1 X84.7571 Y156.9215
G1 X86.5163 Y156.0311
G1 X88.3341 Y155.2676
G1 X90.2014 Y154.6348
G1 X92.1089 Y154.1359
G1 X94.047 Y153.7733
G1 X96.0058 Y153.549
G1 X97.9757 Y153.464
G1 X98.1477 Y153.4626 F#900
G1 X101.0585 Y153.3663
G1 X103.9611 Y153.127
G1 X106.8484 Y152.7455
G1 X109.7133 Y152.222
G1 X112.5487 Y151.5571
G1 X115.3478 Y150.7527
G1 X117.9957 Y149.8222
G1 X120.5932 Y148.7588
G1 X123.1334 Y147.5651
G1 X125.6099 Y146.2443
G1 X128.0302 Y144.7968
G1 X130.3792 Y143.2362
G1 X132.6517 Y141.5661
G1 X134.8425 Y139.7902
G1 X136.037 Y138.7134
G1 X137.2027 Y137.6054
G1 X138.3203 Y136.4829
G1 X139.4053 Y135.329
#911=0.9761*#900
G1 X139.625 Y135.0841 F#911
G1 X140.413 Y134.1951 F#900
#911=0.8664*#900
G1 X141.7017 Y132.8239 F#911
G1 X142.5784 Y131.937 F#900
#911=0.9761*#900
G1 X142.6548 Y131.8589 F#911
G1 X144.2799 Y130.0862 F#900
G1 X145.8237 Y128.2421
G1 X146.8069 Y126.9761
G1 X147.7548 Y125.6835
G1 X148.2007 Y125.1733 Z63.7594
G1 X148.7386 Y124.761 Z63.8188
G1 X149.3472 Y124.463 Z63.8782
G1 X150.0026 Y124.2908 Z63.9375
G1 X150.6791 Y124.2513 Z63.9969
G1 X151.0368 Y124.3303 Z64.0291 F#906
G1 X151.3453 Y124.5277 Z64.0613
G1 X151.5666 Y124.8196 Z64.0936
G1 X151.6737 Y125.1698 Z64.1258
G1 X151.6533 Y125.5356 Z64.158
G1 X151.508 Y125.8718 Z64.1902
G1 X149.8545 Y128.2413 Z64.2
G1 X148.3084 Y130.2587
G1 X146.6762 Y132.2067
G1 X144.9586 Y134.0799
G1 X141.7709 Y137.484
G1 X140.6203 Y138.7075
G1 X139.435 Y139.8975
G1 X138.2001 Y141.0708
G1 X136.9348 Y142.2114
G1 X134.6187 Y144.0886
G1 X132.2162 Y145.854
G1 X129.7329 Y147.5036
G1 X127.1742 Y149.0337
G1 X124.5552 Y150.4302
G1 X70.054 Y177.3512
G1 X69.4426 Y177.5681
G1 X68.7974 Y177.6358
G1 X68.1542 Y177.5508
G1 X67.5488 Y177.3177
G1 X67.0147 Y176.9495
G1 X66.5815 Y176.4665
G1 X66.3067 Y175.9761 Z64.1507
#911=0.7368*#900
G1 X66.0704 Y175.28 Z64.0863 F#911
G1 X65.95 Y174.5547 Z64.022
G1 X65.9487 Y173.8196 Z63.9576
G1 X66.0666 Y173.0939 Z63.8932
G1 X66.3004 Y172.3969 Z63.8288
G1 X66.6441 Y171.747 Z63.7644
G1 X67.0886 Y171.1614 Z63.7
G1 X68.4062 Y169.6255
G1 X69.6563 Y168.0341
G1 X70.7669 Y166.5025
G1 X71.825 Y164.934
G1 X71.9893 Y164.6798 F#900
G1 X72.0643 Y164.5628
#911=0.8922*#900
G1 X73.3187 Y162.7514 F#911
G1 X74.6984 Y161.0334
G1 X76.1964 Y159.4175
G1 X77.8051 Y157.9118
G1 X79.5164 Y156.5239
G1 X81.3218 Y155.2607
G1 X83.2122 Y154.1287
G1 X85.178 Y153.1334
G1 X87.2094 Y152.28
G1 X89.2962 Y151.5726
G1 X91.4278 Y151.0149
G1 X93.5937 Y150.6096
G1 X95.7827 Y150.3588
G1 X97.9841 Y150.2638
G1 X98.1231 Y150.2627 F#900
G1 X100.8732 Y150.1718
G1 X103.6155 Y149.9461
G1 X106.3434 Y149.5862
G1 X109.0502 Y149.0922
G1 X111.7291 Y148.4645
G1 X114.3735 Y147.7046
G1 X116.8693 Y146.8276
G1 X119.3174 Y145.8252
G1 X121.7116 Y144.7
G1 X124.0457 Y143.455
G1 X126.3275 Y142.0899
G1 X128.5422 Y140.6184
G1 X130.6847 Y139.0435
G1 X132.7502 Y137.369
G1 X133.874 Y136.3559
G1 X134.9704 Y135.3133
G1 X136.0202 Y134.2583
G1 X137.0397 Y133.174
#911=0.9765*#900
G1 X137.2636 Y132.9245 F#911
G1 X137.9952 Y132.0989 F#900
#911=0.8787*#900
G1 X138.7116 Y131.3053 F#911
G1 X139.4592 Y130.5411
G1 X140.2732 Y129.7175 F#900
#911=0.9765*#900
G1 X140.3511 Y129.6379 F#911
G1 X141.8859 Y127.9669 F#900
G1 X143.3473 Y126.2312
G1 X144.7275 Y124.4306
G1 X146.0202 Y122.5663
G1 X146.9124 Y121.1588
G1 X147.7547 Y119.7209
G1 X148.1329 Y119.1872 Z63.7573
G1 X148.613 Y118.7429 Z63.8147
G1 X149.1745 Y118.4073 Z63.872
G1 X149.7932 Y118.1948 Z63.9293
G1 X150.4424 Y118.1146 Z63.9867
G1 X150.8066 Y118.1708 Z64.0191 F#906
G1 X151.1305 Y118.3467 Z64.0515
G1 X151.3759 Y118.6216 Z64.0839
G1 X151.5141 Y118.9632 Z64.1163
G1 X151.5289 Y119.3314 Z64.1487
G1 X151.4185 Y119.683 Z64.1811
G1 X151.1308 Y120.2353 Z64.2
G1 X149.9544 Y122.3325
G1 X148.6677 Y124.3638
G1 X147.2858 Y126.3324
G1 X145.8237 Y128.2421
G1 X144.2799 Y130.0862
G1 X142.6548 Y131.8589
G1 X138.3203 Y136.4829
G1 X137.2027 Y137.6054
G1 X136.037 Y138.7134
G1 X134.8425 Y139.7902
G1 X132.6517 Y141.5661
G1 X130.3792 Y143.2362
G1 X128.0302 Y144.7968
G1 X125.6099 Y146.2443
G1 X123.9663 Y147.1388
G1 X122.2934 Y147.9773
G1 X65.3728 Y177.417
G1 X64.8377 Y177.6246
G1 X64.2706 Y177.7135
G1 X63.6976 Y177.6796
G1 X63.145 Y177.5244
G1 X62.6381 Y177.2551
G1 X62.2001 Y176.8841
G1 X61.8512 Y176.4283
G1 X61.647 Y176.0164 Z64.1597
#911=0.7368*#900
G1 X61.4319 Y175.2981 Z64.0941 F#911
G1 X61.3387 Y174.5541 Z64.0284
G1 X61.3701 Y173.805 Z63.9627
G1 X61.5252 Y173.0714 Z63.897
G1 X61.7997 Y172.3736 Z63.8314
G1 X62.186 Y171.731 Z63.7657
G1 X62.6735 Y171.1613 Z63.7
G1 X63.6852 Y170.1305
G1 X64.6658 Y169.07
G1 X65.9167 Y167.6137
G1 X67.1031 Y166.1044
G1 X67.8544 Y165.0789
G1 X69.2956 Y162.9523 F#900
G1 X69.3561 Y162.858
#911=0.9005*#900
G1 X70.645 Y160.9874 F#911
G1 X72.0548 Y159.2062
G1 X73.5793 Y157.5221
G1 X75.2119 Y155.9426
G1 X76.9454 Y154.4745
G1 X78.7722 Y153.1242
G1 X80.6843 Y151.8978
G1 X82.6734 Y150.8005
G1 X84.7306 Y149.8372
G1 X86.8471 Y149.0121
G1 X89.0135 Y148.3288
G1 X91.2204 Y147.7902
G1 X93.458 Y147.3988
G1 X95.7167 Y147.1563
G1 X97.9864 Y147.0637
G1 X98.0985 Y147.0628 F#900
G1 X100.6878 Y146.9773
G1 X103.2699 Y146.7652
G1 X105.8385 Y146.427
G1 X108.3871 Y145.9625
G1 X110.9094 Y145.3718
G1 X113.3993 Y144.6565
G1 X115.7429 Y143.8329
G1 X118.0417 Y142.8916
G1 X120.2898 Y141.8349
G1 X122.4814 Y140.6656
G1 X124.6143 Y139.3899
G1 X126.6847 Y138.0151
G1 X128.688 Y136.5443
G1 X130.6198 Y134.9807
#911=0.9783*#900
G1 X130.6959 Y134.915 F#911
G1 X132.7382 Y133.0212 F#900
G1 X134.6741 Y131.0191
#911=0.9769*#900
G1 X134.9022 Y130.7649 F#911
G1 X135.5774 Y130.0027 F#900
#911=0.889*#900
G1 X136.3795 Y129.1141 F#911
G1 X137.2166 Y128.2583
G1 X137.968 Y127.498 F#900
#911=0.9769*#900
G1 X138.0473 Y127.417 F#911
G1 X139.4895 Y125.8462 F#900
G1 X140.8619 Y124.2141
G1 X142.1579 Y122.5211
G1 X143.3725 Y120.7687
G1 X144.5014 Y118.9605
G1 X145.5412 Y117.0997
G1 X146.5078 Y115.1985
G1 X147.4175 Y113.2694
#911=0.9737*#900
G1 X147.7546 Y112.5311 F#911
G1 X147.9993 Y112.1489 Z63.7398 F#900
G1 X148.3391 Y111.8481 Z63.7797
G1 X148.7482 Y111.6517 Z63.8195
G1 X149.1954 Y111.5745 Z63.8593
G1 X149.6467 Y111.6225 Z63.8991
G1 X150.0676 Y111.792 Z63.939
G1 X151.3546 Y112.5311 Z64.0688
G1 Y111.0317 Z64.2 F#906
G1 X151.3535 Y18.7236
G1 Y17.4437 Z64.088
G1 X149.5314 Y18.3987 Z63.908 F#900
#911=0.7368*#900
G1 X149.1569 Y18.5229 Z63.8734 F#911
G1 X148.7623 Y18.5209 Z63.8387
G1 X148.3891 Y18.3929 Z63.804
G1 X148.0763 Y18.1524 Z63.7693
G1 X147.8567 Y17.8245 Z63.7347
G1 X147.7535 Y17.4437 Z63.7
#911=0.6112*#900
G1 X147.7078 Y16.5512 F#911
G1 X147.7534 Y15.6587
G1 X147.8567 Y15.2779 Z63.7347 F#900
G1 X148.0762 Y14.95 Z63.7693
G1 X148.389 Y14.7095 Z63.804
G1 X148.7622 Y14.5815 Z63.8387
G1 X149.1568 Y14.5795 Z63.8734
G1 X149.5313 Y14.7037 Z63.908
G1 X151.3534 Y15.6587 Z64.088
G1 Y14.3787 Z64.2 F#906
G1 X151.3531 Y-14.4451
G1 Y-15.7193 Z64.0885
G1 X149.5142 Y-14.7597 Z63.907 F#900
#911=0.7368*#900
G1 X149.1411 Y-14.637 Z63.8725 F#911
G1 X148.7485 Y-14.6405 Z63.838
G1 X148.3777 Y-14.7698 Z63.8035
G1 X148.068 Y-15.0113 Z63.769
G1 X147.8522 Y-15.3393 Z63.7345
G1 X147.7531 Y-15.7193 Z63.7
#911=0.6111*#900
G1 X147.7161 Y-16.522 F#911
G1 X147.753 Y-17.3246
G1 X147.8522 Y-17.7046 Z63.7345 F#900
G1 X148.068 Y-18.0326 Z63.769
G1 X148.3777 Y-18.2741 Z63.8035
G1 X148.7484 Y-18.4034 Z63.838
G1 X149.1411 Y-18.4069 Z63.8725
G1 X149.5141 Y-18.2843 Z63.907
G1 X151.353 Y-17.3247 Z64.0885
G1 Y-16.0504 Z64.2 F#906
G1 X151.3535 Y24.1885
G1 X151.3536 Y25.6844 Z64.0691
G1 X150.0592 Y26.4273 Z63.9386 F#900
#911=0.7368*#900
G1 X149.6389 Y26.5962 Z63.8988 F#911
G1 X149.1883 Y26.6436 Z63.859
G1 X148.7421 Y26.5656 Z63.8193
G1 X148.3343 Y26.3684 Z63.7795
G1 X147.9962 Y26.067 Z63.7398
G1 X147.7536 Y25.6844 Z63.7
G1 X147.1129 Y24.356
G1 X146.197 Y22.6812
#911=0.6343*#900
G1 X145.6727 Y21.6536 F#911
G1 X145.2452 Y20.5822
G1 X144.918 Y19.476
G1 X144.694 Y18.3444
#911=0.7949*#900
G1 X144.5643 Y16.9804 F#911
G1 X144.5844 Y15.6104
G1 X144.7539 Y14.2508
G1 X145.0709 Y12.9178
G1 X145.1942 Y12.5016 F#900
G1 X145.7462 Y10.4502
G1 X146.1909 Y8.3729
G1 X146.5273 Y6.2753
G1 X146.7693 Y4.1627
G1 X146.9309 Y2.0424
G1 X147.0119 Y-0.0825
G1 X147.0159 Y-0.8553
#911=0.9745*#900
G1 X147.0143 Y-1.0429 F#911
G1 X146.9393 Y-2.976 F#900
G1 X146.7683 Y-4.9029
G1 X146.5017 Y-6.819
G1 X146.1476 Y-8.7219
G1 X145.7141 Y-10.6084
G1 X145.0784 Y-12.8923
#911=0.7948*#900
G1 X144.7811 Y-14.1208 F#911
G1 X144.6091 Y-15.373
G1 X144.5642 Y-16.6362
G1 X144.6468 Y-17.8975
G1 X144.8562 Y-19.144
G1 X145.1902 Y-20.363
G1 X145.6454 Y-21.5422
G1 X146.2171 Y-22.6695
G1 X146.4333 Y-23.0472 F#900
G1 X147.1222 Y-24.3191
G1 X147.7529 Y-25.6208
G1 X147.9965 Y-26.0032 Z63.7398
G1 X148.3355 Y-26.3043 Z63.7796
G1 X148.7439 Y-26.5011 Z63.8194
G1 X149.1906 Y-26.5787 Z63.8592
G1 X149.6415 Y-26.531 Z63.899
G1 X150.0621 Y-26.3618 Z63.9388
G1 X151.3529 Y-25.6208 Z64.069
G1 X151.3499 Y-27.1184 Z64.2 F#906
G1 X151.1692 Y-116.7874
G1 X151.1656 Y-118.5773 Z64.0434
G1 X150.5248 Y-118.0762 Z63.9722 F#900
#911=0.7368*#900
G1 X149.9917 Y-117.7583 Z63.9178 F#911
G1 X149.3963 Y-117.5831 Z63.8633
G1 X148.7759 Y-117.5618 Z63.8089
G1 X148.1698 Y-117.6956 Z63.7544
G1 X147.6161 Y-117.9762 Z63.7
G1 X145.8995 Y-119.0932
G1 X144.1437 Y-120.1476
G1 X142.4357 Y-121.0921
G1 X140.6954 Y-121.9755
G1 X138.8483 Y-122.8307 F#900
G1 X136.9709 Y-123.6171
G1 X135.0658 Y-124.3337
G1 X134.5066 Y-124.606 Z63.7545
G1 X134.0217 Y-124.9957 Z63.8091
G1 X133.6353 Y-125.4832 Z63.8636
G1 X133.3668 Y-126.0442 Z63.9181
G1 X133.2294 Y-126.6509 Z63.9727
G1 X133.2501 Y-127.0224 Z64.0054 F#906
G1 X133.3911 Y-127.3667 Z64.0381
G1 X133.6369 Y-127.6461 Z64.0708
G1 X133.9604 Y-127.8297 Z64.1035
G1 X134.3263 Y-127.8976 Z64.1362
G1 X134.6942 Y-127.8421 Z64.1689
G1 X135.0319 Y-127.7305 Z64.2
G1 X135.7741 Y-127.4768
G1 X138.4214 Y-126.4799
G1 X141.0179 Y-125.3573
G1 X143.5575 Y-124.1116
G1 X146.0346 Y-122.7456
G1 X148.0559 Y-121.5127
G1 X150.027 Y-120.2009
G1 X151.9446 Y-118.8123
G1 X153.8059 Y-117.3489
G1 X154.1917 Y-116.9451
G1 X154.4684 Y-116.4599
G1 X154.6196 Y-115.9223
G1 X154.6363 Y-115.364
G1 X154.5174 Y-114.8183
G1 X154.2701 Y-114.3175
G1 X153.9091 Y-113.8914
G1 X153.4557 Y-113.5652
#911=0.7368*#900
G1 X152.6687 Y-113.2138 Z64.1286 F#911
G1 X151.8353 Y-112.9947 Z64.0571
G1 X150.9773 Y-112.9137 Z63.9857
G1 X150.1175 Y-112.9729 Z63.9143
G1 X149.2787 Y-113.1707 Z63.8429
G1 X148.4831 Y-113.502 Z63.7714
G1 X147.7518 Y-113.958 Z63.7
G1 X145.9674 Y-115.228
G1 X144.1325 Y-116.4239
G1 X142.2503 Y-117.5438
G1 X140.9981 Y-118.2321
G1 X138.9189 Y-119.2787 F#900
G1 X136.795 Y-120.2313
G1 X134.6305 Y-121.0877
G1 X132.4298 Y-121.8462
G1 X129.8518 Y-122.5976
G1 X127.2383 Y-123.2143
G1 X124.5966 Y-123.6976
G1 X121.9342 Y-124.0495
G1 X119.9753 Y-124.2254
G1 X118.0115 Y-124.3341
G1 X117.4386 Y-124.4284 Z63.7509
G1 X116.9069 Y-124.6614 Z63.8019
G1 X116.4492 Y-125.0187 Z63.8528
G1 X116.0941 Y-125.478 Z63.9037
G1 X115.8636 Y-126.0109 Z63.9546
G1 X115.8154 Y-126.3903 Z63.9882 F#906
G1 X115.8865 Y-126.7661 Z64.0218
G1 X116.0701 Y-127.1016 Z64.0554
G1 X116.3482 Y-127.3641 Z64.089
G1 X116.6938 Y-127.528 Z64.1226
G1 X117.0731 Y-127.5773 Z64.1562
G1 X117.5732 Y-127.5619 Z64.2
G1 X120.6214 Y-127.3878
G1 X123.3645 Y-127.1061
G1 X126.0913 Y-126.6966
G1 X128.7946 Y-126.1526
G1 X131.4674 Y-125.4752
G1 X134.1033 Y-124.6656
G1 X136.695 Y-123.7259
G1 X139.2365 Y-122.6578
G1 X141.7215 Y-121.464
G1 X144.1437 Y-120.1476
G1 X146.4986 Y-118.7133
G1 X148.7812 Y-117.1664
G1 X150.9861 Y-115.5107
G1 X153.1082 Y-113.75
G1 X153.5326 Y-113.2753
G1 X153.8271 Y-112.7109
G1 X153.9736 Y-112.0913
G1 X153.9631 Y-111.4547
G1 X153.7963 Y-110.8403
G1 X153.4834 Y-110.2858
G1 X153.0436 Y-109.8254
G1 X152.9125 Y-109.7253 Z64.1856
#911=0.7368*#900
G1 X152.228 Y-109.3276 Z64.1162 F#911
G1 X151.4815 Y-109.0638 Z64.0468
G1 X150.699 Y-108.9431 Z63.9775
G1 X149.9078 Y-108.9697 Z63.9081
G1 X149.1352 Y-109.1428 Z63.8387
G1 X148.4081 Y-109.4562 Z63.7694
G1 X147.7519 Y-109.899 Z63.7
G1 X145.6461 Y-111.5346
G1 X143.4561 Y-113.0556
G1 X141.1883 Y-114.4578
G1 X140.3541 Y-114.9327 F#900
G1 X138.0382 Y-116.1428
G1 X135.6617 Y-117.2289
G1 X133.231 Y-118.1879
G1 X130.7531 Y-119.0171
G1 X128.2337 Y-119.7109
G1 X125.6796 Y-120.2637
G1 X123.0995 Y-120.6821
G1 X120.5019 Y-120.9733
G1 X117.8946 Y-121.1444
G1 X115.2824 Y-121.2028
G1 X110.053 Y-121.2049
G1 X48.3575 Y-121.2064
#911=0.794*#900
G1 X47.2893 Y-121.2523 F#911
G1 X46.229 Y-121.3899
G1 X45.1845 Y-121.6179
G1 X44.1633 Y-121.9348
G1 X43.9801 Y-122.0005 F#900
G1 X40.9743 Y-123.0513
G1 X36.9085 Y-124.3361
G1 X36.3946 Y-124.554 Z63.7489
G1 X35.9416 Y-124.8802 Z63.7979
G1 X35.5721 Y-125.2986 Z63.8468
G1 X35.3043 Y-125.7884 Z63.8958
G1 X35.1516 Y-126.3253 Z63.9447
G1 X35.1452 Y-126.7 Z63.9776 F#906
G1 X35.2485 Y-127.0602 Z64.0105
G1 X35.4525 Y-127.3745 Z64.0434
G1 X35.7394 Y-127.6155 Z64.0763
G1 X36.0842 Y-127.7621 Z64.1092
G1 X36.4569 Y-127.8016 Z64.1421
G1 X37.1179 Y-127.7735 Z64.2
G1 X111.8065 Y-124.5905
G1 X119.2591 Y-124.2729
G1 X121.9342 Y-124.0495
G1 X124.5966 Y-123.6976
G1 X127.2383 Y-123.2143
G1 X129.8518 Y-122.5976
G1 X132.4298 Y-121.8462
G1 X134.9651 Y-120.9626
G1 X137.4513 Y-119.9491
G1 X139.8819 Y-118.8085
G1 X142.2503 Y-117.5438
G1 X144.5518 Y-116.16
G1 X146.781 Y-114.6626
G1 X148.9324 Y-113.0553
G1 X151.0004 Y-111.3422
G1 X152.5134 Y-109.9556
G1 X153.9737 Y-108.5136
G1 X154.3148 Y-108.0678
G1 X154.5401 Y-107.5537
G1 X154.6366 Y-107.0008
G1 X154.5988 Y-106.4408
G1 X154.429 Y-105.9058
G1 X154.1368 Y-105.4265
G1 X153.739 Y-105.0306
G1 X153.2584 Y-104.7405
#911=0.7368*#900
G1 X152.4626 Y-104.4598 Z64.1286 F#911
G1 X151.631 Y-104.3157 Z64.0571
G1 X150.7871 Y-104.3124 Z63.9857
G1 X149.9545 Y-104.4498 Z63.9143
G1 X149.1564 Y-104.7242 Z63.8429
G1 X148.4153 Y-105.1279 Z63.7714
G1 X147.7519 Y-105.6495 Z63.7
G1 X146.785 Y-106.5266
G1 X145.0686 Y-107.9522
G1 X143.2864 Y-109.2948
G1 X141.4425 Y-110.5513
G1 X139.9675 Y-111.4678 F#900
G1 X138.4595 Y-112.3292
G1 X136.1971 Y-113.486
G1 X133.8736 Y-114.5148
G1 X131.4964 Y-115.4124
G1 X129.0729 Y-116.1761
G1 X126.6102 Y-116.8023
G1 X124.116 Y-117.288
G1 X121.5989 Y-117.6423
G1 X119.0676 Y-117.8749
G1 X116.5292 Y-117.9983
G1 X113.988 Y-118.0256
#911=0.9933*#900
G1 X108.9026 Y-118.0049 F#911
G1 X48.4089 Y-118.0064 F#900
#911=0.8241*#900
G1 X47.0405 Y-118.0653 F#911
G1 X45.6822 Y-118.2414
G1 X44.3441 Y-118.5336
G1 X43.036 Y-118.9396
G1 X42.9012 Y-118.9878 F#900
G1 X39.9678 Y-120.0132
G1 X37.009 Y-120.9626
G1 X34.0273 Y-121.8381
G1 X31.0254 Y-122.6416
G1 X29.0111 Y-123.1288
G1 X26.9882 Y-123.5788
#911=0.9734*#900
G1 X26.6551 Y-123.6497 F#911
G1 X23.6036 Y-124.3365
G1 X23.0698 Y-124.5299 Z63.7498 F#900
G1 X22.5949 Y-124.8409 Z63.7996
G1 X22.2041 Y-125.2527 Z63.8493
G1 X21.9184 Y-125.7433 Z63.8991
G1 X21.7532 Y-126.2865 Z63.9489
G1 X21.7428 Y-126.6638 Z63.9821 F#906
G1 X21.8455 Y-127.0271 Z64.0152
G1 X22.052 Y-127.3431 Z64.0484
G1 X22.3434 Y-127.583 Z64.0815
G1 X22.6932 Y-127.7249 Z64.1147
G1 X23.0695 Y-127.7558 Z64.1478
G1 X23.6644 Y-127.7144 Z64.2
G1 X68.5408 Y-124.5905
G1 X120.5019 Y-120.9733
G1 X123.0995 Y-120.6821
G1 X125.6796 Y-120.2637
G1 X128.2337 Y-119.7109
G1 X130.7531 Y-119.0171
G1 X133.231 Y-118.1879
G1 X135.6617 Y-117.2289
G1 X138.0382 Y-116.1428
G1 X140.3541 Y-114.9327
G1 X142.6034 Y-113.6025
G1 X144.7802 Y-112.1567
G1 X146.8785 Y-110.5993
G1 X148.8927 Y-108.9344
G1 X150.6973 Y-107.2634
G1 X152.4207 Y-105.5089
G1 X154.0589 Y-103.6746
G1 X154.3706 Y-103.2056
G1 X154.563 Y-102.6764
G1 X154.6255 Y-102.1168
G1 X154.5545 Y-101.5582
G1 X154.3539 Y-101.032
G1 X154.0352 Y-100.5678
G1 X153.6161 Y-100.1917
G1 X153.1202 Y-99.9248
#911=0.7368*#900
G1 X152.3213 Y-99.6867 Z64.1286 F#911
G1 X151.4935 Y-99.5875 Z64.0571
G1 X150.6609 Y-99.6301 Z63.9857
G1 X149.8475 Y-99.8132 Z63.9143
G1 X149.0771 Y-100.1317 Z63.8429
G1 X148.3717 Y-100.5761 Z63.7714
G1 X147.752 Y-101.1338 Z63.7
G1 X146.25 Y-102.6627
G1 X144.6773 Y-104.1188
G1 X143.2522 Y-105.3084
G1 X141.7778 Y-106.4364
G1 X140.091 Y-107.611 F#900
G1 X138.3508 Y-108.7048
G1 X136.5611 Y-109.7156
G1 X134.3503 Y-110.815
G1 X132.0794 Y-111.7843
G1 X129.7562 Y-112.6201
G1 X127.3883 Y-113.3197
G1 X124.9834 Y-113.8798
G1 X122.5498 Y-114.2974
G1 X120.0962 Y-114.5837
G1 X117.6316 Y-114.7501
G1 X115.1628 Y-114.8234
G1 X112.693 Y-114.8307
#911=0.9912*#900
G1 X107.7521 Y-114.805 F#911
G1 X48.4438 Y-114.8064 F#900
#911=0.846*#900
G1 X46.7834 Y-114.8778 F#911
G1 X45.1352 Y-115.0916
G1 X43.5114 Y-115.4461
G1 X41.9241 Y-115.9387
G1 X41.8223 Y-115.9752 F#900
G1 X38.9614 Y-116.9751
G1 X36.0758 Y-117.9014
G1 X33.1679 Y-118.7557
G1 X30.2403 Y-119.5394
G1 X28.2869 Y-120.0119
G1 X26.3252 Y-120.4482
#911=0.974*#900
G1 X25.9848 Y-120.5197 F#911
G1 X22.7876 Y-121.1364 F#900
#911=0.9909*#900
G1 X19.5839 Y-121.7201 F#911
G1 X19.4788 Y-121.74 F#900
#911=0.7913*#900
G1 X18.3234 Y-122.0133 F#911
G1 X17.2001 Y-122.3979
G1 X17.1009 Y-122.4377 F#900
G1 X15.2411 Y-123.1501
G1 X13.3561 Y-123.7914
G1 X11.3864 Y-124.3368
G1 X10.8491 Y-124.5382 Z63.7503
G1 X10.3711 Y-124.8557 Z63.8006
G1 X9.9771 Y-125.2728 Z63.8509
G1 X9.6873 Y-125.768 Z63.9012
G1 X9.5167 Y-126.3158 Z63.9515
G1 X9.504 Y-126.6896 Z63.9844 F#906
G1 X9.6053 Y-127.0496 Z64.0172
G1 X9.8111 Y-127.3618 Z64.0501
G1 X10.102 Y-127.5969 Z64.0829
G1 X10.4504 Y-127.7327 Z64.1158
G1 X10.8237 Y-127.7562 Z64.1486
G1 X11.4083 Y-127.7029 Z64.2
G1 X45.5027 Y-124.5905
G1 X119.0676 Y-117.8749
G1 X121.5989 Y-117.6423
G1 X124.116 Y-117.288
G1 X126.6102 Y-116.8023
G1 X129.0729 Y-116.1761
G1 X131.4964 Y-115.4124
G1 X133.8736 Y-114.5148
G1 X136.1971 Y-113.486
G1 X138.4595 Y-112.3292
G1 X140.6556 Y-111.0497
G1 X142.7793 Y-109.6532
G1 X144.8245 Y-108.1441
G1 X146.785 Y-106.5266
G1 X148.6617 Y-104.7795
G1 X150.4436 Y-102.9358
G1 X152.1257 Y-101.0007
G1 X153.1634 Y-99.6944
G1 X154.1536 Y-98.3518
G1 X154.4248 Y-97.8558
G1 X154.5733 Y-97.3103
G1 X154.591 Y-96.7452
G1 X154.4769 Y-96.1915
G1 X154.2372 Y-95.6795
G1 X153.8851 Y-95.2372
G1 X153.4398 Y-94.8888
G1 X152.9258 Y-94.6535
#911=0.7368*#900
G1 X152.1251 Y-94.47 Z64.1286 F#911
G1 X151.3047 Y-94.4278 Z64.0571
G1 X150.4894 Y-94.528 Z63.9857
G1 X149.7037 Y-94.7676 Z63.9143
G1 X148.9712 Y-95.1394 Z63.8429
G1 X148.3141 Y-95.6323 Z63.7714
G1 X147.7521 Y-96.2314 Z63.7
G1 X147.177 Y-96.9453
G1 X145.7256 Y-98.6141
G1 X144.1884 Y-100.2041
G1 X142.2305 Y-102.0032
G1 X140.4493 Y-103.4367 F#900
G1 X138.5903 Y-104.7678
G1 X136.6593 Y-105.992
G1 X134.6624 Y-107.1057
G1 X132.5035 Y-108.1475
G1 X130.2843 Y-109.0536
G1 X128.0132 Y-109.8205
G1 X125.6989 Y-110.4453
G1 X123.356 Y-110.9308
G1 X120.9893 Y-111.2823
G1 X118.6064 Y-111.4987
G1 X116.215 Y-111.5794
G1 X106.6016 Y-111.605
G1 X48.5105 Y-111.6063
#911=0.8628*#900
G1 X46.935 Y-111.6583 F#911
G1 X45.3669 Y-111.8195
G1 X43.8138 Y-112.0893
G1 X42.2831 Y-112.4662
G1 X40.7824 Y-112.9486
G1 X37.9746 Y-113.9305 F#900
G1 X35.1425 Y-114.8402
G1 X32.3085 Y-115.6732
G1 X29.4551 Y-116.4372
G1 X25.6621 Y-117.3177
#911=0.9745*#900
G1 X25.3147 Y-117.3906 F#911
G1 X22.161 Y-117.9984 F#900
#911=0.9904*#900
G1 X18.9635 Y-118.5811 F#911
#911=0.8222*#900
G1 X17.4373 Y-118.94 F#911
G1 X15.9546 Y-119.4494
G1 X14.1829 Y-120.1304 F#900
G1 X12.4231 Y-120.7305
G1 X10.284 Y-121.3126
G1 X8.1175 Y-121.7849
G1 X5.573 Y-122.1989
G1 X3.0099 Y-122.4752
G1 X1.2951 Y-122.5737
G1 X-0.4223 Y-122.5928
G1 X-2.1389 Y-122.5325
G1 X-4.707 Y-122.3121
G1 X-7.2593 Y-121.9517
G1 X-9.7858 Y-121.4448
G1 X-12.2767 Y-120.7846
#911=0.9745*#900
G1 X-12.4237 Y-120.7397 F#911
G1 X-14.1086 Y-120.1723 F#900
G1 X-15.8119 Y-119.5207
#911=0.8224*#900
G1 X-16.9723 Y-119.0892 F#911
G1 X-18.1631 Y-118.7504
G1 X-19.3768 Y-118.5066
G1 X-22.2862 Y-118.0045 F#900
G1 X-25.1384 Y-117.4435
#911=0.9745*#900
G1 X-25.5147 Y-117.3633 F#911
G1 X-27.5217 Y-116.913 F#900
G1 X-29.5204 Y-116.4269
G1 X-32.3722 Y-115.659
G1 X-35.2026 Y-114.8157
G1 X-38.0331 Y-113.9015
G1 X-40.8454 Y-112.933
#911=0.8628*#900
G1 X-42.339 Y-112.4558 F#911
G1 X-43.862 Y-112.0828
G1 X-45.4071 Y-111.816
G1 X-46.967 Y-111.6565
G1 X-48.5342 Y-111.6051
G1 X-111.3179 Y-111.5985 F#900
#911=0.9736*#900
G1 X-113.7105 Y-111.6171 F#911
G1 X-116.1029 Y-111.6114 F#900
G1 X-118.4933 Y-111.5069
G1 X-120.8762 Y-111.2912
G1 X-123.2431 Y-110.9493
G1 X-125.5852 Y-110.4665
G1 X-127.8954 Y-109.8437
G1 X-130.1639 Y-109.0829
G1 X-132.3825 Y-108.1868
G1 X-134.5431 Y-107.1588
G1 X-136.6382 Y-106.0028
G1 X-138.6603 Y-104.7235
G1 X-140.6023 Y-103.3255
G1 X-142.4572 Y-101.8139
G1 X-144.0787 Y-100.3154
G1 X-145.6235 Y-98.738
G1 X-147.0877 Y-97.0856
G1 X-147.7519 Y-96.2736
G1 X-148.1031 Y-95.9248 Z63.7434
G1 X-148.5262 Y-95.6679 Z63.7868
G1 X-148.9976 Y-95.5171 Z63.8302
G1 X-149.4913 Y-95.4807 Z63.8736
G1 X-149.9797 Y-95.5609 Z63.917
G1 X-150.4359 Y-95.753 Z63.9604
G1 X-151.3519 Y-96.2736 Z64.0526
G1 Y-94.5889 Z64.2 F#906
G1 X-151.3544 Y94.5396
G1 Y96.2194 Z64.053
G1 X-150.4289 Y95.6928 Z63.9599 F#900
#911=0.7368*#900
G1 X-149.9738 Y95.501 Z63.9166 F#911
G1 X-149.4863 Y95.4216 Z63.8733
G1 X-148.9938 Y95.459 Z63.8299
G1 X-148.5239 Y95.6111 Z63.7866
G1 X-148.1029 Y95.8694 Z63.7433
G1 X-147.7544 Y96.2194 Z63.7
G1 X-146.2074 Y98.0835
G1 X-144.5579 Y99.8576
G1 X-143.4293 Y100.9593
G1 X-142.2568 Y102.0141
G1 X-140.3934 Y103.525 F#900
G1 X-138.4401 Y104.9178
G1 X-136.5764 Y106.0721
G1 X-134.6529 Y107.1237
G1 X-132.6751 Y108.0693
G1 X-130.6489 Y108.9061
G1 X-128.5804 Y109.6332
G1 X-126.4761 Y110.2493
G1 X-124.3421 Y110.7528
G1 X-122.1844 Y111.1423
G1 X-120.4107 Y111.3601
G1 X-118.6288 Y111.4946
G1 X-116.8421 Y111.5668
G1 X-115.0542 Y111.5973
G1 X-111.4783 Y111.6028
#911=0.9971*#900
G1 X-107.9023 Y111.5989 F#911
G1 X-93.5925 Y111.6005 F#900
#911=0.946*#900
G1 X-90.2899 Y111.6794 F#911
G1 X-86.9948 Y111.9141
G1 X-83.7144 Y112.3041
G1 X-80.456 Y112.8485
G1 X-77.227 Y113.5461
G1 X-74.0345 Y114.3954
G1 X-70.8857 Y115.3943
G1 X-67.7875 Y116.5408
G1 X-64.7469 Y117.8323
G1 X-61.7706 Y119.2658
G1 X-58.8653 Y120.8382
G1 X-56.0375 Y122.546
G1 X-53.2934 Y124.3854
G1 X-50.6393 Y126.3522
G1 X-48.0809 Y128.4421
G1 X-45.624 Y130.6505
G1 X-43.274 Y132.9723
G1 X-41.0363 Y135.4025
G1 X-38.9158 Y137.9356
G1 X-36.9172 Y140.566
G1 X-35.045 Y143.2878
G1 X-33.3034 Y146.0949
G1 X-31.6962 Y148.9811
G1 X-30.7521 Y150.6478 F#900
G1 X-29.7172 Y152.2597
G1 X-28.5947 Y153.8119
G1 X-27.3895 Y155.2982
G1 X-26.1043 Y156.7161
G1 X-24.7432 Y158.0611
G1 X-22.9094 Y159.64
G1 X-21.9544 Y160.3832
G1 X-20.9753 Y161.0944
G1 X-19.9711 Y161.7697
G1 X-18.9413 Y162.4053
G1 X-16.8181 Y163.5672
G1 X-15.3607 Y164.2586
G1 X-13.8706 Y164.8767
G1 X-12.3517 Y165.4197
G1 X-10.8081 Y165.8902
G1 X-9.2449 Y166.2905
G1 X-7.6652 Y166.6198
#911=0.9742*#900
G1 X-7.5506 Y166.6399 F#911
G1 X-5.9963 Y166.8716 F#900
G1 X-4.4342 Y167.0423
G1 X-2.8666 Y167.1537
G1 X-1.1297 Y167.2091
#911=0.8057*#900
G1 X0.1257 Y167.2791 F#911
G1 X1.3693 Y167.4641
G1 X2.5907 Y167.7625
G1 X3.7795 Y168.1718
G1 X4.9257 Y168.6886
G1 X5.074 Y168.7639 F#900
G1 X6.469 Y169.4258
G1 X7.8898 Y170.0305
G1 X9.3333 Y170.5792
G1 X10.7964 Y171.073
#911=0.9742*#900
G1 X10.9391 Y171.1172 F#911
G1 X11.0814 Y171.16 F#900
G1 X11.7345 Y171.4274 Z63.7618
G1 X12.323 Y171.817 Z63.8237
G1 X12.824 Y172.314 Z63.8855
G1 X13.2185 Y172.8991 Z63.9474
G1 X13.4913 Y173.55 Z64.0092
G1 X13.6319 Y174.2416 Z64.0711
G1 X13.6348 Y174.9473 Z64.1329
G1 X13.5 Y175.64 Z64.1947
G1 X56.2473 Y174.7952 Z64.2 F#906
G1 X57.9679 Y174.7612 Z64.0494
G1 X57.4928 Y173.9145 Z63.9645 F#900
#911=0.7368*#900
G1 X57.2981 Y173.451 Z63.9204 F#911
G1 X57.2129 Y172.9555 Z63.8763
G1 X57.2416 Y172.4535 Z63.8322
G1 X57.3828 Y171.9709 Z63.7882
G1 X57.6292 Y171.5326 Z63.7441
G1 X57.968 Y171.1612 Z63.7
G1 X59.7638 Y169.5263
G1 X61.042 Y168.2632
G1 X62.2687 Y166.95
G1 X63.5536 Y165.4477
G1 X64.5498 Y164.1747 F#900
G1 X65.6158 Y162.7002
G1 X66.6261 Y161.1871
#911=0.9076*#900
G1 X67.9457 Y159.2589 F#911
G1 X69.3825 Y157.4166
G1 X70.9311 Y155.6671
G1 X72.5854 Y154.0172
G1 X74.3391 Y152.4734
G1 X76.1854 Y151.0416
G1 X78.1171 Y149.7274
G1 X80.1268 Y148.5357
G1 X82.2066 Y147.4713
G1 X84.3486 Y146.5383
G1 X86.5445 Y145.7402
G1 X88.7858 Y145.0801
G1 X91.0637 Y144.5607
G1 X93.3695 Y144.1838
G1 X95.6943 Y143.9511
G1 X98.0291 Y143.8633
G1 X100.4727 Y143.7846 F#900
G1 X102.9094 Y143.5859
G1 X105.3335 Y143.2678
G1 X107.724 Y142.8328
G1 X110.0898 Y142.2792
G1 X112.4251 Y141.6084
G1 X114.6164 Y140.8383
G1 X116.7659 Y139.958
G1 X118.8679 Y138.9698
G1 X120.9172 Y137.8763
G1 X122.9114 Y136.6832
G1 X124.8473 Y135.3976
G1 X126.7204 Y134.0222
G1 X128.5268 Y132.5601
#911=0.9786*#900
G1 X128.6042 Y132.4932 F#911
G1 X130.5059 Y130.7291 F#900
G1 X132.3085 Y128.8641
#911=0.9773*#900
G1 X132.5408 Y128.6053 F#911
G1 X133.1595 Y127.9064 F#900
#911=0.8976*#900
G1 X134.0475 Y126.9228 F#911
G1 X134.9741 Y125.9755
G1 X135.6628 Y125.2786 F#900
#911=0.9773*#900
G1 X135.7436 Y125.196 F#911
G1 X137.093 Y123.7256 F#900
G1 X138.3765 Y122.1971
G1 X139.5884 Y120.6116
G1 X140.7248 Y118.9711
G1 X141.7805 Y117.2781
G1 X142.7508 Y115.5348
G1 X143.6527 Y113.7538
G1 X144.5032 Y111.9477
G1 X145.2731 Y110.1124
G1 X145.961 Y108.2448
G1 X146.5657 Y106.3485
G1 X147.2248 Y103.8758
G1 X147.7545 Y101.3722
G1 X147.9313 Y100.8027 Z63.7523
G1 X148.2369 Y100.2905 Z63.8046
G1 X148.6542 Y99.8645 Z63.8569
G1 X149.1598 Y99.5484 Z63.9092
G1 X149.7256 Y99.3598 Z63.9615
G1 X150.101 Y99.344 Z63.9945 F#906
G1 X150.4621 Y99.448 Z64.0275
G1 X150.7717 Y99.661 Z64.0605
G1 X150.9978 Y99.9611 Z64.0936
G1 X151.1172 Y100.3174 Z64.1266
G1 X151.1175 Y100.6932 Z64.1596
G1 X151.0432 Y101.149 Z64.2
G1 X150.6532 Y103.2085
G1 X150.1812 Y105.2507
G1 X149.6281 Y107.2725
G1 X149.1502 Y108.7983
G1 X148.622 Y110.3075
G1 X148.0442 Y111.7984
G1 X147.4175 Y113.2694
G1 X146.5078 Y115.1985
G1 X145.5412 Y117.0997
G1 X144.5014 Y118.9605
G1 X143.3725 Y120.7687
G1 X142.1579 Y122.5211
G1 X140.8619 Y124.2141
G1 X139.4895 Y125.8462
G1 X134.6741 Y131.0191
G1 X132.7382 Y133.0212
G1 X130.6959 Y134.915
G1 X128.688 Y136.5443
G1 X126.6847 Y138.0151
G1 X124.6143 Y139.3899
G1 X122.4814 Y140.6656
G1 X54.7764 Y177.5915
G1 X54.2004 Y177.8193
G1 X53.5864 Y177.9003
G1 X52.971 Y177.8296
G1 X52.3913 Y177.6115
G1 X51.882 Y177.2591
G1 X51.4735 Y176.7935
G1 X51.1905 Y176.2426
G1 X51.1317 Y176.0617 Z64.1834
#911=0.7368*#900
G1 X50.9832 Y175.2875 Z64.1143 F#911
G1 X50.9715 Y174.4994 Z64.0453
G1 X51.0968 Y173.7212 Z63.9762
G1 X51.3553 Y172.9765 Z63.9072
G1 X51.7392 Y172.288 Z63.8381
G1 X52.2368 Y171.6767 Z63.7691
G1 X52.833 Y171.1611 Z63.7
G1 X53.9492 Y170.3267
G1 X55.038 Y169.4568
G1 X56.3047 Y168.3619
G1 X57.5373 Y167.2288
G1 X58.8608 Y165.9166
G1 X59.8717 Y164.83 F#900
G1 X60.9622 Y163.5605
G1 X61.9966 Y162.245
G1 X62.9878 Y160.8742
G1 X63.9274 Y159.4675
#911=0.9137*#900
G1 X65.3602 Y157.3752 F#911
G1 X66.9203 Y155.3759
G1 X68.6015 Y153.4774
G1 X70.3975 Y151.687
G1 X72.3012 Y150.0116
G1 X74.3053 Y148.4577
G1 X76.402 Y147.0313
G1 X78.5834 Y145.738
G1 X80.8408 Y144.5826
G1 X83.1657 Y143.5698
G1 X85.549 Y142.7033
G1 X87.9815 Y141.9865
G1 X90.4539 Y141.4223
G1 X92.9565 Y141.0127
G1 X95.4798 Y140.7594
G1 X98.0139 Y140.6633
G1 X100.2936 Y140.5898 F#900
G1 X102.567 Y140.4047
G1 X104.8285 Y140.1086
G1 X107.0609 Y139.7031
G1 X109.2701 Y139.1866
G1 X111.4508 Y138.5603
G1 X113.49 Y137.8436
G1 X115.4901 Y137.0244
G1 X117.4461 Y136.1047
G1 X119.3529 Y135.0869
G1 X121.2085 Y133.9765
G1 X123.0099 Y132.78
G1 X124.7529 Y131.5
G1 X126.4338 Y130.1395
#911=0.979*#900
G1 X126.5126 Y130.0714 F#911
G1 X128.2736 Y128.437 F#900
G1 X129.9429 Y126.7091
#911=0.9777*#900
G1 X130.1794 Y126.4457 F#911
G1 X130.7417 Y125.8102 F#900
#911=0.905*#900
G1 X131.7155 Y124.7316 F#911
G1 X132.7316 Y123.6927
G1 X133.3576 Y123.0591 F#900
#911=0.9777*#900
G1 X133.4398 Y122.975 F#911
G1 X134.6985 Y121.6059 F#900
G1 X135.898 Y120.1846
G1 X137.0273 Y118.7078
G1 X138.077 Y117.1734
G1 X139.0507 Y115.5902
G1 X139.9534 Y113.9654
G1 X140.7959 Y112.3078
G1 X141.5889 Y110.626
G1 X142.3039 Y108.9211
G1 X142.9424 Y107.1862
G1 X143.5032 Y105.4246
G1 X143.989 Y103.6403
G1 X144.4026 Y101.8379
G1 X144.7855 Y99.7585
#911=0.7986*#900
G1 X145.0898 Y98.3681 F#911
G1 X145.5452 Y97.0197
G1 X146.1462 Y95.7296
G1 X146.8856 Y94.5135
G1 X147.7544 Y93.3862
G1 X148.1969 Y92.9672 Z63.7534 F#900
G1 X148.7143 Y92.6454 Z63.8068
G1 X149.2858 Y92.4339 Z63.8602
G1 X149.888 Y92.3411 Z63.9136
G1 X150.4967 Y92.371 Z63.967
G1 X150.8759 Y92.4882 Z64.0019 F#906
G1 X151.2037 Y92.7119 Z64.0367
G1 X151.4509 Y93.0224 Z64.0716
G1 X151.5956 Y93.392 Z64.1064
G1 X151.6249 Y93.7878 Z64.1413
G1 X151.5362 Y94.1746 Z64.1761
G1 X151.4363 Y94.4285 Z64.2
G1 X148.0045 Y103.1448
G1 X145.6274 Y109.1824
G1 X145.0883 Y110.5744
G1 X144.5032 Y111.9477
G1 X143.6527 Y113.7538
G1 X142.7508 Y115.5348
G1 X141.7805 Y117.2781
G1 X140.7248 Y118.9711
G1 X139.5884 Y120.6116
G1 X138.3765 Y122.1971
G1 X137.093 Y123.7256
G1 X132.3085 Y128.8641
G1 X130.5059 Y130.7291
G1 X128.6042 Y132.4932
G1 X126.7204 Y134.0222
G1 X124.8473 Y135.3976
G1 X122.9114 Y136.6832
G1 X120.9172 Y137.8763
G1 X50.5663 Y176.4244
G1 X48.2357 Y177.6717
G1 X47.7096 Y177.8641
G1 X47.1538 Y177.9346
G1 X46.5962 Y177.8794
G1 X46.065 Y177.7014
G1 X45.5868 Y177.4096
G1 X45.1856 Y177.0185
G1 X44.8816 Y176.5479
G1 X44.6704 Y175.9331 Z64.1921
#911=0.7368*#900
G1 X44.5823 Y175.1356 Z64.1218 F#911
G1 X44.6392 Y174.3352 Z64.0515
G1 X44.839 Y173.558 Z63.9812
G1 X45.1754 Y172.8295 Z63.9109
G1 X45.6374 Y172.1734 Z63.8406
G1 X46.2098 Y171.6111 Z63.7703
G1 X46.874 Y171.1609 Z63.7
G1 X48.9984 Y169.8988
G1 X51.0411 Y168.5083
G1 X52.9942 Y166.9945
G1 X53.4408 Y166.6156
G1 X55.3061 Y164.927 F#900
G1 X56.4095 Y163.8373
G1 X57.4745 Y162.7099
G1 X58.4909 Y161.5391
G1 X59.4481 Y160.3195
G1 X60.3613 Y159.0488
G1 X61.2294 Y157.7468
#911=0.9191*#900
G1 X62.6806 Y155.6204 F#911
G1 X64.2536 Y153.5824
G1 X65.943 Y151.6398
G1 X67.7431 Y149.7993
G1 X69.6477 Y148.0671
G1 X71.6503 Y146.4492
G1 X73.744 Y144.9511
G1 X75.9216 Y143.5779
G1 X78.1758 Y142.3343
G1 X80.4989 Y141.2247
G1 X82.8828 Y140.2526
G1 X85.3194 Y139.4216
G1 X87.8005 Y138.7344
G1 X90.3174 Y138.1934
G1 X92.8617 Y137.8004
G1 X95.4246 Y137.5567
G1 X97.9974 Y137.4633
G1 X100.1136 Y137.395 F#900
G1 X102.224 Y137.2235
G1 X104.3236 Y136.9493
G1 X106.3978 Y136.5734
G1 X108.4505 Y136.0939
G1 X110.4766 Y135.5122
G1 X112.3635 Y134.849
G1 X114.2144 Y134.0908
G1 X116.0243 Y133.2396
G1 X117.7886 Y132.2975
G1 X119.5057 Y131.2698
G1 X121.1725 Y130.1624
G1 X122.7854 Y128.9779
G1 X124.3408 Y127.7189
#911=0.9793*#900
G1 X124.4209 Y127.6497 F#911
G1 X126.0413 Y126.145 F#900
G1 X127.5772 Y124.5542
#911=0.9781*#900
G1 X127.8181 Y124.2862 F#911
G1 X128.3239 Y123.714 F#900
#911=0.9114*#900
G1 X129.3834 Y122.5403 F#911
G1 X130.489 Y121.41
G1 X131.0524 Y120.8396 F#900
#911=0.9781*#900
G1 X131.136 Y120.754 F#911
G1 X132.3018 Y119.4851 F#900
G1 X133.4119 Y118.1672
G1 X134.4568 Y116.7977
G1 X135.4289 Y115.3755
G1 X136.3301 Y113.908
G1 X137.1634 Y112.4008
G1 X137.9409 Y110.8632
G1 X138.6747 Y109.3042
G1 X139.3347 Y107.7299
G1 X139.9238 Y106.1276
G1 X140.4408 Y104.5006
G1 X141.0875 Y102.0223
G1 X141.6151 Y99.3189
#911=0.8267*#900
G1 X141.9131 Y97.8865 F#911
G1 X142.3384 Y96.4867
G1 X142.8874 Y95.1306
G1 X143.5558 Y93.8292
G1 X144.3382 Y92.5929
G1 X145.2283 Y91.4318
G1 X146.2188 Y90.3552
G1 X147.3019 Y89.3717
G1 X147.4508 Y89.2483 F#900
G1 X147.7543 Y88.9918
G1 X148.2798 Y88.6116 Z63.7568
G1 X148.8588 Y88.3193 Z63.8136
G1 X149.4767 Y88.1222 Z63.8704
G1 X150.118 Y88.0253 Z63.9272
G1 X150.7666 Y88.0311 Z63.984
G1 X151.1343 Y88.1248 Z64.0174 F#906
G1 X151.4534 Y88.3301 Z64.0507
G1 X151.691 Y88.626 Z64.084
G1 X151.8226 Y88.9818 Z64.1174
G1 X151.8347 Y89.3611 Z64.1507
G1 X151.7261 Y89.7246 Z64.1841
G1 X148.0044 Y97.3981 Z64.2
G1 X141.5889 Y110.626
G1 X140.7959 Y112.3078
G1 X139.9534 Y113.9654
G1 X139.0507 Y115.5902
G1 X138.077 Y117.1734
G1 X137.0273 Y118.7078
G1 X135.898 Y120.1846
G1 X134.6985 Y121.6059
G1 X129.9429 Y126.7091
G1 X128.2736 Y128.437
G1 X126.5126 Y130.0714
G1 X124.7529 Y131.5
G1 X123.0099 Y132.78
G1 X121.2085 Y133.9765
G1 X119.3529 Y135.0869
G1 X47.1464 Y174.6383
G1 X45.2516 Y175.5479
G1 X43.3149 Y176.3645
G1 X41.3408 Y177.0863
G1 X39.3144 Y177.7167
G1 X38.693 Y177.8143
G1 X38.0663 Y177.7594
G1 X37.4713 Y177.5555
G1 X36.9427 Y177.2145
G1 X36.5117 Y176.7563
G1 X36.2035 Y176.2079
G1 X36.0363 Y175.6015
G1 X36.013 Y175.3789 Z64.1804
#911=0.7368*#900
G1 X36.0386 Y174.596 Z64.1118 F#911
G1 X36.2103 Y173.8318 Z64.0432
G1 X36.522 Y173.1132 Z63.9745
G1 X36.9627 Y172.4656 Z63.9059
G1 X37.5168 Y171.912 Z63.8373
G1 X38.1648 Y171.4718 Z63.7686
G1 X38.8836 Y171.1607 Z63.7
G1 X41.0634 Y170.3752
G1 X42.8056 Y169.6323
G1 X44.5074 Y168.8009
G1 X46.1642 Y167.8833
G1 X47.818 Y166.8512 F#900
G1 X49.4149 Y165.7331
G1 X50.9505 Y164.5322
G1 X52.0302 Y163.5979
G1 X53.0799 Y162.6298
G1 X54.0965 Y161.6274
G1 X55.0772 Y160.5897
G1 X56.0129 Y159.512
G1 X56.8944 Y158.3894
G1 X57.734 Y157.2217
G1 X58.5319 Y156.0252
#911=0.9238*#900
G1 X59.9993 Y153.8684 F#911
G1 X61.5834 Y151.7959
G1 X63.2795 Y149.814
G1 X65.0824 Y147.9286
G1 X66.9865 Y146.1456
G1 X68.9861 Y144.4704
G1 X71.0751 Y142.9081
G1 X73.2472 Y141.4634
G1 X75.4956 Y140.1408
G1 X77.8136 Y138.9443
G1 X80.1941 Y137.8775
G1 X82.6299 Y136.9437
G1 X85.1134 Y136.1457
G1 X87.6372 Y135.4859
G1 X90.1936 Y134.9665
G1 X92.7747 Y134.5889
G1 X95.3728 Y134.3543
G1 X97.9798 Y134.2634
G1 X99.933 Y134.2003 F#900
G1 X101.8808 Y134.0424
G1 X103.8186 Y133.7901
G1 X105.7346 Y133.4436
G1 X107.6308 Y133.0013
G1 X109.5023 Y132.4641
G1 X111.2371 Y131.8544
G1 X112.9386 Y131.1572
G1 X114.6025 Y130.3745
G1 X116.2244 Y129.5082
G1 X118.3189 Y128.2317
G1 X120.3293 Y126.8265
G1 X122.2478 Y125.2982
#911=0.9796*#900
G1 X122.3292 Y125.2279 F#911
G1 X123.809 Y123.8529 F#900
G1 X125.2116 Y122.3992
#911=0.9784*#900
G1 X125.4567 Y122.1266 F#911
G1 X125.906 Y121.6177 F#900
G1 X126.2743 Y121.1879
#911=0.856*#900
G1 X127.0467 Y120.3208 F#911
G1 X127.8653 Y119.4971
G1 X128.0562 Y119.3125 F#900
G1 X128.7472 Y118.6202
#911=0.9784*#900
G1 X128.8323 Y118.5331 F#911
G1 X129.9052 Y117.3644 F#900
G1 X130.9257 Y116.1497
G1 X131.8863 Y114.8875
G1 X132.7808 Y113.5777
G1 X133.6095 Y112.2257
G1 X134.3734 Y110.8362
G1 X135.0859 Y109.4186
G1 X135.7604 Y107.9825
G1 X136.6436 Y105.8068
G1 X137.3783 Y103.5767
G1 X137.9701 Y101.3035
G1 X138.4483 Y98.8565
#911=0.8476*#900
G1 X138.8072 Y97.1316 F#911
G1 X139.3193 Y95.4458
