%
<UN4313_9100_90_OP30>(--UN4313_9100_90_OP30)
( CREATED BY HYPERMILL 2025 OPEN MIND TECHNOLOGIES AG )
( TOOL LIST BEGIN )
( T197 R4. R20. L149. SQUARE END MILL D8.00  CERATIZIT - 53562080  LT=149 BT40-REGOFIX-4140.72566-PG25X120H )
( T11000066 R1.5 R20. L115. SQUARE END MILL D3.00  OSG - EP019803  LT=115 BT40-SHRINKFIT-D06X090 )
( T11000003 R2. R20. L120. SQUARE END MILL D4.00  SECO - JS564040F2C.0Z4C-NXT  LT=120 BT40-SHRINKFIT-D06X090 )
( T11000150 R0.75 R20. L106. SQUARE END MILL D1.50  OSG - 3182015  LT=106 BT40-SHRINKFIT-D03X090 )
( T194 R1.5 R20. L120. SOLID CARBIDE CHAMFER MILL D6.0 K90  OSG - 20900600  )
( TOOL LIST END )
( PROGRAM BEGIN )
M145 (CANCEL INTERFERANCE)
M301
M11 M71 ( CLAMP OFF B, C )
G80 G40
G90 G17
G49
G69
( ORIGIN LIST BEGIN )
( ORIGIN DEFINITION )
( ORIGIN LIST END )
( SAFE POS. PROGRAM BEGIN )
G0 G53 Z-1.
G0 G53 X-394. Y-1.
G0 B0. C0.
( --- )
G54
( TOOL 197: SQUARE END MILL D8.00  CERATIZIT - 53562080  LT=149 BT40-REGOFIX-4140.72566-PG25X120H )
( BEFORE TOOL CHANGE )
T197 M6
T11000066
( AFTER TOOL CHANGE )
G05 P10000
( OPERATION 300: T197 3D PLANE MACHINING )
G0 G43 H#544
G65 P7000 A149. B10. C-0.02 D#5083
G49
#900=2101. (XY FEEDRATE)
#901=438. (Z FEEDRATE)
S8754.
M3
M8
G0 B0. C0.
M10 M70 ( CLAMP ON B, C )
G0 G91 G43.4 H#544 Z-0.01
G90
G0 X-52.6356 Y-58.9495
G0 Z89.9
G0 Z84.015
G1 Z81.015 F#901
G1 X-54.6108 Y-57.3355 Z81.016 F#900
G1 X-54.7998 Y-57.1737 Z81.015
G1 X-55.9263 Y-56.0723 Z80.9875
G1 X-57.0306 Y-54.9487 Z80.96
G1 X-58.1124 Y-53.8033 Z80.9325
G1 X-59.1712 Y-52.6367 Z80.905
G1 X-60.194 Y-51.4639 Z80.8778
G1 X-61.1935 Y-50.2713 Z80.8507
G1 X-62.1694 Y-49.0593 Z80.8235
G1 X-63.1213 Y-47.8283 Z80.7964
G1 X-64.0489 Y-46.5789 Z80.7692
G1 X-64.9517 Y-45.3115 Z80.742
G1 X-65.8294 Y-44.0265 Z80.7149
G1 X-66.6817 Y-42.7246 Z80.6877
G1 X-67.5083 Y-41.4062 Z80.6605
G1 X-68.3088 Y-40.0718 Z80.6334
G1 X-69.083 Y-38.722 Z80.6062
G1 X-69.8305 Y-37.3572 Z80.5791
G1 X-70.551 Y-35.9779 Z80.5519
G1 X-71.2442 Y-34.5848 Z80.5247
G1 X-71.91 Y-33.1783 Z80.4976
G1 X-72.548 Y-31.759 Z80.4704
G1 X-73.158 Y-30.3275 Z80.4432
G1 X-73.7398 Y-28.8842 Z80.4161
G1 X-74.293 Y-27.4298 Z80.3889
G1 X-74.8176 Y-25.9648 Z80.3618
G1 X-75.3133 Y-24.4898 Z80.3346
G1 X-75.78 Y-23.0053 Z80.3074
G1 X-76.2174 Y-21.5119 Z80.2803
G1 X-76.6253 Y-20.0103 Z80.2531
G1 X-77.0037 Y-18.5009 Z80.2259
G1 X-77.3523 Y-16.9843 Z80.1988
G1 X-77.6711 Y-15.4613 Z80.1716
G1 X-77.9599 Y-13.9322 Z80.1445
G1 X-78.2186 Y-12.3977 Z80.1173
G1 X-78.4471 Y-10.8585 Z80.0901
G1 X-78.6453 Y-9.3151 Z80.063
G1 X-78.8131 Y-7.7681 Z80.0358
G1 X-78.9505 Y-6.2181 Z80.0086
G1 X-79.0575 Y-4.6657 Z79.9815
G1 X-79.1339 Y-3.1114 Z79.9543
G1 X-79.1797 Y-1.556 Z79.9272
G1 X-79.195 Y0. Z79.9
G1 X-79.1792 Y1.5846
G1 X-79.1316 Y3.1686
G1 X-79.0524 Y4.7513
G1 X-78.9415 Y6.332
G1 X-78.799 Y7.9103
G1 X-78.6249 Y9.4854
G1 X-78.4194 Y11.0567
G1 X-78.1825 Y12.6236
G1 X-77.9142 Y14.1854
G1 X-77.6148 Y15.7415
G1 X-77.2843 Y17.2913
G1 X-76.9228 Y18.8342
G1 X-76.5306 Y20.3696
G1 X-76.1077 Y21.8968
G1 X-75.6543 Y23.4152
G1 X-75.1707 Y24.9243
G1 X-74.6569 Y26.4234
G1 X-74.1133 Y27.9119
G1 X-73.5399 Y29.3892
G1 X-72.9372 Y30.8548
G1 X-72.3052 Y32.308
G1 X-71.6443 Y33.7483
G1 X-70.9547 Y35.175
G1 X-70.2367 Y36.5877
G1 X-69.4905 Y37.9857
G1 X-68.7166 Y39.3686
G1 X-67.9151 Y40.7356
G1 X-67.0864 Y42.0864
G1 X-66.2309 Y43.4202
G1 X-65.3489 Y44.7368
G1 X-64.4406 Y46.0354
G1 X-63.5066 Y47.3155
G1 X-62.5472 Y48.5767
G1 X-61.5627 Y49.8185
G1 X-60.5536 Y51.0403
G1 X-59.5202 Y52.2417
G1 X-58.463 Y53.4222
G1 X-57.3824 Y54.5813
G1 X-56.2788 Y55.7185
G1 X-55.1526 Y56.8334
G1 X-54.0044 Y57.9256
G1 X-52.8346 Y58.9945
G1 X-51.6436 Y60.0399
G1 X-50.4319 Y61.0612
G1 X-49.2001 Y62.058
G1 X-47.9485 Y63.0301
G1 X-46.6778 Y63.9768
G1 X-45.3883 Y64.898
G1 X-44.0807 Y65.7932
G1 X-42.7554 Y66.662
G1 X-41.4131 Y67.5041
G1 X-40.0541 Y68.3193
G1 X-38.6791 Y69.107
G1 X-37.2886 Y69.8671
G1 X-35.8832 Y70.5992
G1 X-34.4634 Y71.3031
G1 X-33.0298 Y71.9784
G1 X-31.583 Y72.6248
G1 X-30.1235 Y73.2422
G1 X-28.652 Y73.8303
G1 X-27.169 Y74.3888
G1 X-25.6751 Y74.9175
G1 X-24.171 Y75.4163
G1 X-22.6572 Y75.8848
G1 X-21.1343 Y76.323
G1 X-19.6029 Y76.7305
G1 X-18.0637 Y77.1074
G1 X-16.5172 Y77.4534
G1 X-14.9642 Y77.7684
G1 X-13.4051 Y78.0522
G1 X-11.8407 Y78.3048
G1 X-10.2716 Y78.5261
G1 X-8.6983 Y78.7159
G1 X-7.1215 Y78.8742
G1 X-5.5419 Y79.0009
G1 X-3.9601 Y79.0959
G1 X-2.3767 Y79.1593
G1 X-0.7923 Y79.191
G1 X0.7923
G1 X2.3767 Y79.1593
G1 X3.9601 Y79.0959
G1 X5.5419 Y79.0009
G1 X7.1215 Y78.8742
G1 X8.6983 Y78.7159
G1 X10.2716 Y78.5261
G1 X11.8407 Y78.3048
G1 X13.4051 Y78.0522
G1 X14.9642 Y77.7684
G1 X16.5172 Y77.4534
G1 X18.0637 Y77.1074
G1 X19.6029 Y76.7305
G1 X21.1343 Y76.323
G1 X22.6572 Y75.8848
G1 X24.171 Y75.4163
G1 X25.6751 Y74.9175
G1 X27.169 Y74.3888
G1 X28.652 Y73.8303
G1 X30.1235 Y73.2422
G1 X31.583 Y72.6248
G1 X33.0298 Y71.9784
G1 X34.4634 Y71.3031
G1 X35.8832 Y70.5992
G1 X37.2886 Y69.8671
G1 X38.6791 Y69.107
G1 X40.0541 Y68.3193
G1 X41.4131 Y67.5041
G1 X42.7554 Y66.662
G1 X44.0807 Y65.7932
G1 X45.3883 Y64.898
G1 X46.6778 Y63.9768
G1 X47.9485 Y63.0301
G1 X49.2001 Y62.058
G1 X50.4319 Y61.0612
G1 X51.6436 Y60.0399
G1 X52.8346 Y58.9945
G1 X54.0044 Y57.9256
G1 X55.1526 Y56.8334
G1 X56.2788 Y55.7185
G1 X57.3824 Y54.5813
G1 X58.463 Y53.4222
G1 X59.5202 Y52.2417
G1 X60.5536 Y51.0403
G1 X61.5627 Y49.8185
G1 X62.5472 Y48.5767
G1 X63.5066 Y47.3155
G1 X64.4406 Y46.0354
G1 X65.3489 Y44.7368
G1 X66.2309 Y43.4202
G1 X67.0864 Y42.0864
G1 X67.9151 Y40.7356
G1 X68.7166 Y39.3686
G1 X69.4905 Y37.9857
G1 X70.2367 Y36.5877
G1 X70.9547 Y35.175
G1 X71.6443 Y33.7483
G1 X72.3052 Y32.308
G1 X72.9372 Y30.8548
G1 X73.5399 Y29.3892
G1 X74.1133 Y27.9119
G1 X74.6569 Y26.4234
G1 X75.1707 Y24.9243
G1 X75.6543 Y23.4152
G1 X76.1077 Y21.8968
G1 X76.5306 Y20.3696
G1 X76.9228 Y18.8342
G1 X77.2843 Y17.2913
G1 X77.6148 Y15.7415
G1 X77.9142 Y14.1854
G1 X78.1825 Y12.6236
G1 X78.4194 Y11.0567
G1 X78.6249 Y9.4854
G1 X78.799 Y7.9103
G1 X78.9415 Y6.332
G1 X79.0524 Y4.7513
G1 X79.1316 Y3.1686
G1 X79.1792 Y1.5846
G1 X79.195 Y0.
G1 X79.1792 Y-1.5846
G1 X79.1316 Y-3.1686
G1 X79.0524 Y-4.7513
G1 X78.9415 Y-6.332
G1 X78.799 Y-7.9103
G1 X78.6249 Y-9.4854
G1 X78.4194 Y-11.0567
G1 X78.1825 Y-12.6236
G1 X77.9142 Y-14.1854
G1 X77.6148 Y-15.7415
G1 X77.2843 Y-17.2913
G1 X76.9228 Y-18.8342
G1 X76.5306 Y-20.3696
G1 X76.1077 Y-21.8968
G1 X75.6543 Y-23.4152
G1 X75.1707 Y-24.9243
G1 X74.6569 Y-26.4234
G1 X74.1133 Y-27.9119
G1 X73.5399 Y-29.3892
G1 X72.9372 Y-30.8548
G1 X72.3052 Y-32.308
G1 X71.6443 Y-33.7483
G1 X70.9547 Y-35.175
G1 X70.2367 Y-36.5877
G1 X69.4905 Y-37.9857
G1 X68.7166 Y-39.3686
G1 X67.9151 Y-40.7356
G1 X67.0864 Y-42.0864
G1 X66.2309 Y-43.4202
G1 X65.3489 Y-44.7368
G1 X64.4406 Y-46.0354
G1 X63.5066 Y-47.3155
G1 X62.5472 Y-48.5767
G1 X61.5627 Y-49.8185
G1 X60.5536 Y-51.0403
G1 X59.5202 Y-52.2417
G1 X58.463 Y-53.4222
G1 X57.3824 Y-54.5813
G1 X56.2788 Y-55.7185
G1 X55.1526 Y-56.8334
G1 X54.0044 Y-57.9256
G1 X52.8346 Y-58.9945
G1 X51.6436 Y-60.0399
G1 X50.4319 Y-61.0612
G1 X49.2001 Y-62.058
G1 X47.9485 Y-63.0301
G1 X46.6778 Y-63.9768
G1 X45.3883 Y-64.898
G1 X44.0807 Y-65.7932
G1 X42.7554 Y-66.662
G1 X41.4131 Y-67.5041
G1 X40.0541 Y-68.3193
G1 X38.6791 Y-69.107
G1 X37.2886 Y-69.8671
G1 X35.8832 Y-70.5992
G1 X34.4634 Y-71.3031
G1 X33.0298 Y-71.9784
G1 X31.583 Y-72.6248
G1 X30.1235 Y-73.2422
G1 X28.652 Y-73.8303
G1 X27.169 Y-74.3888
G1 X25.6751 Y-74.9175
G1 X24.171 Y-75.4163
G1 X22.6572 Y-75.8848
G1 X21.1343 Y-76.323
G1 X19.6029 Y-76.7305
G1 X18.0637 Y-77.1074
G1 X16.5172 Y-77.4534
G1 X14.9642 Y-77.7684
G1 X13.4051 Y-78.0522
G1 X11.8407 Y-78.3048
G1 X10.2716 Y-78.5261
G1 X8.6983 Y-78.7159
G1 X7.1215 Y-78.8742
G1 X5.5419 Y-79.0009
G1 X3.9601 Y-79.0959
G1 X2.3767 Y-79.1593
G1 X0.7923 Y-79.191
G1 X-0.7923
G1 X-2.3767 Y-79.1593
G1 X-3.9601 Y-79.0959
G1 X-5.5419 Y-79.0009
G1 X-7.1215 Y-78.8742
G1 X-8.6983 Y-78.7159
G1 X-10.2716 Y-78.5261
G1 X-11.8407 Y-78.3048
G1 X-13.4051 Y-78.0522
G1 X-14.9642 Y-77.7684
G1 X-16.5172 Y-77.4534
G1 X-18.0637 Y-77.1074
G1 X-19.6029 Y-76.7305
G1 X-21.1343 Y-76.323
G1 X-22.6572 Y-75.8848
G1 X-24.171 Y-75.4163
G1 X-25.6751 Y-74.9175
G1 X-27.169 Y-74.3888
G1 X-28.652 Y-73.8303
G1 X-30.1235 Y-73.2422
G1 X-31.583 Y-72.6248
G1 X-33.0298 Y-71.9784
G1 X-34.4634 Y-71.3031
G1 X-35.8832 Y-70.5992
G1 X-37.2886 Y-69.8671
G1 X-38.6791 Y-69.107
G1 X-40.0541 Y-68.3193
G1 X-41.4131 Y-67.5041
G1 X-42.7554 Y-66.662
G1 X-44.0807 Y-65.7932
G1 X-45.3883 Y-64.898
G1 X-46.6778 Y-63.9768
G1 X-47.9485 Y-63.0301
G1 X-49.2001 Y-62.058
G1 X-50.4319 Y-61.0612
G1 X-51.6436 Y-60.0399
G1 X-52.8346 Y-58.9945
G1 X-54.0044 Y-57.9256
G1 X-55.1526 Y-56.8334
G1 X-56.2788 Y-55.7185
G1 X-57.3824 Y-54.5813
G1 X-58.463 Y-53.4222
G1 X-59.5202 Y-52.2417
G1 X-60.5536 Y-51.0403
G1 X-61.5627 Y-49.8185
G1 X-62.5472 Y-48.5767
G1 X-63.5066 Y-47.3155
G1 X-64.4406 Y-46.0354
G1 X-65.3489 Y-44.7368
G1 X-66.2309 Y-43.4202
G1 X-67.0864 Y-42.0864
G1 X-67.9151 Y-40.7356
G1 X-68.7166 Y-39.3686
G1 X-69.4905 Y-37.9857
G1 X-70.2367 Y-36.5877
G1 X-70.9547 Y-35.175
G1 X-71.6443 Y-33.7483
G1 X-72.3052 Y-32.308
G1 X-72.9372 Y-30.8548
G1 X-73.5399 Y-29.3892
G1 X-74.1133 Y-27.9119
G1 X-74.6569 Y-26.4234
G1 X-75.1707 Y-24.9243
G1 X-75.6543 Y-23.4152
G1 X-76.1077 Y-21.8968
G1 X-76.5306 Y-20.3696
G1 X-76.9228 Y-18.8342
G1 X-77.2843 Y-17.2913
G1 X-77.6148 Y-15.7415
G1 X-77.9142 Y-14.1854
G1 X-78.1825 Y-12.6236
G1 X-78.4194 Y-11.0567
G1 X-78.6249 Y-9.4854
G1 X-78.799 Y-7.9103
G1 X-78.9415 Y-6.332
G1 X-79.0524 Y-4.7513
G1 X-79.1316 Y-3.1686
G1 X-79.1792 Y-1.5846
G1 X-79.195 Y0.
G1 X-79.1791 Y1.5662
G1 X-79.1315 Y3.1317
G1 X-79.0522 Y4.696
G1 X-78.9412 Y6.2583
G1 X-78.7985 Y7.818
G1 X-78.6243 Y9.3746
G1 X-78.4185 Y10.9272
G1 X-78.1814 Y12.4754
G1 X-77.9129 Y14.0185
G1 X-77.6131 Y15.5558
G1 X-77.2823 Y17.0867
G1 X-76.9205 Y18.6106
G1 X-76.528 Y20.1269
G1 X-76.1047 Y21.6349
G1 X-75.651 Y23.134
G1 X-75.167 Y24.6236
G1 X-74.6529 Y26.1031
G1 X-74.109 Y27.5718
G1 X-73.5353 Y29.0293
G1 X-72.9323 Y30.4748
G1 X-72.3001 Y31.9078
G1 X-71.6389 Y33.3276
G1 X-70.9492 Y34.7338
G1 X-70.231 Y36.1258
G1 X-69.4849 Y37.5028
G1 X-68.7109 Y38.8645
G1 X-67.9095 Y40.2102
G1 X-67.081 Y41.5394
G1 X-66.2258 Y42.8516
G1 X-65.3441 Y44.1461
G1 X-64.4364 Y45.4225
G1 X-63.5029 Y46.6802
G1 X-62.5442 Y47.9188
G1 X-61.5606 Y49.1376
G1 X-60.5525 Y50.3363
G1 X-59.5203 Y51.5143
G1 X-58.4644 Y52.6712
G1 X-57.3853 Y53.8064
G1 X-56.2834 Y54.9195
G1 X-55.1592 Y56.0101
G1 X-54.0131 Y57.0776
G1 X-52.8456 Y58.1217
G1 X-51.6572 Y59.1419
G1 X-50.4484 Y60.1378
G1 X-49.2196 Y61.109
G1 X-47.9714 Y62.0552
G1 X-46.7043 Y62.9758
G1 X-45.4187 Y63.8705
G1 X-44.1153 Y64.739
G1 X-42.7946 Y65.581
G1 X-41.4571 Y66.3959
G1 X-40.1033 Y67.1837
G1 X-38.7339 Y67.9438
G1 X-37.3493 Y68.676
G1 X-35.9502 Y69.3799
G1 X-34.5371 Y70.0554
G1 X-33.1105 Y70.7021
G1 X-31.6712 Y71.3198
G1 X-30.2197 Y71.9082
G1 X-28.7565 Y72.467
G1 X-27.2823 Y72.996
G1 X-25.7977 Y73.4951
G1 X-24.3033 Y73.964
G1 X-22.7996 Y74.4025
G1 X-21.2874 Y74.8104
G1 X-19.7673 Y75.1876
G1 X-18.2398 Y75.5339
G1 X-16.7056 Y75.8492
G1 X-15.1653 Y76.1333
G1 X-13.6196 Y76.3862
G1 X-12.0691 Y76.6077
G1 X-10.5144 Y76.7977
G1 X-8.9562 Y76.9561
G1 X-7.3951 Y77.083
G1 X-5.8317 Y77.1781
G1 X-4.2667 Y77.2416
G1 X-2.7008 Y77.2734
G1 X-1.1346
G1 X0.4314 Y77.2416
G1 X1.9964 Y77.1781
G1 X3.5597 Y77.083
G1 X5.1208 Y76.9561
G1 X6.679 Y76.7977
G1 X8.2337 Y76.6077
G1 X9.7843 Y76.3862
G1 X11.33 Y76.1333
G1 X12.8702 Y75.8492
G1 X14.4044 Y75.5339
G1 X15.9319 Y75.1876
G1 X17.4521 Y74.8104
G1 X18.9643 Y74.4025
G1 X20.4679 Y73.964
G1 X21.9623 Y73.4951
G1 X23.4469 Y72.996
G1 X24.9211 Y72.467
G1 X26.3843 Y71.9082
G1 X27.8359 Y71.3198
G1 X29.2752 Y70.7021
G1 X30.7017 Y70.0554
G1 X32.1148 Y69.3799
G1 X33.5139 Y68.676
G1 X34.8985 Y67.9438
G1 X36.268 Y67.1837
G1 X37.6217 Y66.3959
G1 X38.9592 Y65.581
G1 X40.28 Y64.739
G1 X41.5834 Y63.8705
G1 X42.8689 Y62.9758
G1 X44.136 Y62.0552
G1 X45.3842 Y61.109
G1 X46.613 Y60.1378
G1 X47.8219 Y59.1419
G1 X49.0103 Y58.1217
G1 X50.1778 Y57.0776
G1 X51.3238 Y56.0101
G1 X52.4481 Y54.9195
G1 X53.5499 Y53.8064
G1 X54.629 Y52.6712
G1 X55.6849 Y51.5143
G1 X56.7171 Y50.3363
G1 X57.7252 Y49.1376
G1 X58.7089 Y47.9188
G1 X59.6676 Y46.6802
G1 X60.601 Y45.4225
G1 X61.5087 Y44.1461
G1 X62.3904 Y42.8516
G1 X63.2457 Y41.5394
G1 X64.0742 Y40.2102
G1 X64.8755 Y38.8645
G1 X65.6495 Y37.5028
G1 X66.3957 Y36.1258
G1 X67.1138 Y34.7338
G1 X67.8036 Y33.3276
G1 X68.4647 Y31.9078
G1 X69.0969 Y30.4748
G1 X69.7 Y29.0293
G1 X70.2736 Y27.5718
G1 X70.8176 Y26.1031
G1 X71.3317 Y24.6236
G1 X71.8157 Y23.134
G1 X72.2694 Y21.6349
G1 X72.6926 Y20.1269
G1 X73.0852 Y18.6106
G1 X73.447 Y17.0867
G1 X73.7778 Y15.5558
G1 X74.0775 Y14.0185
G1 X74.346 Y12.4754
G1 X74.5832 Y10.9272
G1 X74.7889 Y9.3746
G1 X74.9632 Y7.818
G1 X75.1058 Y6.2583
G1 X75.2168 Y4.696
G1 X75.2962 Y3.1317
G1 X75.3438 Y1.5662
G1 X75.3597 Y0.
G1 X75.3438 Y-1.5473
G1 X75.2961 Y-3.0939
G1 X75.2167 Y-4.6392
G1 X75.1056 Y-6.1826
G1 X74.9628 Y-7.7233
G1 X74.7885 Y-9.2608
G1 X74.5826 Y-10.7944
G1 X74.3452 Y-12.3235
G1 X74.0765 Y-13.8473
G1 X73.7766 Y-15.3653
G1 X73.4456 Y-16.8768
G1 X73.0836 Y-18.3813
G1 X72.6908 Y-19.8779
G1 X72.2673 Y-21.3662
G1 X71.8134 Y-22.8455
G1 X71.3292 Y-24.3151
G1 X70.8149 Y-25.7745
G1 X70.2708 Y-27.223
G1 X69.697 Y-28.6601
G1 X69.0939 Y-30.0851
G1 X68.4616 Y-31.4973
G1 X67.8005 Y-32.8964
G1 X67.1108 Y-34.2815
G1 X66.3928 Y-35.6522
G1 X65.6468 Y-37.0078
G1 X64.8731 Y-38.3479
G1 X64.0721 Y-39.6717
G1 X63.244 Y-40.9789
G1 X62.3893 Y-42.2688
G1 X61.5083 Y-43.5408
G1 X60.6014 Y-44.7945
G1 X59.6689 Y-46.0294
G1 X58.7112 Y-47.2448
G1 X57.7288 Y-48.4403
G1 X56.7221 Y-49.6153
G1 X55.6915 Y-50.7695
G1 X54.6373 Y-51.9022
G1 X53.5602 Y-53.0131
G1 X52.4604 Y-54.1016
G1 X51.3385 Y-55.1673
G1 X50.195 Y-56.2097
G1 X49.0304 Y-57.2285
G1 X47.845 Y-58.2231
G1 X46.6395 Y-59.1932
G1 X45.4143 Y-60.1383
G1 X44.17 Y-61.0581
G1 X42.9071 Y-61.9521
G1 X41.626 Y-62.82
G1 X40.3274 Y-63.6614
G1 X39.0119 Y-64.476
G1 X37.6798 Y-65.2634
G1 X36.3319 Y-66.0233
G1 X34.9687 Y-66.7553
G1 X33.5907 Y-67.4592
G1 X32.1985 Y-68.1347
G1 X30.7928 Y-68.7814
G1 X29.3741 Y-69.3991
G1 X27.943 Y-69.9876
G1 X26.5002 Y-70.5466
G1 X25.0461 Y-71.0758
G1 X23.5815 Y-71.5751
G1 X22.107 Y-72.0441
G1 X20.6231 Y-72.4828
G1 X19.1306 Y-72.891
G1 X17.63 Y-73.2684
G1 X16.1219 Y-73.615
G1 X14.6071 Y-73.9304
G1 X13.0861 Y-74.2148
G1 X11.5595 Y-74.4678
G1 X10.0281 Y-74.6894
G1 X8.4925 Y-74.8796
G1 X6.9533 Y-75.0382
G1 X5.4112 Y-75.1651
G1 X3.8668 Y-75.2604
G1 X2.3207 Y-75.3239
G1 X0.7737 Y-75.3557
G1 X-0.7737
G1 X-2.3207 Y-75.3239
G1 X-3.8668 Y-75.2604
G1 X-5.4112 Y-75.1651
G1 X-6.9533 Y-75.0382
G1 X-8.4925 Y-74.8796
G1 X-10.0281 Y-74.6894
G1 X-11.5595 Y-74.4678
G1 X-13.0861 Y-74.2148
G1 X-14.6071 Y-73.9304
G1 X-16.1219 Y-73.615
G1 X-17.63 Y-73.2684
G1 X-19.1306 Y-72.891
G1 X-20.6231 Y-72.4828
G1 X-22.107 Y-72.0441
G1 X-23.5815 Y-71.5751
G1 X-25.0461 Y-71.0758
G1 X-26.5002 Y-70.5466
G1 X-27.943 Y-69.9876
G1 X-29.3741 Y-69.3991
G1 X-30.7928 Y-68.7814
G1 X-32.1985 Y-68.1347
G1 X-33.5907 Y-67.4592
G1 X-34.9687 Y-66.7553
G1 X-36.3319 Y-66.0233
G1 X-37.6798 Y-65.2634
G1 X-39.0119 Y-64.476
G1 X-40.3274 Y-63.6614
G1 X-41.626 Y-62.82
G1 X-42.9071 Y-61.9521
G1 X-44.17 Y-61.0581
G1 X-45.4143 Y-60.1383
G1 X-46.6395 Y-59.1932
G1 X-47.845 Y-58.2231
G1 X-49.0304 Y-57.2285
G1 X-50.195 Y-56.2097
G1 X-51.3385 Y-55.1673
G1 X-52.4604 Y-54.1016
G1 X-53.5602 Y-53.0131
G1 X-54.6373 Y-51.9022
G1 X-55.6915 Y-50.7695
G1 X-56.7221 Y-49.6153
G1 X-57.7288 Y-48.4403
G1 X-58.7112 Y-47.2448
G1 X-59.6689 Y-46.0294
G1 X-60.6014 Y-44.7945
G1 X-61.5083 Y-43.5408
G1 X-62.3893 Y-42.2688
G1 X-63.244 Y-40.9789
G1 X-64.0721 Y-39.6717
G1 X-64.8731 Y-38.3479
G1 X-65.6468 Y-37.0078
G1 X-66.3928 Y-35.6522
G1 X-67.1108 Y-34.2815
G1 X-67.8005 Y-32.8964
G1 X-68.4616 Y-31.4973
G1 X-69.0939 Y-30.0851
G1 X-69.697 Y-28.6601
G1 X-70.2708 Y-27.223
G1 X-70.8149 Y-25.7745
G1 X-71.3292 Y-24.3151
G1 X-71.8134 Y-22.8455
G1 X-72.2673 Y-21.3662
G1 X-72.6908 Y-19.8779
G1 X-73.0836 Y-18.3813
G1 X-73.4456 Y-16.8768
G1 X-73.7766 Y-15.3653
G1 X-74.0765 Y-13.8473
G1 X-74.3452 Y-12.3235
G1 X-74.5826 Y-10.7944
G1 X-74.7885 Y-9.2608
G1 X-74.9628 Y-7.7233
G1 X-75.1056 Y-6.1826
G1 X-75.2167 Y-4.6392
G1 X-75.2961 Y-3.0939
G1 X-75.3438 Y-1.5473
G1 X-75.3597 Y0.
G1 X-75.3438 Y1.5279
G1 X-75.2961 Y3.0551
G1 X-75.2166 Y4.581
G1 X-75.1055 Y6.1049
G1 X-74.9626 Y7.6261
G1 X-74.7882 Y9.1441
G1 X-74.5822 Y10.6581
G1 X-74.3447 Y12.1675
G1 X-74.0759 Y13.6716
G1 X-73.7759 Y15.1698
G1 X-73.4447 Y16.6614
G1 X-73.0826 Y18.1459
G1 X-72.6897 Y19.6224
G1 X-72.2662 Y21.0905
G1 X-71.8122 Y22.5494
G1 X-71.328 Y23.9986
G1 X-70.8137 Y25.4374
G1 X-70.2696 Y26.8652
G1 X-69.6959 Y28.2814
G1 X-69.0929 Y29.6853
G1 X-68.4608 Y31.0764
G1 X-67.7999 Y32.454
G1 X-67.1104 Y33.8176
G1 X-66.3928 Y35.1665
G1 X-65.6472 Y36.5002
G1 X-64.8741 Y37.8181
G1 X-64.0737 Y39.1197
G1 X-63.2464 Y40.4043
G1 X-62.3926 Y41.6714
G1 X-61.5126 Y42.9205
G1 X-60.6068 Y44.151
G1 X-59.6756 Y45.3624
G1 X-58.7194 Y46.5542
G1 X-57.7386 Y47.7258
G1 X-56.7336 Y48.8767
G1 X-55.7049 Y50.0065
G1 X-54.653 Y51.1147
G1 X-53.5782 Y52.2007
G1 X-52.481 Y53.2642
G1 X-51.362 Y54.3045
G1 X-50.2216 Y55.3214
G1 X-49.0602 Y56.3143
G1 X-47.8785 Y57.2829
G1 X-46.6768 Y58.2267
G1 X-45.4558 Y59.1452
G1 X-44.2159 Y60.0382
G1 X-42.9578 Y60.9051
G1 X-41.6818 Y61.7457
G1 X-40.3887 Y62.5596
G1 X-39.0789 Y63.3464
G1 X-37.753 Y64.1058
G1 X-36.4116 Y64.8374
G1 X-35.0553 Y65.541
G1 X-33.6846 Y66.2162
G1 X-32.3002 Y66.8628
G1 X-30.9026 Y67.4804
G1 X-29.4925 Y68.0687
G1 X-28.0704 Y68.6277
G1 X-26.6371 Y69.1569
G1 X-25.193 Y69.6562
G1 X-23.7388 Y70.1253
G1 X-22.2752 Y70.5641
G1 X-20.8028 Y70.9723
G1 X-19.3223 Y71.3499
G1 X-17.8341 Y71.6965
G1 X-16.3391 Y72.0121
G1 X-14.8379 Y72.2966
G1 X-13.3311 Y72.5497
G1 X-11.8193 Y72.7714
G1 X-10.3032 Y72.9617
G1 X-8.7835 Y73.1203
G1 X-7.2609 Y73.2473
G1 X-5.7359 Y73.3427
G1 X-4.2093 Y73.4062
G1 X-2.6817 Y73.438
G1 X-1.1537
G1 X0.3739 Y73.4062
G1 X1.9005 Y73.3427
G1 X3.4255 Y73.2473
G1 X4.9482 Y73.1203
G1 X6.4679 Y72.9617
G1 X7.9839 Y72.7714
G1 X9.4957 Y72.5497
G1 X11.0025 Y72.2966
G1 X12.5038 Y72.0121
G1 X13.9988 Y71.6965
G1 X15.4869 Y71.3499
G1 X16.9675 Y70.9723
G1 X18.4399 Y70.5641
G1 X19.9035 Y70.1253
G1 X21.3576 Y69.6562
G1 X22.8017 Y69.1569
G1 X24.2351 Y68.6277
G1 X25.6571 Y68.0687
G1 X27.0672 Y67.4804
G1 X28.4648 Y66.8628
G1 X29.8492 Y66.2162
G1 X31.2199 Y65.541
G1 X32.5762 Y64.8374
G1 X33.9176 Y64.1058
G1 X35.2435 Y63.3464
G1 X36.5533 Y62.5596
G1 X37.8465 Y61.7457
G1 X39.1224 Y60.9051
G1 X40.3806 Y60.0382
G1 X41.6204 Y59.1452
G1 X42.8415 Y58.2267
G1 X44.0431 Y57.2829
G1 X45.2249 Y56.3143
G1 X46.3862 Y55.3214
G1 X47.5266 Y54.3045
G1 X48.6457 Y53.2642
G1 X49.7428 Y52.2007
G1 X50.8176 Y51.1147
G1 X51.8696 Y50.0065
G1 X52.8983 Y48.8767
G1 X53.9032 Y47.7258
G1 X54.884 Y46.5542
G1 X55.8402 Y45.3624
G1 X56.7714 Y44.151
G1 X57.6772 Y42.9205
G1 X58.5572 Y41.6714
G1 X59.4111 Y40.4043
G1 X60.2384 Y39.1197
G1 X61.0388 Y37.8181
G1 X61.8119 Y36.5002
G1 X62.5574 Y35.1665
G1 X63.2751 Y33.8176
G1 X63.9645 Y32.454
G1 X64.6254 Y31.0764
G1 X65.2575 Y29.6853
G1 X65.8605 Y28.2814
G1 X66.4342 Y26.8652
G1 X66.9783 Y25.4374
G1 X67.4926 Y23.9986
G1 X67.9769 Y22.5494
G1 X68.4308 Y21.0905
G1 X68.8544 Y19.6224
G1 X69.2473 Y18.1459
G1 X69.6094 Y16.6614
G1 X69.9405 Y15.1698
G1 X70.2406 Y13.6716
G1 X70.5094 Y12.1675
G1 X70.7468 Y10.6581
G1 X70.9528 Y9.1441
G1 X71.1273 Y7.6261
G1 X71.2701 Y6.1049
G1 X71.3813 Y4.581
G1 X71.4607 Y3.0551
G1 X71.5084 Y1.5279
G1 X71.5243 Y0.
G1 X71.5084 Y-1.5079
G1 X71.4607 Y-3.0152
G1 X71.3813 Y-4.5211
G1 X71.2701 Y-6.0251
G1 X71.1272 Y-7.5263
G1 X70.9527 Y-9.0242
G1 X70.7467 Y-10.5181
G1 X70.5092 Y-12.0073
G1 X70.2404 Y-13.4912
G1 X69.9403 Y-14.9691
G1 X69.6092 Y-16.4403
G1 X69.2471 Y-17.9042
G1 X68.8543 Y-19.3602
G1 X68.4308 Y-20.8075
G1 X67.9769 Y-22.2456
G1 X67.4928 Y-23.6738
G1 X66.9787 Y-25.0915
G1 X66.4348 Y-26.498
G1 X65.8614 Y-27.8928
G1 X65.2587 Y-29.2751
G1 X64.6269 Y-30.6445
G1 X63.9665 Y-32.0002
G1 X63.2776 Y-33.3417
G1 X62.5606 Y-34.6683
G1 X61.8158 Y-35.9796
G1 X61.0435 Y-37.2749
G1 X60.2441 Y-38.5536
G1 X59.4179 Y-39.8151
G1 X58.5652 Y-41.059
G1 X57.6866 Y-42.2846
G1 X56.7823 Y-43.4914
G1 X55.8527 Y-44.6788
G1 X54.8983 Y-45.8464
G1 X53.9196 Y-46.9937
G1 X52.9168 Y-48.12
G1 X51.8905 Y-49.225
G1 X50.8412 Y-50.308
G1 X49.7693 Y-51.3687
G1 X48.6752 Y-52.4066
G1 X47.5595 Y-53.4212
G1 X46.4226 Y-54.412
G1 X45.2652 Y-55.3786
G1 X44.0876 Y-56.3206
G1 X42.8903 Y-57.2376
G1 X41.6741 Y-58.1291
G1 X40.4393 Y-58.9948
G1 X39.1865 Y-59.8343
G1 X37.9163 Y-60.6472
G1 X36.6293 Y-61.4331
G1 X35.3259 Y-62.1917
G1 X34.0069 Y-62.9226
G1 X32.6727 Y-63.6256
G1 X31.3241 Y-64.3003
G1 X29.9615 Y-64.9464
G1 X28.5855 Y-65.5636
G1 X27.1969 Y-66.1517
G1 X25.7962 Y-66.7104
G1 X24.384 Y-67.2395
G1 X22.961 Y-67.7386
G1 X21.5277 Y-68.2076
G1 X20.0849 Y-68.6463
G1 X18.6332 Y-69.0545
G1 X17.1732 Y-69.432
G1 X15.7055 Y-69.7787
G1 X14.2309 Y-70.0943
G1 X12.75 Y-70.3787
G1 X11.2633 Y-70.6319
G1 X9.7717 Y-70.8536
G1 X8.2757 Y-71.0439
G1 X6.7761 Y-71.2026
G1 X5.2734 Y-71.3296
G1 X3.7684 Y-71.425
G1 X2.2617 Y-71.4885
G1 X0.754 Y-71.5203
G1 X-0.754
G1 X-2.2617 Y-71.4885
G1 X-3.7684 Y-71.425
G1 X-5.2734 Y-71.3296
G1 X-6.7761 Y-71.2026
G1 X-8.2757 Y-71.0439
G1 X-9.7717 Y-70.8536
G1 X-11.2633 Y-70.6319
G1 X-12.75 Y-70.3787
G1 X-14.2309 Y-70.0943
G1 X-15.7055 Y-69.7787
G1 X-17.1732 Y-69.432
G1 X-18.6332 Y-69.0545
G1 X-20.0849 Y-68.6463
G1 X-21.5277 Y-68.2076
G1 X-22.961 Y-67.7386
G1 X-24.384 Y-67.2395
G1 X-25.7962 Y-66.7104
G1 X-27.1969 Y-66.1517
G1 X-28.5855 Y-65.5636
G1 X-29.9615 Y-64.9464
G1 X-31.3241 Y-64.3003
G1 X-32.6727 Y-63.6256
G1 X-34.0069 Y-62.9226
G1 X-35.3259 Y-62.1917
G1 X-36.6293 Y-61.4331
G1 X-37.9163 Y-60.6472
G1 X-39.1865 Y-59.8343
G1 X-40.4393 Y-58.9948
G1 X-41.6741 Y-58.1291
G1 X-42.8903 Y-57.2376
G1 X-44.0876 Y-56.3206
G1 X-45.2652 Y-55.3786
G1 X-46.4226 Y-54.412
G1 X-47.5595 Y-53.4212
G1 X-48.6752 Y-52.4066
G1 X-49.7693 Y-51.3687
G1 X-50.8412 Y-50.308
G1 X-51.8905 Y-49.225
G1 X-52.9168 Y-48.12
G1 X-53.9196 Y-46.9937
G1 X-54.8983 Y-45.8464
G1 X-55.8527 Y-44.6788
G1 X-56.7823 Y-43.4914
G1 X-57.6866 Y-42.2846
G1 X-58.5652 Y-41.059
G1 X-59.4179 Y-39.8151
G1 X-60.2441 Y-38.5536
G1 X-61.0435 Y-37.2749
G1 X-61.8158 Y-35.9796
G1 X-62.5606 Y-34.6683
G1 X-63.2776 Y-33.3417
G1 X-63.9665 Y-32.0002
G1 X-64.6269 Y-30.6445
G1 X-65.2587 Y-29.2751
G1 X-65.8614 Y-27.8928
G1 X-66.4348 Y-26.498
G1 X-66.9787 Y-25.0915
G1 X-67.4928 Y-23.6738
G1 X-67.9769 Y-22.2456
G1 X-68.4308 Y-20.8075
G1 X-68.8543 Y-19.3602
G1 X-69.2471 Y-17.9042
G1 X-69.6092 Y-16.4403
G1 X-69.9403 Y-14.9691
G1 X-70.2404 Y-13.4912
G1 X-70.5092 Y-12.0073
G1 X-70.7467 Y-10.5181
G1 X-70.9527 Y-9.0242
G1 X-71.1272 Y-7.5263
G1 X-71.2701 Y-6.0251
G1 X-71.3813 Y-4.5211
G1 X-71.4607 Y-3.0152
G1 X-71.5084 Y-1.5079
G1 X-71.5243 Y0.
G1 X-71.5084 Y1.4875
G1 X-71.4607 Y2.9743
G1 X-71.3813 Y4.4597
G1 X-71.2701 Y5.9431
G1 X-71.1273 Y7.4238
G1 X-70.9528 Y8.9011
G1 X-70.7468 Y10.3743
G1 X-70.5094 Y11.8428
G1 X-70.2407 Y13.3059
G1 X-69.9407 Y14.7629
G1 X-69.6097 Y16.2132
G1 X-69.2478 Y17.656
G1 X-68.8551 Y19.0908
G1 X-68.4319 Y20.5169
G1 X-67.9782 Y21.9336
G1 X-67.4944 Y23.3403
G1 X-66.9807 Y24.7363
G1 X-66.4372 Y26.1211
G1 X-65.8643 Y27.4939
G1 X-65.2621 Y28.8541
G1 X-64.6311 Y30.2012
G1 X-63.9714 Y31.5345
G1 X-63.2833 Y32.8533
G1 X-62.5672 Y34.1572
G1 X-61.8234 Y35.4455
G1 X-61.0523 Y36.7175
G1 X-60.2542 Y37.9728
G1 X-59.4294 Y39.2108
G1 X-58.5783 Y40.4309
G1 X-57.7014 Y41.6325
G1 X-56.799 Y42.815
G1 X-55.8715 Y43.978
G1 X-54.9194 Y45.121
G1 X-53.943 Y46.2433
G1 X-52.9429 Y47.3445
G1 X-51.9195 Y48.4241
G1 X-50.8733 Y49.4816
G1 X-49.8047 Y50.5164
G1 X-48.7143 Y51.5282
G1 X-47.6024 Y52.5165
G1 X-46.4697 Y53.4808
G1 X-45.3167 Y54.4206
G1 X-44.1438 Y55.3356
G1 X-42.9517 Y56.2254
G1 X-41.7408 Y57.0894
G1 X-40.5117 Y57.9274
G1 X-39.265 Y58.7389
G1 X-38.0012 Y59.5236
G1 X-36.721 Y60.2811
G1 X-35.4248 Y61.0111
G1 X-34.1134 Y61.7132
G1 X-32.7873 Y62.3871
G1 X-31.447 Y63.0325
G1 X-30.0933 Y63.6492
G1 X-28.7267 Y64.2367
G1 X-27.3478 Y64.795
G1 X-25.9574 Y65.3236
G1 X-24.5559 Y65.8224
G1 X-23.1442 Y66.2912
G1 X-21.7227 Y66.7296
G1 X-20.2922 Y67.1376
G1 X-18.8533 Y67.5149
G1 X-17.4066 Y67.8614
G1 X-15.9529 Y68.1769
G1 X-14.4928 Y68.4613
G1 X-13.0269 Y68.7144
G1 X-11.5559 Y68.9361
G1 X-10.0806 Y69.1263
G1 X-8.6015 Y69.285
G1 X-7.1194 Y69.412
G1 X-5.6349 Y69.5073
G1 X-4.1487 Y69.5709
G1 X-2.6615 Y69.6026
G1 X-1.1739
G1 X0.3133 Y69.5709
G1 X1.7995 Y69.5073
G1 X3.284 Y69.412
G1 X4.7662 Y69.285
G1 X6.2452 Y69.1263
G1 X7.7206 Y68.9361
G1 X9.1915 Y68.7144
G1 X10.6574 Y68.4613
G1 X12.1175 Y68.1769
G1 X13.5713 Y67.8614
G1 X15.0179 Y67.5149
G1 X16.4568 Y67.1376
G1 X17.8873 Y66.7296
G1 X19.3088 Y66.2912
G1 X20.7206 Y65.8224
G1 X22.122 Y65.3236
G1 X23.5125 Y64.795
G1 X24.8913 Y64.2367
G1 X26.2579 Y63.6492
G1 X27.6117 Y63.0325
G1 X28.9519 Y62.3871
G1 X30.278 Y61.7132
G1 X31.5895 Y61.0111
G1 X32.8856 Y60.2811
G1 X34.1659 Y59.5236
G1 X35.4296 Y58.7389
G1 X36.6763 Y57.9274
G1 X37.9054 Y57.0894
G1 X39.1163 Y56.2254
G1 X40.3085 Y55.3356
G1 X41.4813 Y54.4206
G1 X42.6344 Y53.4808
G1 X43.7671 Y52.5165
G1 X44.8789 Y51.5282
G1 X45.9694 Y50.5164
G1 X47.038 Y49.4816
G1 X48.0842 Y48.4241
G1 X49.1076 Y47.3445
G1 X50.1077 Y46.2433
G1 X51.084 Y45.121
G1 X52.0361 Y43.978
G1 X52.9636 Y42.815
G1 X53.866 Y41.6325
G1 X54.7429 Y40.4309
G1 X55.594 Y39.2108
G1 X56.4188 Y37.9728
G1 X57.2169 Y36.7175
G1 X57.9881 Y35.4455
G1 X58.7319 Y34.1572
G1 X59.4479 Y32.8533
G1 X60.136 Y31.5345
G1 X60.7957 Y30.2012
G1 X61.4268 Y28.8541
G1 X62.0289 Y27.4939
G1 X62.6019 Y26.1211
G1 X63.1453 Y24.7363
G1 X63.6591 Y23.3403
G1 X64.1429 Y21.9336
G1 X64.5965 Y20.5169
G1 X65.0198 Y19.0908
G1 X65.4124 Y17.656
G1 X65.7744 Y16.2132
G1 X66.1054 Y14.7629
G1 X66.4053 Y13.3059
G1 X66.6741 Y11.8428
G1 X66.9115 Y10.3743
G1 X67.1175 Y8.9011
G1 X67.2919 Y7.4238
G1 X67.4348 Y5.9431
G1 X67.5459 Y4.4597
G1 X67.6254 Y2.9743
G1 X67.673 Y1.4875
G1 X67.6889 Y0.
G1 X67.6731 Y-1.4664
G1 X67.6254 Y-2.9322
G1 X67.546 Y-4.3966
G1 X67.4349 Y-5.8589
G1 X67.2921 Y-7.3185
G1 X67.1178 Y-8.7746
G1 X66.9119 Y-10.2266
G1 X66.6747 Y-11.6738
G1 X66.4061 Y-13.1155
G1 X66.1064 Y-14.5511
G1 X65.7757 Y-15.9799
G1 X65.414 Y-17.4011
G1 X65.0217 Y-18.8142
G1 X64.5988 Y-20.2184
G1 X64.1456 Y-21.6132
G1 X63.6623 Y-22.9978
G1 X63.1492 Y-24.3716
G1 X62.6063 Y-25.734
G1 X62.0341 Y-27.0843
G1 X61.4328 Y-28.4218
G1 X60.8027 Y-29.7461
G1 X60.144 Y-31.0564
G1 X59.457 Y-32.3521
G1 X58.7422 Y-33.6326
G1 X57.9998 Y-34.8973
G1 X57.2301 Y-36.1456
G1 X56.4336 Y-37.377
G1 X55.6106 Y-38.5908
G1 X54.7615 Y-39.7866
G1 X53.8867 Y-40.9636
G1 X52.9866 Y-42.1214
G1 X52.0616 Y-43.2595
G1 X51.1122 Y-44.3772
G1 X50.1388 Y-45.4741
G1 X49.1419 Y-46.5496
G1 X48.1219 Y-47.6034
G1 X47.0793 Y-48.6347
G1 X46.0146 Y-49.6432
G1 X44.9283 Y-50.6285
G1 X43.8209 Y-51.5899
G1 X42.6929 Y-52.5272
G1 X41.5449 Y-53.4398
G1 X40.3774 Y-54.3273
G1 X39.191 Y-55.1893
G1 X37.9862 Y-56.0254
G1 X36.7635 Y-56.8352
G1 X35.5235 Y-57.6183
G1 X34.2669 Y-58.3744
G1 X32.9942 Y-59.1031
G1 X31.7061 Y-59.804
G1 X30.403 Y-60.4769
G1 X29.0857 Y-61.1213
G1 X27.7547 Y-61.7371
G1 X26.4107 Y-62.3239
G1 X25.0543 Y-62.8814
G1 X23.6861 Y-63.4095
G1 X22.3068 Y-63.9077
G1 X20.917 Y-64.376
G1 X19.5175 Y-64.8141
G1 X18.1087 Y-65.2217
G1 X16.6915 Y-65.5987
G1 X15.2664 Y-65.9449
G1 X13.8341 Y-66.2602
G1 X12.3954 Y-66.5443
G1 X10.9509 Y-66.7972
G1 X9.5012 Y-67.0188
G1 X8.047 Y-67.2089
G1 X6.5891 Y-67.3675
G1 X5.128 Y-67.4944
G1 X3.6646 Y-67.5897
G1 X2.1995 Y-67.6532
G1 X0.7333 Y-67.685
G1 X-0.7333
G1 X-2.1995 Y-67.6532
G1 X-3.6646 Y-67.5897
G1 X-5.128 Y-67.4944
G1 X-6.5891 Y-67.3675
G1 X-8.047 Y-67.2089
G1 X-9.5012 Y-67.0188
G1 X-10.9509 Y-66.7972
G1 X-12.3954 Y-66.5443
G1 X-13.8341 Y-66.2602
G1 X-15.2664 Y-65.9449
G1 X-16.6915 Y-65.5987
G1 X-18.1087 Y-65.2217
G1 X-19.5175 Y-64.8141
G1 X-20.917 Y-64.376
G1 X-22.3068 Y-63.9077
G1 X-23.6861 Y-63.4095
G1 X-25.0543 Y-62.8814
G1 X-26.4107 Y-62.3239
G1 X-27.7547 Y-61.7371
G1 X-29.0857 Y-61.1213
G1 X-30.403 Y-60.4769
G1 X-31.7061 Y-59.804
G1 X-32.9942 Y-59.1031
G1 X-34.2669 Y-58.3744
G1 X-35.5235 Y-57.6183
G1 X-36.7635 Y-56.8352
G1 X-37.9862 Y-56.0254
G1 X-39.191 Y-55.1893
G1 X-40.3774 Y-54.3273
G1 X-41.5449 Y-53.4398
G1 X-42.6929 Y-52.5272
G1 X-43.8209 Y-51.5899
G1 X-44.9283 Y-50.6285
G1 X-46.0146 Y-49.6432
G1 X-47.0793 Y-48.6347
G1 X-48.1219 Y-47.6034
G1 X-49.1419 Y-46.5496
G1 X-50.1388 Y-45.4741
G1 X-51.1122 Y-44.3772
G1 X-52.0616 Y-43.2595
G1 X-52.9866 Y-42.1214
G1 X-53.8867 Y-40.9636
G1 X-54.7615 Y-39.7866
G1 X-55.6106 Y-38.5908
G1 X-56.4336 Y-37.377
G1 X-57.2301 Y-36.1456
G1 X-57.9998 Y-34.8973
G1 X-58.7422 Y-33.6326
G1 X-59.457 Y-32.3521
G1 X-60.144 Y-31.0564
G1 X-60.8027 Y-29.7461
G1 X-61.4328 Y-28.4218
G1 X-62.0341 Y-27.0843
G1 X-62.6063 Y-25.734
G1 X-63.1492 Y-24.3716
G1 X-63.6623 Y-22.9978
G1 X-64.1456 Y-21.6132
G1 X-64.5988 Y-20.2184
G1 X-65.0217 Y-18.8142
G1 X-65.414 Y-17.4011
G1 X-65.7757 Y-15.9799
G1 X-66.1064 Y-14.5511
G1 X-66.4061 Y-13.1155
G1 X-66.6747 Y-11.6738
G1 X-66.9119 Y-10.2266
G1 X-67.1178 Y-8.7746
G1 X-67.2921 Y-7.3185
G1 X-67.4349 Y-5.8589
G1 X-67.546 Y-4.3966
G1 X-67.6254 Y-2.9322
G1 X-67.6731 Y-1.4664
G1 X-67.6889 Y0.
G1 X-67.6731 Y1.4448
G1 X-67.6255 Y2.889
G1 X-67.5461 Y4.3317
G1 X-67.4351 Y5.7723
G1 X-67.2925 Y7.2102
G1 X-67.1184 Y8.6446
G1 X-66.9127 Y10.0748
G1 X-66.6757 Y11.5001
G1 X-66.4075 Y12.9199
G1 X-66.1081 Y14.3335
G1 X-65.7777 Y15.7401
G1 X-65.4166 Y17.1391
G1 X-65.0247 Y18.5299
G1 X-64.6025 Y19.9117
G1 X-64.1499 Y21.2839
G1 X-63.6674 Y22.6459
G1 X-63.155 Y23.9969
G1 X-62.6131 Y25.3363
G1 X-62.0418 Y26.6636
G1 X-61.4416 Y27.9779
G1 X-60.8126 Y29.2787
G1 X-60.1552 Y30.5654
G1 X-59.4697 Y31.8374
G1 X-58.7565 Y33.094
G1 X-58.0158 Y34.3346
G1 X-57.248 Y35.5586
G1 X-56.4535 Y36.7655
G1 X-55.6327 Y37.9546
G1 X-54.786 Y39.1255
G1 X-53.9137 Y40.2774
G1 X-53.0164 Y41.4099
G1 X-52.0944 Y42.5224
G1 X-51.1482 Y43.6144
G1 X-50.1782 Y44.6854
G1 X-49.1849 Y45.7347
G1 X-48.1689 Y46.762
G1 X-47.1304 Y47.7668
G1 X-46.0702 Y48.7484
G1 X-44.9887 Y49.7066
G1 X-43.8864 Y50.6408
G1 X-42.7638 Y51.5505
G1 X-41.6215 Y52.4353
G1 X-40.4601 Y53.2949
G1 X-39.28 Y54.1287
G1 X-38.0819 Y54.9364
G1 X-36.8664 Y55.7176
G1 X-35.634 Y56.4718
G1 X-34.3853 Y57.1989
G1 X-33.121 Y57.8983
G1 X-31.8416 Y58.5698
G1 X-30.5477 Y59.213
G1 X-29.24 Y59.8276
G1 X-27.9192 Y60.4134
G1 X-26.5858 Y60.97
G1 X-25.2405 Y61.4972
G1 X-23.8839 Y61.9947
G1 X-22.5168 Y62.4623
G1 X-21.1397 Y62.8997
G1 X-19.7533 Y63.3068
G1 X-18.3583 Y63.6833
G1 X-16.9554 Y64.0291
G1 X-15.5452 Y64.344
G1 X-14.1284 Y64.6278
G1 X-12.7058 Y64.8805
G1 X-11.2779 Y65.1018
G1 X-9.8455 Y65.2917
G1 X-8.4093 Y65.4501
G1 X-6.97 Y65.5769
G1 X-5.5282 Y65.6721
G1 X-4.0847 Y65.7356
G1 X-2.6401 Y65.7673
G1 X-1.1952
G1 X0.2493 Y65.7356
G1 X1.6929 Y65.6721
G1 X3.1346 Y65.5769
G1 X4.574 Y65.4501
G1 X6.0102 Y65.2917
G1 X7.4425 Y65.1018
G1 X8.8704 Y64.8805
G1 X10.2931 Y64.6278
G1 X11.7098 Y64.344
G1 X13.12 Y64.0291
G1 X14.5229 Y63.6833
G1 X15.9179 Y63.3068
G1 X17.3043 Y62.8997
G1 X18.6814 Y62.4623
G1 X20.0486 Y61.9947
G1 X21.4051 Y61.4972
G1 X22.7504 Y60.97
G1 X24.0838 Y60.4134
G1 X25.4047 Y59.8276
G1 X26.7124 Y59.213
G1 X28.0062 Y58.5698
G1 X29.2856 Y57.8983
G1 X30.55 Y57.1989
G1 X31.7986 Y56.4718
G1 X33.031 Y55.7176
G1 X34.2466 Y54.9364
G1 X35.4447 Y54.1287
G1 X36.6247 Y53.2949
G1 X37.7862 Y52.4353
G1 X38.9284 Y51.5505
G1 X40.051 Y50.6408
G1 X41.1533 Y49.7066
G1 X42.2349 Y48.7484
G1 X43.2951 Y47.7668
G1 X44.3335 Y46.762
G1 X45.3496 Y45.7347
G1 X46.3428 Y44.6854
G1 X47.3128 Y43.6144
G1 X48.259 Y42.5224
G1 X49.181 Y41.4099
G1 X50.0784 Y40.2774
G1 X50.9506 Y39.1255
G1 X51.7973 Y37.9546
G1 X52.6181 Y36.7655
G1 X53.4126 Y35.5586
G1 X54.1804 Y34.3346
G1 X54.9211 Y33.094
G1 X55.6344 Y31.8374
G1 X56.3199 Y30.5654
G1 X56.9773 Y29.2787
G1 X57.6062 Y27.9779
G1 X58.2065 Y26.6636
G1 X58.7777 Y25.3363
G1 X59.3196 Y23.9969
G1 X59.832 Y22.6459
G1 X60.3146 Y21.2839
G1 X60.7671 Y19.9117
G1 X61.1894 Y18.5299
G1 X61.5812 Y17.1391
G1 X61.9424 Y15.7401
G1 X62.2727 Y14.3335
G1 X62.5721 Y12.9199
G1 X62.8404 Y11.5001
G1 X63.0774 Y10.0748
G1 X63.283 Y8.6446
G1 X63.4572 Y7.2102
G1 X63.5998 Y5.7723
G1 X63.7108 Y4.3317
G1 X63.7901 Y2.889
G1 X63.8377 Y1.4448
G1 X63.8536 Y0.
G1 X63.8377 Y-1.4226
G1 X63.7902 Y-2.8445
G1 X63.711 Y-4.2649
G1 X63.6002 Y-5.6833
G1 X63.4578 Y-7.0988
G1 X63.2838 Y-8.5108
G1 X63.0785 Y-9.9186
G1 X62.8419 Y-11.3215
G1 X62.5741 Y-12.7187
G1 X62.2752 Y-14.1097
G1 X61.9454 Y-15.4936
G1 X61.5848 Y-16.8698
G1 X61.1937 Y-18.2377
G1 X60.7722 Y-19.5965
G1 X60.3205 Y-20.9456
G1 X59.8389 Y-22.2842
G1 X59.3276 Y-23.6119
G1 X58.7868 Y-24.9278
G1 X58.2168 Y-26.2313
G1 X57.618 Y-27.5218
G1 X56.9905 Y-28.7986
G1 X56.3348 Y-30.0612
G1 X55.6511 Y-31.3088
G1 X54.9397 Y-32.5408
G1 X54.2011 Y-33.7568
G1 X53.4356 Y-34.9559
G1 X52.6435 Y-36.1377
G1 X51.8254 Y-37.3016
G1 X50.9815 Y-38.447
G1 X50.1123 Y-39.5732
G1 X49.2182 Y-40.6799
G1 X48.2996 Y-41.7663
G1 X47.3571 Y-42.832
G1 X46.3911 Y-43.8764
G1 X45.4021 Y-44.8991
G1 X44.3905 Y-45.8995
G1 X43.3569 Y-46.877
G1 X42.3018 Y-47.8314
G1 X41.2257 Y-48.7619
G1 X40.1291 Y-49.6683
G1 X39.0125 Y-50.55
G1 X37.8767 Y-51.4066
G1 X36.722 Y-52.2377
G1 X35.549 Y-53.0429
G1 X34.3585 Y-53.8217
G1 X33.1509 Y-54.5738
G1 X31.9268 Y-55.2988
G1 X30.6869 Y-55.9964
G1 X29.4317 Y-56.6662
G1 X28.1619 Y-57.3078
G1 X26.8782 Y-57.921
G1 X25.5811 Y-58.5054
G1 X24.2713 Y-59.0608
G1 X22.9495 Y-59.5869
G1 X21.6162 Y-60.0834
G1 X20.2723 Y-60.5501
G1 X18.9183 Y-60.9867
G1 X17.5548 Y-61.3931
G1 X16.1827 Y-61.7689
G1 X14.8025 Y-62.1141
G1 X13.415 Y-62.4285
G1 X12.0209 Y-62.7119
G1 X10.6207 Y-62.9641
G1 X9.2153 Y-63.1851
G1 X7.8053 Y-63.3747
G1 X6.3915 Y-63.5329
G1 X4.9744 Y-63.6595
G1 X3.5549 Y-63.7545
G1 X2.1337 Y-63.8179
G1 X0.7113 Y-63.8496
G1 X-0.7113
G1 X-2.1337 Y-63.8179
G1 X-3.5549 Y-63.7545
G1 X-4.9744 Y-63.6595
G1 X-6.3915 Y-63.5329
G1 X-7.8053 Y-63.3747
G1 X-9.2153 Y-63.1851
G1 X-10.6207 Y-62.9641
G1 X-12.0209 Y-62.7119
G1 X-13.415 Y-62.4285
G1 X-14.8025 Y-62.1141
G1 X-16.1827 Y-61.7689
G1 X-17.5548 Y-61.3931
G1 X-18.9183 Y-60.9867
G1 X-20.2723 Y-60.5501
G1 X-21.6162 Y-60.0834
G1 X-22.9495 Y-59.5869
G1 X-24.2713 Y-59.0608
G1 X-25.5811 Y-58.5054
G1 X-26.8782 Y-57.921
G1 X-28.1619 Y-57.3078
G1 X-29.4317 Y-56.6662
G1 X-30.6869 Y-55.9964
G1 X-31.9268 Y-55.2988
G1 X-33.1509 Y-54.5738
G1 X-34.3585 Y-53.8217
G1 X-35.549 Y-53.0429
G1 X-36.722 Y-52.2377
G1 X-37.8767 Y-51.4066
G1 X-39.0125 Y-50.55
G1 X-40.1291 Y-49.6683
G1 X-41.2257 Y-48.7619
G1 X-42.3018 Y-47.8314
G1 X-43.3569 Y-46.877
G1 X-44.3905 Y-45.8995
G1 X-45.4021 Y-44.8991
G1 X-46.3911 Y-43.8764
G1 X-47.3571 Y-42.832
G1 X-48.2996 Y-41.7663
G1 X-49.2182 Y-40.6799
G1 X-50.1123 Y-39.5732
G1 X-50.9815 Y-38.447
G1 X-51.8254 Y-37.3016
G1 X-52.6435 Y-36.1377
G1 X-53.4356 Y-34.9559
G1 X-54.2011 Y-33.7568
G1 X-54.9397 Y-32.5408
G1 X-55.6511 Y-31.3088
G1 X-56.3348 Y-30.0612
G1 X-56.9905 Y-28.7986
G1 X-57.618 Y-27.5218
G1 X-58.2168 Y-26.2313
G1 X-58.7868 Y-24.9278
G1 X-59.3276 Y-23.6119
G1 X-59.8389 Y-22.2842
G1 X-60.3205 Y-20.9456
G1 X-60.7722 Y-19.5965
G1 X-61.1937 Y-18.2377
G1 X-61.5848 Y-16.8698
G1 X-61.9454 Y-15.4936
G1 X-62.2752 Y-14.1097
G1 X-62.5741 Y-12.7187
G1 X-62.8419 Y-11.3215
G1 X-63.0785 Y-9.9186
G1 X-63.2838 Y-8.5108
G1 X-63.4578 Y-7.0988
G1 X-63.6002 Y-5.6833
G1 X-63.711 Y-4.2649
G1 X-63.7902 Y-2.8445
G1 X-63.8377 Y-1.4226
G1 X-63.8536 Y0.
G1 X-63.8378 Y1.3997
G1 X-63.7903 Y2.7987
G1 X-63.7113 Y4.1963
G1 X-63.6006 Y5.5917
G1 X-63.4585 Y6.9843
G1 X-63.285 Y8.3733
G1 X-63.0801 Y9.758
G1 X-62.8439 Y11.1378
G1 X-62.5766 Y12.5118
G1 X-62.2784 Y13.8795
G1 X-61.9493 Y15.2401
G1 X-61.5896 Y16.5929
G1 X-61.1993 Y17.9372
G1 X-60.7788 Y19.2723
G1 X-60.3282 Y20.5976
G1 X-59.8478 Y21.9124
G1 X-59.3378 Y23.216
G1 X-58.7985 Y24.5078
G1 X-58.2301 Y25.787
G1 X-57.6329 Y27.053
G1 X-57.0073 Y28.3052
G1 X-56.3536 Y29.543
G1 X-55.672 Y30.7657
G1 X-54.963 Y31.9726
G1 X-54.2269 Y33.1633
G1 X-53.4641 Y34.337
G1 X-52.6749 Y35.4931
G1 X-51.8598 Y36.6311
G1 X-51.0192 Y37.7504
G1 X-50.1535 Y38.8505
G1 X-49.2632 Y39.9307
G1 X-48.3487 Y40.9904
G1 X-47.4105 Y42.0293
G1 X-46.449 Y43.0467
G1 X-45.4648 Y44.0421
G1 X-44.4584 Y45.0149
G1 X-43.4302 Y45.9648
G1 X-42.3808 Y46.8913
G1 X-41.3108 Y47.7937
G1 X-40.2206 Y48.6718
G1 X-39.1108 Y49.525
G1 X-37.9821 Y50.3529
G1 X-36.8349 Y51.1551
G1 X-35.67 Y51.9311
G1 X-34.4877 Y52.6806
G1 X-33.2888 Y53.4032
G1 X-32.0739 Y54.0986
G1 X-30.8436 Y54.7663
G1 X-29.5986 Y55.406
G1 X-28.3394 Y56.0174
G1 X-27.0666 Y56.6002
G1 X-25.7811 Y57.1541
G1 X-24.4833 Y57.6788
G1 X-23.1741 Y58.1741
G1 X-21.8539 Y58.6396
G1 X-20.5236 Y59.0752
G1 X-19.1838 Y59.4806
G1 X-17.8352 Y59.8556
G1 X-16.4784 Y60.2
G1 X-15.1142 Y60.5137
G1 X-13.7432 Y60.7965
G1 X-12.3663 Y61.0482
G1 X-10.9839 Y61.2687
G1 X-9.597 Y61.458
G1 X-8.2061 Y61.6158
G1 X-6.812 Y61.7422
G1 X-5.4154 Y61.8371
G1 X-4.017 Y61.9003
G1 X-2.6176 Y61.9319
G1 X-1.2178
G1 X0.1817 Y61.9003
G1 X1.5801 Y61.8371
G1 X2.9766 Y61.7422
G1 X4.3707 Y61.6158
G1 X5.7616 Y61.458
G1 X7.1486 Y61.2687
G1 X8.5309 Y61.0482
G1 X9.9079 Y60.7965
G1 X11.2788 Y60.5137
G1 X12.643 Y60.2
G1 X13.9998 Y59.8556
G1 X15.3484 Y59.4806
G1 X16.6883 Y59.0752
G1 X18.0186 Y58.6396
G1 X19.3387 Y58.1741
G1 X20.648 Y57.6788
G1 X21.9457 Y57.1541
G1 X23.2313 Y56.6002
G1 X24.504 Y56.0174
G1 X25.7632 Y55.406
G1 X27.0083 Y54.7663
G1 X28.2386 Y54.0986
G1 X29.4535 Y53.4032
G1 X30.6524 Y52.6806
G1 X31.8346 Y51.9311
G1 X32.9996 Y51.1551
G1 X34.1467 Y50.3529
G1 X35.2755 Y49.525
G1 X36.3852 Y48.6718
G1 X37.4754 Y47.7937
G1 X38.5455 Y46.8913
G1 X39.5948 Y45.9648
G1 X40.623 Y45.0149
G1 X41.6295 Y44.0421
G1 X42.6137 Y43.0467
G1 X43.5751 Y42.0293
G1 X44.5133 Y40.9904
G1 X45.4278 Y39.9307
G1 X46.3182 Y38.8505
G1 X47.1838 Y37.7504
G1 X48.0244 Y36.6311
G1 X48.8395 Y35.4931
G1 X49.6287 Y34.337
G1 X50.3915 Y33.1633
G1 X51.1276 Y31.9726
G1 X51.8367 Y30.7657
G1 X52.5182 Y29.543
G1 X53.172 Y28.3052
G1 X53.7976 Y27.053
G1 X54.3947 Y25.787
G1 X54.9631 Y24.5078
G1 X55.5025 Y23.216
G1 X56.0125 Y21.9124
G1 X56.4929 Y20.5976
G1 X56.9435 Y19.2723
G1 X57.364 Y17.9372
G1 X57.7542 Y16.5929
G1 X58.1139 Y15.2401
G1 X58.443 Y13.8795
G1 X58.7413 Y12.5118
G1 X59.0086 Y11.1378
G1 X59.2447 Y9.758
G1 X59.4496 Y8.3733
G1 X59.6232 Y6.9843
G1 X59.7653 Y5.5917
G1 X59.8759 Y4.1963
G1 X59.955 Y2.7987
G1 X60.0024 Y1.3997
G1 X60.0182 Y0.
G1 X60.0024 Y-1.3762
G1 X59.9551 Y-2.7516
G1 X59.8763 Y-4.1256
G1 X59.7659 Y-5.4975
G1 X59.6242 Y-6.8664
G1 X59.451 Y-8.2318
G1 X59.2467 Y-9.5928
G1 X59.0111 Y-10.9487
G1 X58.7446 Y-12.2989
G1 X58.4471 Y-13.6427
G1 X58.1189 Y-14.9792
G1 X57.7602 Y-16.3079
G1 X57.3711 Y-17.628
G1 X56.9518 Y-18.9389
G1 X56.5026 Y-20.2398
G1 X56.0236 Y-21.53
G1 X55.5152 Y-22.8089
G1 X54.9776 Y-24.0759
G1 X54.4111 Y-25.3301
G1 X53.816 Y-26.5711
G1 X53.1926 Y-27.7981
G1 X52.5412 Y-29.0104
G1 X51.8622 Y-30.2075
G1 X51.156 Y-31.3888
G1 X50.4228 Y-32.5535
G1 X49.6631 Y-33.7011
G1 X48.8773 Y-34.831
G1 X48.0658 Y-35.9425
G1 X47.229 Y-37.0352
G1 X46.3674 Y-38.1084
G1 X45.4814 Y-39.1615
G1 X44.5715 Y-40.1941
G1 X43.6382 Y-41.2055
G1 X42.6819 Y-42.1953
G1 X41.7032 Y-43.1629
G1 X40.7025 Y-44.1077
G1 X39.6804 Y-45.0294
G1 X38.6375 Y-45.9274
G1 X37.5743 Y-46.8013
G1 X36.4913 Y-47.6505
G1 X35.3891 Y-48.4747
G1 X34.2683 Y-49.2734
G1 X33.1295 Y-50.0462
G1 X31.9732 Y-50.7927
G1 X30.8002 Y-51.5125
G1 X29.6109 Y-52.2052
G1 X28.4061 Y-52.8704
G1 X27.1864 Y-53.5078
G1 X25.9523 Y-54.1171
G1 X24.7046 Y-54.698
G1 X23.4439 Y-55.2501
G1 X22.1709 Y-55.7731
G1 X20.8863 Y-56.2668
G1 X19.5906 Y-56.7309
G1 X18.2847 Y-57.1652
G1 X16.9691 Y-57.5694
G1 X15.6446 Y-57.9434
G1 X14.3119 Y-58.2868
G1 X12.9717 Y-58.5997
G1 X11.6246 Y-58.8817
G1 X10.2714 Y-59.1328
G1 X8.9128 Y-59.3527
G1 X7.5496 Y-59.5415
G1 X6.1824 Y-59.699
G1 X4.8119 Y-59.825
G1 X3.4389 Y-59.9196
G1 X2.064 Y-59.9827
G1 X0.6881 Y-60.0143
G1 X-0.6881
G1 X-2.064 Y-59.9827
G1 X-3.4389 Y-59.9196
G1 X-4.8119 Y-59.825
G1 X-6.1824 Y-59.699
G1 X-7.5496 Y-59.5415
G1 X-8.9128 Y-59.3527
G1 X-10.2714 Y-59.1328
G1 X-11.6246 Y-58.8817
G1 X-12.9717 Y-58.5997
G1 X-14.3119 Y-58.2868
G1 X-15.6446 Y-57.9434
G1 X-16.9691 Y-57.5694
G1 X-18.2847 Y-57.1652
G1 X-19.5906 Y-56.7309
G1 X-20.8863 Y-56.2668
G1 X-22.1709 Y-55.7731
G1 X-23.4439 Y-55.2501
G1 X-24.7046 Y-54.698
G1 X-25.9523 Y-54.1171
G1 X-27.1864 Y-53.5078
G1 X-28.4061 Y-52.8704
G1 X-29.6109 Y-52.2052
G1 X-30.8002 Y-51.5125
G1 X-31.9732 Y-50.7927
G1 X-33.1295 Y-50.0462
G1 X-34.2683 Y-49.2734
G1 X-35.3891 Y-48.4747
G1 X-36.4913 Y-47.6505
G1 X-37.5743 Y-46.8013
G1 X-38.6375 Y-45.9274
G1 X-39.6804 Y-45.0294
G1 X-40.7025 Y-44.1077
G1 X-41.7032 Y-43.1629
G1 X-42.6819 Y-42.1953
G1 X-43.6382 Y-41.2055
G1 X-44.5715 Y-40.1941
G1 X-45.4814 Y-39.1615
G1 X-46.3674 Y-38.1084
G1 X-47.229 Y-37.0352
G1 X-48.0658 Y-35.9425
G1 X-48.8773 Y-34.831
G1 X-49.6631 Y-33.7011
G1 X-50.4228 Y-32.5535
G1 X-51.156 Y-31.3888
G1 X-51.8622 Y-30.2075
G1 X-52.5412 Y-29.0104
G1 X-53.1926 Y-27.7981
G1 X-53.816 Y-26.5711
G1 X-54.4111 Y-25.3301
G1 X-54.9776 Y-24.0759
G1 X-55.5152 Y-22.8089
G1 X-56.0236 Y-21.53
G1 X-56.5026 Y-20.2398
G1 X-56.9518 Y-18.9389
G1 X-57.3711 Y-17.628
G1 X-57.7602 Y-16.3079
G1 X-58.1189 Y-14.9792
G1 X-58.4471 Y-13.6427
G1 X-58.7446 Y-12.2989
G1 X-59.0111 Y-10.9487
G1 X-59.2467 Y-9.5928
G1 X-59.451 Y-8.2318
G1 X-59.6242 Y-6.8664
G1 X-59.7659 Y-5.4975
G1 X-59.8763 Y-4.1256
G1 X-59.9551 Y-2.7516
G1 X-60.0024 Y-1.3762
G1 X-60.0182 Y0.
G1 X-60.0023 Y1.362
G1 X-59.9544 Y2.7233
G1 X-59.8746 Y4.0831
G1 X-59.7629 Y5.4406
G1 X-59.6195 Y6.7952
G1 X-59.4443 Y8.146
G1 X-59.2376 Y9.4923
G1 X-58.9993 Y10.8334
G1 X-58.7296 Y12.1686
G1 X-58.4288 Y13.4971
G1 X-58.0968 Y14.8181
G1 X-57.734 Y16.131
G1 X-57.3405 Y17.4351
G1 X-56.9166 Y18.7295
G1 X-56.4624 Y20.0137
G1 X-55.9782 Y21.2869
G1 X-55.4643 Y22.5483
G1 X-54.921 Y23.7974
G1 X-54.3486 Y25.0334
G1 X-53.7473 Y26.2557
G1 X-53.1176 Y27.4635
G1 X-52.4597 Y28.6562
G1 X-51.774 Y29.8331
G1 X-51.061 Y30.9937
G1 X-50.3209 Y32.1372
G1 X-49.5542 Y33.2631
G1 X-48.7614 Y34.3707
G1 X-47.9427 Y35.4594
G1 X-47.0988 Y36.5286
G1 X-46.2301 Y37.5777
G1 X-45.337 Y38.6062
G1 X-44.42 Y39.6134
G1 X-43.4797 Y40.5989
G1 X-42.5166 Y41.562
G1 X-41.5311 Y42.5024
G1 X-40.5238 Y43.4193
G1 X-39.4954 Y44.3124
G1 X-38.4462 Y45.1812
G1 X-37.377 Y46.0251
G1 X-36.2883 Y46.8437
G1 X-35.1808 Y47.6365
G1 X-34.0549 Y48.4032
G1 X-32.9114 Y49.1433
G1 X-31.7508 Y49.8564
G1 X-30.5738 Y50.542
G1 X-29.3811 Y51.1999
G1 X-28.1733 Y51.8297
G1 X-26.9511 Y52.4309
G1 X-25.7151 Y53.0034
G1 X-24.466 Y53.5467
G1 X-23.2046 Y54.0605
G1 X-21.9314 Y54.5447
G1 X-20.6472 Y54.9989
G1 X-19.3528 Y55.4228
G1 X-18.0487 Y55.8163
G1 X-16.7358 Y56.1791
G1 X-15.4147 Y56.5111
G1 X-14.0863 Y56.812
G1 X-12.7511 Y57.0816
G1 X-11.41 Y57.3199
G1 X-10.0637 Y57.5267
G1 X-8.7128 Y57.7018
G1 X-7.3583 Y57.8452
G1 X-6.0008 Y57.9569
G1 X-4.641 Y58.0367
G1 X-3.2797 Y58.0846
G1 X-1.9177 Y58.1005
G1 X-0.5557 Y58.0846
G1 X0.8056 Y58.0367
G1 X2.1654 Y57.9569
G1 X3.5229 Y57.8452
G1 X4.8775 Y57.7018
G1 X6.2283 Y57.5267
G1 X7.5746 Y57.3199
G1 X8.9158 Y57.0816
G1 X10.2509 Y56.812
G1 X11.5794 Y56.5111
G1 X12.9004 Y56.1791
G1 X14.2134 Y55.8163
G1 X15.5174 Y55.4228
G1 X16.8119 Y54.9989
G1 X18.096 Y54.5447
G1 X19.3692 Y54.0605
G1 X20.6307 Y53.5467
G1 X21.8797 Y53.0034
G1 X23.1157 Y52.4309
G1 X24.338 Y51.8297
G1 X25.5458 Y51.1999
G1 X26.7385 Y50.542
G1 X27.9155 Y49.8564
G1 X29.076 Y49.1433
G1 X30.2195 Y48.4032
G1 X31.3454 Y47.6365
G1 X32.453 Y46.8437
G1 X33.5417 Y46.0251
G1 X34.6109 Y45.1812
G1 X35.66 Y44.3124
G1 X36.6885 Y43.4193
G1 X37.6957 Y42.5024
G1 X38.6812 Y41.562
G1 X39.6444 Y40.5989
G1 X40.5847 Y39.6134
G1 X41.5017 Y38.6062
G1 X42.3947 Y37.5777
G1 X43.2635 Y36.5286
G1 X44.1074 Y35.4594
G1 X44.926 Y34.3707
G1 X45.7189 Y33.2631
G1 X46.4855 Y32.1372
G1 X47.2256 Y30.9937
G1 X47.9387 Y29.8331
G1 X48.6244 Y28.6562
G1 X49.2822 Y27.4635
G1 X49.912 Y26.2557
G1 X50.5132 Y25.0334
G1 X51.0857 Y23.7974
G1 X51.629 Y22.5483
G1 X52.1429 Y21.2869
G1 X52.627 Y20.0137
G1 X53.0812 Y18.7295
G1 X53.5052 Y17.4351
G1 X53.8987 Y16.131
G1 X54.2615 Y14.8181
G1 X54.5934 Y13.4971
G1 X54.8943 Y12.1686
G1 X55.1639 Y10.8334
G1 X55.4022 Y9.4923
G1 X55.609 Y8.146
G1 X55.7841 Y6.7952
G1 X55.9276 Y5.4406
G1 X56.0392 Y4.0831
G1 X56.119 Y2.7233
G1 X56.1669 Y1.362
G1 X56.1829 Y0.
G1 X56.167 Y-1.337
G1 X56.1192 Y-2.6733
G1 X56.0397 Y-4.008
G1 X55.9285 Y-5.3405
G1 X55.7855 Y-6.67
G1 X55.611 Y-7.9957
G1 X55.405 Y-9.3168
G1 X55.1676 Y-10.6327
G1 X54.8989 Y-11.9425
G1 X54.5992 Y-13.2456
G1 X54.2685 Y-14.5412
G1 X53.9071 Y-15.8285
G1 X53.5151 Y-17.1069
G1 X53.0929 Y-18.3756
G1 X52.6405 Y-19.6339
G1 X52.1584 Y-20.8811
G1 X51.6467 Y-22.1164
G1 X51.1057 Y-23.3392
G1 X50.5358 Y-24.5488
G1 X49.9373 Y-25.7445
G1 X49.3105 Y-26.9256
G1 X48.6558 Y-28.0914
G1 X47.9735 Y-29.2414
G1 X47.264 Y-30.3748
G1 X46.5278 Y-31.4909
G1 X45.7652 Y-32.5893
G1 X44.9767 Y-33.6691
G1 X44.1627 Y-34.7299
G1 X43.3237 Y-35.7711
G1 X42.4602 Y-36.792
G1 X41.5726 Y-37.792
G1 X40.6615 Y-38.7706
G1 X39.7273 Y-39.7273
G1 X38.7706 Y-40.6615
G1 X37.792 Y-41.5726
G1 X36.792 Y-42.4602
G1 X35.7711 Y-43.3237
G1 X34.7299 Y-44.1627
G1 X33.6691 Y-44.9767
G1 X32.5893 Y-45.7652
G1 X31.4909 Y-46.5278
G1 X30.3748 Y-47.264
G1 X29.2414 Y-47.9735
G1 X28.0914 Y-48.6558
G1 X26.9256 Y-49.3105
G1 X25.7445 Y-49.9373
G1 X24.5488 Y-50.5358
G1 X23.3392 Y-51.1057
G1 X22.1164 Y-51.6467
G1 X20.8811 Y-52.1584
G1 X19.6339 Y-52.6405
G1 X18.3756 Y-53.0929
G1 X17.1069 Y-53.5151
G1 X15.8285 Y-53.9071
G1 X14.5412 Y-54.2685
G1 X13.2456 Y-54.5992
G1 X11.9425 Y-54.8989
G1 X10.6327 Y-55.1676
G1 X9.3168 Y-55.405
G1 X7.9957 Y-55.611
G1 X6.67 Y-55.7855
G1 X5.3405 Y-55.9285
G1 X4.008 Y-56.0397
G1 X2.6733 Y-56.1192
G1 X1.337 Y-56.167
G1 X0. Y-56.1829
G1 X-1.337 Y-56.167
G1 X-2.6733 Y-56.1192
G1 X-4.008 Y-56.0397
G1 X-5.3405 Y-55.9285
G1 X-6.67 Y-55.7855
G1 X-7.9957 Y-55.611
G1 X-9.3168 Y-55.405
G1 X-10.6327 Y-55.1676
G1 X-11.9425 Y-54.8989
G1 X-13.2456 Y-54.5992
G1 X-14.5412 Y-54.2685
G1 X-15.8285 Y-53.9071
G1 X-17.1069 Y-53.5151
G1 X-18.3756 Y-53.0929
G1 X-19.6339 Y-52.6405
G1 X-20.8811 Y-52.1584
G1 X-22.1164 Y-51.6467
G1 X-23.3392 Y-51.1057
G1 X-24.5488 Y-50.5358
G1 X-25.7445 Y-49.9373
G1 X-26.9256 Y-49.3105
G1 X-28.0914 Y-48.6558
G1 X-29.2414 Y-47.9735
G1 X-30.3748 Y-47.264
G1 X-31.4909 Y-46.5278
G1 X-32.5893 Y-45.7652
G1 X-33.6691 Y-44.9767
G1 X-34.7299 Y-44.1627
G1 X-35.7711 Y-43.3237
G1 X-36.792 Y-42.4602
G1 X-37.792 Y-41.5726
G1 X-38.7706 Y-40.6615
G1 X-39.7273 Y-39.7273
G1 X-40.6615 Y-38.7706
G1 X-41.5726 Y-37.792
G1 X-42.4602 Y-36.792
G1 X-43.3237 Y-35.7711
G1 X-44.1627 Y-34.7299
G1 X-44.9767 Y-33.6691
G1 X-45.7652 Y-32.5893
G1 X-46.5278 Y-31.4909
G1 X-47.264 Y-30.3748
G1 X-47.9735 Y-29.2414
G1 X-48.6558 Y-28.0914
G1 X-49.3105 Y-26.9256
G1 X-49.9373 Y-25.7445
G1 X-50.5358 Y-24.5488
G1 X-51.1057 Y-23.3392
G1 X-51.6467 Y-22.1164
G1 X-52.1584 Y-20.8811
G1 X-52.6405 Y-19.6339
G1 X-53.0929 Y-18.3756
G1 X-53.5151 Y-17.1069
G1 X-53.9071 Y-15.8285
G1 X-54.2685 Y-14.5412
G1 X-54.5992 Y-13.2456
G1 X-54.8989 Y-11.9425
G1 X-55.1676 Y-10.6327
G1 X-55.405 Y-9.3168
G1 X-55.611 Y-7.9957
G1 X-55.7855 Y-6.67
G1 X-55.9285 Y-5.3405
G1 X-56.0397 Y-4.008
G1 X-56.1192 Y-2.6733
G1 X-56.167 Y-1.337
G1 X-56.1829 Y0.
G1 X-56.167 Y1.3113
G1 X-56.1195 Y2.6217
G1 X-56.0403 Y3.9307
G1 X-55.9295 Y5.2373
G1 X-55.7872 Y6.5409
G1 X-55.6134 Y7.8407
G1 X-55.4083 Y9.1359
G1 X-55.1719 Y10.4258
G1 X-54.9044 Y11.7096
G1 X-54.606 Y12.9865
G1 X-54.2768 Y14.2559
G1 X-53.9171 Y15.5169
G1 X-53.5269 Y16.7689
G1 X-53.1067 Y18.011
G1 X-52.6565 Y19.2427
G1 X-52.1767 Y20.4631
G1 X-51.6676 Y21.6716
G1 X-51.1294 Y22.8674
G1 X-50.5625 Y24.0499
G1 X-49.9671 Y25.2183
G1 X-49.3437 Y26.372
G1 X-48.6926 Y27.5103
G1 X-48.0142 Y28.6325
G1 X-47.3089 Y29.738
G1 X-46.5771 Y30.8261
G1 X-45.8191 Y31.8963
G1 X-45.0356 Y32.9478
G1 X-44.2269 Y33.9801
G1 X-43.3934 Y34.9925
G1 X-42.5358 Y35.9845
G1 X-41.6544 Y36.9555
G1 X-40.7498 Y37.9048
G1 X-39.8225 Y38.8321
G1 X-38.8731 Y39.7367
G1 X-37.9022 Y40.6181
G1 X-36.9102 Y41.4757
G1 X-35.8977 Y42.3092
G1 X-34.8655 Y43.1179
G1 X-33.814 Y43.9015
G1 X-32.7438 Y44.6594
G1 X-31.6557 Y45.3912
G1 X-30.5502 Y46.0965
G1 X-29.4279 Y46.7749
G1 X-28.2897 Y47.426
G1 X-27.136 Y48.0494
G1 X-25.9676 Y48.6448
G1 X-24.7851 Y49.2117
G1 X-23.5893 Y49.7499
G1 X-22.3808 Y50.259
G1 X-21.1604 Y50.7388
G1 X-19.9287 Y51.189
G1 X-18.6865 Y51.6093
G1 X-17.4346 Y51.9994
G1 X-16.1735 Y52.3592
G1 X-14.9042 Y52.6883
G1 X-13.6272 Y52.9868
G1 X-12.3435 Y53.2542
G1 X-11.0536 Y53.4906
G1 X-9.7584 Y53.6957
G1 X-8.4586 Y53.8695
G1 X-7.155 Y54.0119
G1 X-5.8484 Y54.1226
G1 X-4.5394 Y54.2018
G1 X-3.2289 Y54.2493
G1 X-1.9177 Y54.2652
G1 X-0.6064 Y54.2493
G1 X0.7041 Y54.2018
G1 X2.013 Y54.1226
G1 X3.3197 Y54.0119
G1 X4.6233 Y53.8695
G1 X5.923 Y53.6957
G1 X7.2182 Y53.4906
G1 X8.5081 Y53.2542
G1 X9.7919 Y52.9868
G1 X11.0688 Y52.6883
G1 X12.3382 Y52.3592
G1 X13.5992 Y51.9994
G1 X14.8512 Y51.6093
G1 X16.0934 Y51.189
G1 X17.325 Y50.7388
G1 X18.5454 Y50.259
G1 X19.7539 Y49.7499
G1 X20.9497 Y49.2117
G1 X22.1322 Y48.6448
G1 X23.3006 Y48.0494
G1 X24.4543 Y47.426
G1 X25.5926 Y46.7749
G1 X26.7148 Y46.0965
G1 X27.8203 Y45.3912
G1 X28.9085 Y44.6594
G1 X29.9786 Y43.9015
G1 X31.0301 Y43.1179
G1 X32.0624 Y42.3092
G1 X33.0748 Y41.4757
G1 X34.0668 Y40.6181
G1 X35.0378 Y39.7367
G1 X35.9872 Y38.8321
G1 X36.9144 Y37.9048
G1 X37.819 Y36.9555
G1 X38.7004 Y35.9845
G1 X39.5581 Y34.9925
G1 X40.3915 Y33.9801
G1 X41.2002 Y32.9478
G1 X41.9838 Y31.8963
G1 X42.7417 Y30.8261
G1 X43.4735 Y29.738
G1 X44.1789 Y28.6325
G1 X44.8573 Y27.5103
G1 X45.5084 Y26.372
G1 X46.1318 Y25.2183
G1 X46.7271 Y24.0499
G1 X47.294 Y22.8674
G1 X47.8322 Y21.6716
G1 X48.3414 Y20.4631
G1 X48.8212 Y19.2427
G1 X49.2713 Y18.011
G1 X49.6916 Y16.7689
G1 X50.0817 Y15.5169
G1 X50.4415 Y14.2559
G1 X50.7707 Y12.9865
G1 X51.0691 Y11.7096
G1 X51.3366 Y10.4258
G1 X51.5729 Y9.1359
G1 X51.7781 Y7.8407
G1 X51.9519 Y6.5409
G1 X52.0942 Y5.2373
G1 X52.205 Y3.9307
G1 X52.2841 Y2.6217
G1 X52.3317 Y1.3113
G1 X52.3475 Y0.
G1 X52.3317 Y-1.2847
G1 X52.2845 Y-2.5686
G1 X52.2057 Y-3.8509
G1 X52.0954 Y-5.131
G1 X51.9538 Y-6.4079
G1 X51.7809 Y-7.681
G1 X51.5768 Y-8.9494
G1 X51.3417 Y-10.2125
G1 X51.0756 Y-11.4694
G1 X50.7787 Y-12.7194
G1 X50.4513 Y-13.9617
G1 X50.0934 Y-15.1957
G1 X49.7054 Y-16.4205
G1 X49.2875 Y-17.6353
G1 X48.8398 Y-18.8396
G1 X48.3628 Y-20.0325
G1 X47.8566 Y-21.2134
G1 X47.3216 Y-22.3814
G1 X46.7581 Y-23.536
G1 X46.1664 Y-24.6764
G1 X45.5469 Y-25.802
G1 X44.9 Y-26.912
G1 X44.226 Y-28.0058
G1 X43.5254 Y-29.0827
G1 X42.7985 Y-30.1421
G1 X42.0459 Y-31.1834
G1 X41.268 Y-32.2058
G1 X40.4652 Y-33.2089
G1 X39.638 Y-34.192
G1 X38.7869 Y-35.1544
G1 X37.9125 Y-36.0957
G1 X37.0153 Y-37.0153
G1 X36.0957 Y-37.9125
G1 X35.1544 Y-38.7869
G1 X34.192 Y-39.638
G1 X33.2089 Y-40.4652
G1 X32.2058 Y-41.268
G1 X31.1834 Y-42.0459
G1 X30.1421 Y-42.7985
G1 X29.0827 Y-43.5254
G1 X28.0058 Y-44.226
G1 X26.912 Y-44.9
G1 X25.802 Y-45.5469
G1 X24.6764 Y-46.1664
G1 X23.536 Y-46.7581
G1 X22.3814 Y-47.3216
G1 X21.2134 Y-47.8566
G1 X20.0325 Y-48.3628
G1 X18.8396 Y-48.8398
G1 X17.6353 Y-49.2875
G1 X16.4205 Y-49.7054
G1 X15.1957 Y-50.0934
G1 X13.9617 Y-50.4513
G1 X12.7194 Y-50.7787
G1 X11.4694 Y-51.0756
G1 X10.2125 Y-51.3417
G1 X8.9494 Y-51.5768
G1 X7.681 Y-51.7809
G1 X6.4079 Y-51.9538
G1 X5.131 Y-52.0954
G1 X3.8509 Y-52.2057
G1 X2.5686 Y-52.2845
G1 X1.2847 Y-52.3317
G1 X0. Y-52.3475
G1 X-1.2847 Y-52.3317
G1 X-2.5686 Y-52.2845
G1 X-3.8509 Y-52.2057
G1 X-5.131 Y-52.0954
G1 X-6.4079 Y-51.9538
G1 X-7.681 Y-51.7809
G1 X-8.9494 Y-51.5768
G1 X-10.2125 Y-51.3417
G1 X-11.4694 Y-51.0756
G1 X-12.7194 Y-50.7787
G1 X-13.9617 Y-50.4513
G1 X-15.1957 Y-50.0934
G1 X-16.4205 Y-49.7054
G1 X-17.6353 Y-49.2875
G1 X-18.8396 Y-48.8398
G1 X-20.0325 Y-48.3628
G1 X-21.2134 Y-47.8566
G1 X-22.3814 Y-47.3216
G1 X-23.536 Y-46.7581
G1 X-24.6764 Y-46.1664
G1 X-25.802 Y-45.5469
G1 X-26.912 Y-44.9
G1 X-28.0058 Y-44.226
G1 X-29.0827 Y-43.5254
G1 X-30.1421 Y-42.7985
G1 X-31.1834 Y-42.0459
G1 X-32.2058 Y-41.268
G1 X-33.2089 Y-40.4652
G1 X-34.192 Y-39.638
G1 X-35.1544 Y-38.7869
G1 X-36.0957 Y-37.9125
G1 X-37.0153 Y-37.0153
G1 X-37.9125 Y-36.0957
G1 X-38.7869 Y-35.1544
G1 X-39.638 Y-34.192
G1 X-40.4652 Y-33.2089
G1 X-41.268 Y-32.2058
G1 X-42.0459 Y-31.1834
G1 X-42.7985 Y-30.1421
G1 X-43.5254 Y-29.0827
G1 X-44.226 Y-28.0058
G1 X-44.9 Y-26.912
G1 X-45.5469 Y-25.802
G1 X-46.1664 Y-24.6764
G1 X-46.7581 Y-23.536
G1 X-47.3216 Y-22.3814
G1 X-47.8566 Y-21.2134
G1 X-48.3628 Y-20.0325
G1 X-48.8398 Y-18.8396
G1 X-49.2875 Y-17.6353
G1 X-49.7054 Y-16.4205
G1 X-50.0934 Y-15.1957
G1 X-50.4513 Y-13.9617
G1 X-50.7787 Y-12.7194
G1 X-51.0756 Y-11.4694
G1 X-51.3417 Y-10.2125
G1 X-51.5768 Y-8.9494
G1 X-51.7809 Y-7.681
G1 X-51.9538 Y-6.4079
G1 X-52.0954 Y-5.131
G1 X-52.2057 Y-3.8509
G1 X-52.2845 Y-2.5686
G1 X-52.3317 Y-1.2847
G1 X-52.3475 Y0.
G1 X-52.3316 Y1.2673
G1 X-52.2838 Y2.5338
G1 X-52.2042 Y3.7987
G1 X-52.0929 Y5.0612
G1 X-51.9499 Y6.3205
G1 X-51.7752 Y7.5759
G1 X-51.5691 Y8.8264
G1 X-51.3316 Y10.0713
G1 X-51.0629 Y11.3099
G1 X-50.7632 Y12.5414
G1 X-50.4326 Y13.7649
G1 X-50.0713 Y14.9798
G1 X-49.6797 Y16.1851
G1 X-49.2579 Y17.3803
G1 X-48.8061 Y18.5645
G1 X-48.3248 Y19.7369
G1 X-47.8142 Y20.8969
G1 X-47.2745 Y22.0437
G1 X-46.7062 Y23.1765
G1 X-46.1097 Y24.2948
G1 X-45.4852 Y25.3976
G1 X-44.8332 Y26.4845
G1 X-44.1541 Y27.5546
G1 X-43.4483 Y28.6073
G1 X-42.7163 Y29.6419
G1 X-41.9585 Y30.6578
G1 X-41.1754 Y31.6544
G1 X-40.3675 Y32.6309
G1 X-39.5354 Y33.5869
G1 X-38.6794 Y34.5216
G1 X-37.8003 Y35.4345
G1 X-36.8985 Y36.3251
G1 X-35.9746 Y37.1927
G1 X-35.0292 Y38.0368
G1 X-34.0629 Y38.8569
G1 X-33.0762 Y39.6524
G1 X-32.0699 Y40.4229
G1 X-31.0446 Y41.1678
G1 X-30.0008 Y41.8868
G1 X-28.9393 Y42.5793
G1 X-27.8608 Y43.2449
G1 X-26.7658 Y43.8832
G1 X-25.6552 Y44.4938
G1 X-24.5296 Y45.0763
G1 X-23.3897 Y45.6303
G1 X-22.2362 Y46.1555
G1 X-21.0699 Y46.6515
G1 X-19.8915 Y47.118
G1 X-18.7017 Y47.5549
G1 X-17.5014 Y47.9616
G1 X-16.2912 Y48.3381
G1 X-15.0719 Y48.684
G1 X-13.8443 Y48.9992
G1 X-12.6092 Y49.2835
G1 X-11.3673 Y49.5366
G1 X-10.1194 Y49.7584
G1 X-8.8664 Y49.9488
G1 X-7.609 Y50.1076
G1 X-6.348 Y50.2348
G1 X-5.0842 Y50.3303
G1 X-3.8184 Y50.394
G1 X-2.5514 Y50.4258
G1 X-1.284
G1 X-0.017 Y50.394
G1 X1.2488 Y50.3303
G1 X2.5126 Y50.2348
G1 X3.7736 Y50.1076
G1 X5.0311 Y49.9488
G1 X6.2841 Y49.7584
G1 X7.5319 Y49.5366
G1 X8.7738 Y49.2835
G1 X10.0089 Y48.9992
G1 X11.2365 Y48.684
G1 X12.4558 Y48.3381
G1 X13.666 Y47.9616
G1 X14.8664 Y47.5549
G1 X16.0561 Y47.118
G1 X17.2345 Y46.6515
G1 X18.4008 Y46.1555
G1 X19.5543 Y45.6303
G1 X20.6942 Y45.0763
G1 X21.8198 Y44.4938
G1 X22.9305 Y43.8832
G1 X24.0254 Y43.2449
G1 X25.104 Y42.5793
G1 X26.1655 Y41.8868
G1 X27.2092 Y41.1678
G1 X28.2346 Y40.4229
G1 X29.2409 Y39.6524
G1 X30.2275 Y38.8569
G1 X31.1938 Y38.0368
G1 X32.1392 Y37.1927
G1 X33.0631 Y36.3251
G1 X33.9649 Y35.4345
G1 X34.8441 Y34.5216
G1 X35.7 Y33.5869
G1 X36.5322 Y32.6309
G1 X37.34 Y31.6544
G1 X38.1231 Y30.6578
G1 X38.8809 Y29.6419
G1 X39.6129 Y28.6073
G1 X40.3187 Y27.5546
G1 X40.9978 Y26.4845
G1 X41.6498 Y25.3976
G1 X42.2743 Y24.2948
G1 X42.8709 Y23.1765
G1 X43.4392 Y22.0437
G1 X43.9788 Y20.8969
G1 X44.4895 Y19.7369
G1 X44.9708 Y18.5645
G1 X45.4225 Y17.3803
G1 X45.8443 Y16.1851
G1 X46.236 Y14.9798
G1 X46.5972 Y13.7649
G1 X46.9278 Y12.5414
G1 X47.2275 Y11.3099
G1 X47.4962 Y10.0713
G1 X47.7337 Y8.8264
G1 X47.9399 Y7.5759
G1 X48.1145 Y6.3205
G1 X48.2575 Y5.0612
G1 X48.3689 Y3.7987
G1 X48.4485 Y2.5338
G1 X48.4962 Y1.2673
G1 X48.5122 Y0.
G1 X48.4963 Y-1.2389
G1 X48.4489 Y-2.4771
G1 X48.3698 Y-3.7136
G1 X48.2592 Y-4.9477
G1 X48.1171 Y-6.1785
G1 X47.9436 Y-7.4053
G1 X47.7388 Y-8.6273
G1 X47.5029 Y-9.8437
G1 X47.2361 Y-11.0537
G1 X46.9384 Y-12.2564
G1 X46.61 Y-13.4511
G1 X46.2513 Y-14.6371
G1 X45.8624 Y-15.8135
G1 X45.4436 Y-16.9796
G1 X44.9951 Y-18.1347
G1 X44.5173 Y-19.2779
G1 X44.0105 Y-20.4085
G1 X43.4749 Y-21.5258
G1 X42.911 Y-22.6291
G1 X42.3191 Y-23.7176
G1 X41.6996 Y-24.7906
G1 X41.0529 Y-25.8475
G1 X40.3794 Y-26.8875
G1 X39.6795 Y-27.9099
G1 X38.9538 Y-28.9142
G1 X38.2027 Y-29.8996
G1 X37.4266 Y-30.8655
G1 X36.6261 Y-31.8112
G1 X35.8018 Y-32.7363
G1 X34.9541 Y-33.6399
G1 X34.0835 Y-34.5216
G1 X33.1908 Y-35.3808
G1 X32.2764 Y-36.2169
G1 X31.3409 Y-37.0294
G1 X30.385 Y-37.8177
G1 X29.4093 Y-38.5814
G1 X28.4144 Y-39.3199
G1 X27.4009 Y-40.0327
G1 X26.3696 Y-40.7194
G1 X25.3211 Y-41.3796
G1 X24.2561 Y-42.0128
G1 X23.1752 Y-42.6185
G1 X22.0792 Y-43.1965
G1 X20.9689 Y-43.7463
G1 X19.8448 Y-44.2675
G1 X18.7078 Y-44.7599
G1 X17.5586 Y-45.2231
G1 X16.3979 Y-45.6567
G1 X15.2266 Y-46.0606
G1 X14.0453 Y-46.4345
G1 X12.8548 Y-46.778
G1 X11.656 Y-47.091
G1 X10.4495 Y-47.3734
G1 X9.2363 Y-47.6248
G1 X8.017 Y-47.8451
G1 X6.7925 Y-48.0343
G1 X5.5635 Y-48.1921
G1 X4.331 Y-48.3184
G1 X3.0956 Y-48.4133
G1 X1.8581 Y-48.4766
G1 X0.6195 Y-48.5082
G1 X-0.6195
G1 X-1.8581 Y-48.4766
G1 X-3.0956 Y-48.4133
G1 X-4.331 Y-48.3184
G1 X-5.5635 Y-48.1921
G1 X-6.7925 Y-48.0343
G1 X-8.017 Y-47.8451
G1 X-9.2363 Y-47.6248
G1 X-10.4495 Y-47.3734
G1 X-11.656 Y-47.091
G1 X-12.8548 Y-46.778
G1 X-14.0453 Y-46.4345
G1 X-15.2266 Y-46.0606
G1 X-16.3979 Y-45.6567
G1 X-17.5586 Y-45.2231
G1 X-18.7078 Y-44.7599
G1 X-19.8448 Y-44.2675
G1 X-20.9689 Y-43.7463
G1 X-22.0792 Y-43.1965
G1 X-23.1752 Y-42.6185
G1 X-24.2561 Y-42.0128
G1 X-25.3211 Y-41.3796
G1 X-26.3696 Y-40.7194
G1 X-27.4009 Y-40.0327
G1 X-28.4144 Y-39.3199
G1 X-29.4093 Y-38.5814
G1 X-30.385 Y-37.8177
G1 X-31.3409 Y-37.0294
G1 X-32.2764 Y-36.2169
G1 X-33.1908 Y-35.3808
G1 X-34.0835 Y-34.5216
G1 X-34.9541 Y-33.6399
G1 X-35.8018 Y-32.7363
G1 X-36.6261 Y-31.8112
G1 X-37.4266 Y-30.8655
G1 X-38.2027 Y-29.8996
G1 X-38.9538 Y-28.9142
G1 X-39.6795 Y-27.9099
G1 X-40.3794 Y-26.8875
G1 X-41.0529 Y-25.8475
G1 X-41.6996 Y-24.7906
G1 X-42.3191 Y-23.7176
G1 X-42.911 Y-22.6291
G1 X-43.4749 Y-21.5258
G1 X-44.0105 Y-20.4085
G1 X-44.5173 Y-19.2779
G1 X-44.9951 Y-18.1347
G1 X-45.4436 Y-16.9796
G1 X-45.8624 Y-15.8135
G1 X-46.2513 Y-14.6371
G1 X-46.61 Y-13.4511
G1 X-46.9384 Y-12.2564
G1 X-47.2361 Y-11.0537
G1 X-47.5029 Y-9.8437
G1 X-47.7388 Y-8.6273
G1 X-47.9436 Y-7.4053
G1 X-48.1171 Y-6.1785
G1 X-48.2592 Y-4.9477
G1 X-48.3698 Y-3.7136
G1 X-48.4489 Y-2.4771
G1 X-48.4963 Y-1.2389
G1 X-48.5122 Y0.
G1 X-48.4962 Y1.2197
G1 X-48.4483 Y2.4386
G1 X-48.3685 Y3.6558
G1 X-48.2569 Y4.8704
G1 X-48.1135 Y6.0818
G1 X-47.9385 Y7.289
G1 X-47.7319 Y8.4912
G1 X-47.4939 Y9.6875
G1 X-47.2247 Y10.8773
G1 X-46.9245 Y12.0595
G1 X-46.5934 Y13.2335
G1 X-46.2317 Y14.3985
G1 X-45.8396 Y15.5536
G1 X-45.4174 Y16.698
G1 X-44.9654 Y17.8309
G1 X-44.4838 Y18.9517
G1 X-43.9732 Y20.0594
G1 X-43.4337 Y21.1534
G1 X-42.8657 Y22.233
G1 X-42.2697 Y23.2972
G1 X-41.646 Y24.3455
G1 X-40.9951 Y25.3772
G1 X-40.3174 Y26.3914
G1 X-39.6134 Y27.3875
G1 X-38.8836 Y28.3649
G1 X-38.1284 Y29.3229
G1 X-37.3484 Y30.2607
G1 X-36.5441 Y31.1778
G1 X-35.7161 Y32.0735
G1 X-34.8649 Y32.9473
G1 X-33.9912 Y33.7984
G1 X-33.0955 Y34.6264
G1 X-32.1784 Y35.4307
G1 X-31.2405 Y36.2107
G1 X-30.2826 Y36.9659
G1 X-29.3052 Y37.6957
G1 X-28.3091 Y38.3997
G1 X-27.2948 Y39.0774
G1 X-26.2632 Y39.7283
G1 X-25.2149 Y40.352
G1 X-24.1506 Y40.948
G1 X-23.0711 Y41.516
G1 X-21.9771 Y42.0555
G1 X-20.8694 Y42.5662
G1 X-19.7486 Y43.0477
G1 X-18.6156 Y43.4997
G1 X-17.4712 Y43.9219
G1 X-16.3162 Y44.314
G1 X-15.1512 Y44.6757
G1 X-13.9772 Y45.0068
G1 X-12.7949 Y45.3071
G1 X-11.6052 Y45.5763
G1 X-10.4088 Y45.8142
G1 X-9.2067 Y46.0208
G1 X-7.9995 Y46.1958
G1 X-6.7881 Y46.3392
G1 X-5.5734 Y46.4508
G1 X-4.3562 Y46.5306
G1 X-3.1374 Y46.5785
G1 X-1.9177 Y46.5945
G1 X-0.698 Y46.5785
G1 X0.5209 Y46.5306
G1 X1.7381 Y46.4508
G1 X2.9528 Y46.3392
G1 X4.1641 Y46.1958
G1 X5.3713 Y46.0208
G1 X6.5735 Y45.8142
G1 X7.7699 Y45.5763
G1 X8.9596 Y45.3071
G1 X10.1419 Y45.0068
G1 X11.3159 Y44.6757
G1 X12.4808 Y44.314
G1 X13.6359 Y43.9219
G1 X14.7803 Y43.4997
G1 X15.9133 Y43.0477
G1 X17.034 Y42.5662
G1 X18.1418 Y42.0555
G1 X19.2358 Y41.516
G1 X20.3153 Y40.948
G1 X21.3796 Y40.352
G1 X22.4279 Y39.7283
G1 X23.4595 Y39.0774
G1 X24.4737 Y38.3997
G1 X25.4699 Y37.6957
G1 X26.4472 Y36.9659
G1 X27.4052 Y36.2107
G1 X28.343 Y35.4307
G1 X29.2601 Y34.6264
G1 X30.1558 Y33.7984
G1 X31.0296 Y32.9473
G1 X31.8808 Y32.0735
G1 X32.7088 Y31.1778
G1 X33.513 Y30.2607
G1 X34.293 Y29.3229
G1 X35.0482 Y28.3649
G1 X35.778 Y27.3875
G1 X36.482 Y26.3914
G1 X37.1597 Y25.3772
G1 X37.8106 Y24.3455
G1 X38.4343 Y23.2972
G1 X39.0303 Y22.233
G1 X39.5983 Y21.1534
G1 X40.1378 Y20.0594
G1 X40.6485 Y18.9517
G1 X41.13 Y17.8309
G1 X41.582 Y16.698
G1 X42.0042 Y15.5536
G1 X42.3963 Y14.3985
G1 X42.758 Y13.2335
G1 X43.0891 Y12.0595
G1 X43.3894 Y10.8773
G1 X43.6586 Y9.6875
G1 X43.8966 Y8.4912
G1 X44.1031 Y7.289
G1 X44.2782 Y6.0818
G1 X44.4215 Y4.8704
G1 X44.5332 Y3.6558
G1 X44.6129 Y2.4386
G1 X44.6608 Y1.2197
G1 X44.6768 Y0.
G1 X44.661 Y-1.1893
G1 X44.6135 Y-2.3778
G1 X44.5344 Y-3.5646
G1 X44.4237 Y-4.7489
G1 X44.2815 Y-5.9298
G1 X44.108 Y-7.1064
G1 X43.9032 Y-8.2781
G1 X43.6672 Y-9.4439
G1 X43.4004 Y-10.603
G1 X43.1027 Y-11.7546
G1 X42.7745 Y-12.8978
G1 X42.416 Y-14.0319
G1 X42.0275 Y-15.1561
G1 X41.6091 Y-16.2695
G1 X41.1613 Y-17.3714
G1 X40.6842 Y-18.461
G1 X40.1784 Y-19.5375
G1 X39.644 Y-20.6001
G1 X39.0816 Y-21.6482
G1 X38.4915 Y-22.6809
G1 X37.8741 Y-23.6975
G1 X37.2298 Y-24.6973
G1 X36.5591 Y-25.6797
G1 X35.8626 Y-26.6438
G1 X35.1406 Y-27.589
G1 X34.3937 Y-28.5147
G1 X33.6224 Y-29.4202
G1 X32.8274 Y-30.3048
G1 X32.009 Y-31.1679
G1 X31.1679 Y-32.009
G1 X30.3048 Y-32.8274
G1 X29.4202 Y-33.6224
G1 X28.5147 Y-34.3937
G1 X27.589 Y-35.1406
G1 X26.6438 Y-35.8626
G1 X25.6797 Y-36.5591
G1 X24.6973 Y-37.2298
G1 X23.6975 Y-37.8741
G1 X22.6809 Y-38.4915
G1 X21.6482 Y-39.0816
G1 X20.6001 Y-39.644
G1 X19.5375 Y-40.1784
G1 X18.461 Y-40.6842
G1 X17.3714 Y-41.1613
G1 X16.2695 Y-41.6091
G1 X15.1561 Y-42.0275
G1 X14.0319 Y-42.416
G1 X12.8978 Y-42.7745
G1 X11.7546 Y-43.1027
G1 X10.603 Y-43.4004
G1 X9.4439 Y-43.6672
G1 X8.2781 Y-43.9032
G1 X7.1064 Y-44.108
G1 X5.9298 Y-44.2815
G1 X4.7489 Y-44.4237
G1 X3.5646 Y-44.5344
G1 X2.3778 Y-44.6135
G1 X1.1893 Y-44.661
G1 X0. Y-44.6768
G1 X-1.1893 Y-44.661
G1 X-2.3778 Y-44.6135
G1 X-3.5646 Y-44.5344
G1 X-4.7489 Y-44.4237
G1 X-5.9298 Y-44.2815
G1 X-7.1064 Y-44.108
G1 X-8.2781 Y-43.9032
G1 X-9.4439 Y-43.6672
G1 X-10.603 Y-43.4004
G1 X-11.7546 Y-43.1027
G1 X-12.8978 Y-42.7745
G1 X-14.0319 Y-42.416
G1 X-15.1561 Y-42.0275
G1 X-16.2695 Y-41.6091
G1 X-17.3714 Y-41.1613
G1 X-18.461 Y-40.6842
G1 X-19.5375 Y-40.1784
G1 X-20.6001 Y-39.644
G1 X-21.6482 Y-39.0816
G1 X-22.6809 Y-38.4915
G1 X-23.6975 Y-37.8741
G1 X-24.6973 Y-37.2298
G1 X-25.6797 Y-36.5591
G1 X-26.6438 Y-35.8626
G1 X-27.589 Y-35.1406
G1 X-28.5147 Y-34.3937
G1 X-29.4202 Y-33.6224
G1 X-30.3048 Y-32.8274
G1 X-31.1679 Y-32.009
G1 X-32.009 Y-31.1679
G1 X-32.8274 Y-30.3048
G1 X-33.6224 Y-29.4202
G1 X-34.3937 Y-28.5147
G1 X-35.1406 Y-27.589
G1 X-35.8626 Y-26.6438
G1 X-36.5591 Y-25.6797
G1 X-37.2298 Y-24.6973
G1 X-37.8741 Y-23.6975
G1 X-38.4915 Y-22.6809
G1 X-39.0816 Y-21.6482
G1 X-39.644 Y-20.6001
G1 X-40.1784 Y-19.5375
G1 X-40.6842 Y-18.461
G1 X-41.1613 Y-17.3714
G1 X-41.6091 Y-16.2695
G1 X-42.0275 Y-15.1561
G1 X-42.416 Y-14.0319
G1 X-42.7745 Y-12.8978
G1 X-43.1027 Y-11.7546
G1 X-43.4004 Y-10.603
G1 X-43.6672 Y-9.4439
G1 X-43.9032 Y-8.2781
G1 X-44.108 Y-7.1064
G1 X-44.2815 Y-5.9298
G1 X-44.4237 Y-4.7489
G1 X-44.5344 Y-3.5646
G1 X-44.6135 Y-2.3778
G1 X-44.661 Y-1.1893
G1 X-44.6768 Y0.
G1 X-44.6608 Y1.168
G1 X-44.613 Y2.335
G1 X-44.5333 Y3.5004
G1 X-44.4218 Y4.6631
G1 X-44.2785 Y5.8224
G1 X-44.1037 Y6.9773
G1 X-43.8974 Y8.127
G1 X-43.6597 Y9.2706
G1 X-43.3909 Y10.4073
G1 X-43.0912 Y11.5363
G1 X-42.7607 Y12.6566
G1 X-42.3997 Y13.7675
G1 X-42.0086 Y14.8681
G1 X-41.5875 Y15.9577
G1 X-41.1368 Y17.0353
G1 X-40.6569 Y18.1002
G1 X-40.148 Y19.1516
G1 X-39.6106 Y20.1887
G1 X-39.0451 Y21.2107
G1 X-38.4519 Y22.2169
G1 X-37.8314 Y23.2066
G1 X-37.1841 Y24.1789
G1 X-36.5105 Y25.1332
G1 X-35.8111 Y26.0687
G1 X-35.0864 Y26.9848
G1 X-34.3369 Y27.8807
G1 X-33.5633 Y28.7558
G1 X-32.766 Y29.6095
G1 X-31.9457 Y30.441
G1 X-31.103 Y31.2499
G1 X-30.2386 Y32.0354
G1 X-29.353 Y32.7971
G1 X-28.4469 Y33.5342
G1 X-27.521 Y34.2463
G1 X-26.576 Y34.9329
G1 X-25.6126 Y35.5934
G1 X-24.6316 Y36.2274
G1 X-23.6335 Y36.8343
G1 X-22.6193 Y37.4137
G1 X-21.5897 Y37.9652
G1 X-20.5453 Y38.4884
G1 X-19.487 Y38.9828
G1 X-18.4157 Y39.4482
G1 X-17.332 Y39.8841
G1 X-16.2368 Y40.2902
G1 X-15.131 Y40.6663
G1 X-14.0152 Y41.0121
G1 X-12.8905 Y41.3272
G1 X-11.7576 Y41.6115
G1 X-10.6173 Y41.8648
G1 X-9.4705 Y42.0868
G1 X-8.3181 Y42.2774
G1 X-7.1609 Y42.4364
G1 X-5.9998 Y42.5638
G1 X-4.8357 Y42.6594
G1 X-3.6693 Y42.7232
G1 X-2.5017 Y42.7551
G1 X-1.3336
G1 X-0.166 Y42.7232
G1 X1.0003 Y42.6594
G1 X2.1645 Y42.5638
G1 X3.3256 Y42.4364
G1 X4.4827 Y42.2774
G1 X5.6351 Y42.0868
G1 X6.7819 Y41.8648
G1 X7.9222 Y41.6115
G1 X9.0551 Y41.3272
G1 X10.1799 Y41.0121
G1 X11.2956 Y40.6663
G1 X12.4015 Y40.2902
G1 X13.4967 Y39.8841
G1 X14.5803 Y39.4482
G1 X15.6517 Y38.9828
G1 X16.7099 Y38.4884
G1 X17.7543 Y37.9652
G1 X18.784 Y37.4137
G1 X19.7982 Y36.8343
G1 X20.7962 Y36.2274
G1 X21.7773 Y35.5934
G1 X22.7407 Y34.9329
G1 X23.6856 Y34.2463
G1 X24.6115 Y33.5342
G1 X25.5176 Y32.7971
G1 X26.4032 Y32.0354
G1 X27.2677 Y31.2499
G1 X28.1104 Y30.441
G1 X28.9307 Y29.6095
G1 X29.7279 Y28.7558
G1 X30.5016 Y27.8807
G1 X31.251 Y26.9848
G1 X31.9758 Y26.0687
G1 X32.6752 Y25.1332
G1 X33.3488 Y24.1789
G1 X33.9961 Y23.2066
G1 X34.6165 Y22.2169
G1 X35.2098 Y21.2107
G1 X35.7753 Y20.1887
G1 X36.3127 Y19.1516
G1 X36.8215 Y18.1002
G1 X37.3015 Y17.0353
G1 X37.7521 Y15.9577
G1 X38.1732 Y14.8681
G1 X38.5644 Y13.7675
G1 X38.9253 Y12.6566
G1 X39.2558 Y11.5363
G1 X39.5556 Y10.4073
G1 X39.8244 Y9.2706
G1 X40.062 Y8.127
G1 X40.2683 Y6.9773
G1 X40.4432 Y5.8224
G1 X40.5864 Y4.6631
G1 X40.6979 Y3.5004
G1 X40.7776 Y2.335
G1 X40.8255 Y1.168
G1 X40.8414 Y0.
G1 X40.8257 Y-1.1353
G1 X40.7783 Y-2.2698
G1 X40.6995 Y-3.4024
G1 X40.5892 Y-4.5325
G1 X40.4475 Y-5.659
G1 X40.2745 Y-6.7812
G1 X40.0705 Y-7.8982
G1 X39.8354 Y-9.009
G1 X39.5696 Y-10.1129
G1 X39.2732 Y-11.2089
G1 X38.9464 Y-12.2963
G1 X38.5896 Y-13.3742
G1 X38.2029 Y-14.4417
G1 X37.7867 Y-15.4981
G1 X37.3412 Y-16.5425
G1 X36.867 Y-17.5742
G1 X36.3642 Y-18.5922
G1 X35.8333 Y-19.5959
G1 X35.2747 Y-20.5844
G1 X34.6889 Y-21.557
G1 X34.0762 Y-22.513
G1 X33.4372 Y-23.4515
G1 X32.7724 Y-24.3719
G1 X32.0823 Y-25.2735
G1 X31.3673 Y-26.1556
G1 X30.6281 Y-27.0174
G1 X29.8652 Y-27.8584
G1 X29.0793 Y-28.6778
G1 X28.2709 Y-29.4751
G1 X27.4406 Y-30.2496
G1 X26.5891 Y-31.0007
G1 X25.7171 Y-31.7278
G1 X24.8251 Y-32.4305
G1 X23.914 Y-33.108
G1 X22.9845 Y-33.76
G1 X22.0371 Y-34.3859
G1 X21.0727 Y-34.9852
G1 X20.0921 Y-35.5574
G1 X19.0959 Y-36.1022
G1 X18.0849 Y-36.6191
G1 X17.06 Y-37.1077
G1 X16.0219 Y-37.5676
G1 X14.9714 Y-37.9984
G1 X13.9093 Y-38.3999
G1 X12.8365 Y-38.7717
G1 X11.7537 Y-39.1136
G1 X10.6619 Y-39.4252
G1 X9.5618 Y-39.7063
G1 X8.4544 Y-39.9568
G1 X7.3404 Y-40.1764
G1 X6.2207 Y-40.3649
G1 X5.0963 Y-40.5222
G1 X3.9678 Y-40.6482
G1 X2.8364 Y-40.7428
G1 X1.7027 Y-40.8059
G1 X0.5677 Y-40.8375
G1 X-0.5677
G1 X-1.7027 Y-40.8059
G1 X-2.8364 Y-40.7428
G1 X-3.9678 Y-40.6482
G1 X-5.0963 Y-40.5222
G1 X-6.2207 Y-40.3649
G1 X-7.3404 Y-40.1764
G1 X-8.4544 Y-39.9568
G1 X-9.5618 Y-39.7063
G1 X-10.6619 Y-39.4252
G1 X-11.7537 Y-39.1136
G1 X-12.8365 Y-38.7717
G1 X-13.9093 Y-38.3999
G1 X-14.9714 Y-37.9984
G1 X-16.0219 Y-37.5676
G1 X-17.06 Y-37.1077
G1 X-18.0849 Y-36.6191
G1 X-19.0959 Y-36.1022
G1 X-20.0921 Y-35.5574
G1 X-21.0727 Y-34.9852
G1 X-22.0371 Y-34.3859
G1 X-22.9845 Y-33.76
G1 X-23.914 Y-33.108
G1 X-24.8251 Y-32.4305
G1 X-25.7171 Y-31.7278
G1 X-26.5891 Y-31.0007
G1 X-27.4406 Y-30.2496
G1 X-28.2709 Y-29.4751
G1 X-29.0793 Y-28.6778
G1 X-29.8652 Y-27.8584
G1 X-30.6281 Y-27.0174
G1 X-31.3673 Y-26.1556
G1 X-32.0823 Y-25.2735
G1 X-32.7724 Y-24.3719
G1 X-33.4372 Y-23.4515
G1 X-34.0762 Y-22.513
G1 X-34.6889 Y-21.557
G1 X-35.2747 Y-20.5844
G1 X-35.8333 Y-19.5959
G1 X-36.3642 Y-18.5922
G1 X-36.867 Y-17.5742
G1 X-37.3412 Y-16.5425
G1 X-37.7867 Y-15.4981
G1 X-38.2029 Y-14.4417
G1 X-38.5896 Y-13.3742
G1 X-38.9464 Y-12.2963
G1 X-39.2732 Y-11.2089
G1 X-39.5696 Y-10.1129
G1 X-39.8354 Y-9.009
G1 X-40.0705 Y-7.8982
G1 X-40.2745 Y-6.7812
G1 X-40.4475 Y-5.659
G1 X-40.5892 Y-4.5325
G1 X-40.6995 Y-3.4024
G1 X-40.7783 Y-2.2698
G1 X-40.8257 Y-1.1353
G1 X-40.8414 Y0.
G1 X-40.8256 Y1.1115
G1 X-40.778 Y2.2221
G1 X-40.6987 Y3.3309
G1 X-40.5877 Y4.437
G1 X-40.4452 Y5.5394
G1 X-40.2714 Y6.6374
G1 X-40.0662 Y7.7299
G1 X-39.8299 Y8.8161
G1 X-39.5627 Y9.8951
G1 X-39.2648 Y10.9661
G1 X-38.9364 Y12.0281
G1 X-38.5778 Y13.0803
G1 X-38.1893 Y14.1218
G1 X-37.7713 Y15.1519
G1 X-37.324 Y16.1695
G1 X-36.8478 Y17.174
G1 X-36.3431 Y18.1644
G1 X-35.8104 Y19.1401
G1 X-35.25 Y20.1001
G1 X-34.6624 Y21.0438
G1 X-34.0481 Y21.9703
G1 X-33.4077 Y22.8788
G1 X-32.7415 Y23.7687
G1 X-32.0502 Y24.6392
G1 X-31.3343 Y25.4896
G1 X-30.5944 Y26.3193
G1 X-29.8311 Y27.1274
G1 X-29.0451 Y27.9135
G1 X-28.2369 Y28.6767
G1 X-27.4073 Y29.4166
G1 X-26.5569 Y30.1325
G1 X-25.6864 Y30.8238
G1 X-24.7965 Y31.49
G1 X-23.8879 Y32.1305
G1 X-22.9615 Y32.7447
G1 X-22.0178 Y33.3323
G1 X-21.0578 Y33.8927
G1 X-20.0821 Y34.4255
G1 X-19.0917 Y34.9301
G1 X-18.0872 Y35.4063
G1 X-17.0695 Y35.8536
G1 X-16.0395 Y36.2716
G1 X-14.998 Y36.6601
G1 X-13.9458 Y37.0187
G1 X-12.8838 Y37.3471
G1 X-11.8128 Y37.645
G1 X-10.7338 Y37.9122
G1 X-9.6476 Y38.1485
G1 X-8.555 Y38.3537
G1 X-7.4571 Y38.5276
G1 X-6.3547 Y38.67
G1 X-5.2486 Y38.781
G1 X-4.1398 Y38.8603
G1 X-3.0292 Y38.9079
G1 X-1.9177 Y38.9238
G1 X-0.8062 Y38.9079
G1 X0.3044 Y38.8603
G1 X1.4132 Y38.781
G1 X2.5193 Y38.67
G1 X3.6217 Y38.5276
G1 X4.7197 Y38.3537
G1 X5.8122 Y38.1485
G1 X6.8984 Y37.9122
G1 X7.9775 Y37.645
G1 X9.0484 Y37.3471
G1 X10.1104 Y37.0187
G1 X11.1626 Y36.6601
G1 X12.2042 Y36.2716
G1 X13.2342 Y35.8536
G1 X14.2518 Y35.4063
G1 X15.2563 Y34.9301
G1 X16.2468 Y34.4255
G1 X17.2224 Y33.8927
G1 X18.1825 Y33.3323
G1 X19.1261 Y32.7447
G1 X20.0526 Y32.1305
G1 X20.9611 Y31.49
G1 X21.851 Y30.8238
G1 X22.7215 Y30.1325
G1 X23.572 Y29.4166
G1 X24.4016 Y28.6767
G1 X25.2097 Y27.9135
G1 X25.9958 Y27.1274
G1 X26.7591 Y26.3193
G1 X27.4989 Y25.4896
G1 X28.2148 Y24.6392
G1 X28.9061 Y23.7687
G1 X29.5723 Y22.8788
G1 X30.2128 Y21.9703
G1 X30.8271 Y21.0438
G1 X31.4146 Y20.1001
G1 X31.975 Y19.1401
G1 X32.5078 Y18.1644
G1 X33.0124 Y17.174
G1 X33.4886 Y16.1695
G1 X33.9359 Y15.1519
G1 X34.354 Y14.1218
G1 X34.7424 Y13.0803
G1 X35.101 Y12.0281
G1 X35.4294 Y10.9661
G1 X35.7273 Y9.8951
G1 X35.9945 Y8.8161
G1 X36.2308 Y7.7299
G1 X36.436 Y6.6374
G1 X36.6099 Y5.5394
G1 X36.7524 Y4.437
G1 X36.8633 Y3.3309
G1 X36.9426 Y2.2221
G1 X36.9902 Y1.1115
G1 X37.0061 Y0.
G1 X36.9901 Y-1.0864
G1 X36.9423 Y-2.1718
G1 X36.8626 Y-3.2554
G1 X36.7512 Y-4.3361
G1 X36.608 Y-5.4131
G1 X36.4333 Y-6.4855
G1 X36.2272 Y-7.5522
G1 X35.9899 Y-8.6125
G1 X35.7216 Y-9.6653
G1 X35.4225 Y-10.7098
G1 X35.0928 Y-11.7451
G1 X34.7329 Y-12.7702
G1 X34.343 Y-13.7843
G1 X33.9235 Y-14.7866
G1 X33.4748 Y-15.7761
G1 X32.9973 Y-16.752
G1 X32.4913 Y-17.7134
G1 X31.9573 Y-18.6596
G1 X31.3957 Y-19.5898
G1 X30.8071 Y-20.503
G1 X30.1919 Y-21.3985
G1 X29.5507 Y-22.2756
G1 X28.8841 Y-23.1335
G1 X28.1925 Y-23.9715
G1 X27.4766 Y-24.7888
G1 X26.7371 Y-25.5847
G1 X25.9745 Y-26.3586
G1 X25.1895 Y-27.1098
G1 X24.3828 Y-27.8376
G1 X23.5551 Y-28.5414
G1 X22.707 Y-29.2205
G1 X21.8394 Y-29.8746
G1 X20.953 Y-30.5028
G1 X20.0485 Y-31.1048
G1 X19.1268 Y-31.6799
G1 X18.1885 Y-32.2278
G1 X17.2346 Y-32.7478
G1 X16.2658 Y-33.2396
G1 X15.283 Y-33.7028
G1 X14.287 Y-34.137
G1 X13.2787 Y-34.5417
G1 X12.259 Y-34.9166
G1 X11.2286 Y-35.2614
G1 X10.1887 Y-35.5759
G1 X9.1399 Y-35.8596
G1 X8.0832 Y-36.1125
G1 X7.0196 Y-36.3342
G1 X5.9499 Y-36.5246
G1 X4.8751 Y-36.6835
G1 X3.7961 Y-36.8109
G1 X2.7139 Y-36.9064
G1 X1.6293 Y-36.9702
G1 X0.5432 Y-37.0021
G1 X-0.5432
G1 X-1.6293 Y-36.9702
G1 X-2.7139 Y-36.9064
G1 X-3.7961 Y-36.8109
G1 X-4.8751 Y-36.6835
G1 X-5.9499 Y-36.5246
G1 X-7.0196 Y-36.3342
G1 X-8.0832 Y-36.1125
G1 X-9.1399 Y-35.8596
G1 X-10.1887 Y-35.5759
G1 X-11.2286 Y-35.2614
G1 X-12.259 Y-34.9166
G1 X-13.2787 Y-34.5417
G1 X-14.287 Y-34.137
G1 X-15.283 Y-33.7028
G1 X-16.2658 Y-33.2396
G1 X-17.2346 Y-32.7478
G1 X-18.1885 Y-32.2278
G1 X-19.1268 Y-31.6799
G1 X-20.0485 Y-31.1048
G1 X-20.953 Y-30.5028
G1 X-21.8394 Y-29.8746
G1 X-22.707 Y-29.2205
G1 X-23.5551 Y-28.5414
G1 X-24.3828 Y-27.8376
G1 X-25.1895 Y-27.1098
G1 X-25.9745 Y-26.3586
G1 X-26.7371 Y-25.5847
G1 X-27.4766 Y-24.7888
G1 X-28.1925 Y-23.9715
G1 X-28.8841 Y-23.1335
G1 X-29.5507 Y-22.2756
G1 X-30.1919 Y-21.3985
G1 X-30.8071 Y-20.503
G1 X-31.3957 Y-19.5898
G1 X-31.9573 Y-18.6596
G1 X-32.4913 Y-17.7134
G1 X-32.9973 Y-16.752
G1 X-33.4748 Y-15.7761
G1 X-33.9235 Y-14.7866
G1 X-34.343 Y-13.7843
G1 X-34.7329 Y-12.7702
G1 X-35.0928 Y-11.7451
G1 X-35.4225 Y-10.7098
G1 X-35.7216 Y-9.6653
G1 X-35.9899 Y-8.6125
G1 X-36.2272 Y-7.5522
G1 X-36.4333 Y-6.4855
G1 X-36.608 Y-5.4131
G1 X-36.7512 Y-4.3361
G1 X-36.8626 Y-3.2554
G1 X-36.9423 Y-2.1718
G1 X-36.9901 Y-1.0864
G1 X-37.0061 Y0.
G1 X-36.9904 Y1.0497
G1 X-36.9433 Y2.0984
G1 X-36.8648 Y3.1453
G1 X-36.7551 Y4.1894
G1 X-36.6142 Y5.2297
G1 X-36.4422 Y6.2653
G1 X-36.2393 Y7.2953
G1 X-36.0057 Y8.3188
G1 X-35.7416 Y9.3348
G1 X-35.4472 Y10.3425
G1 X-35.1228 Y11.3409
G1 X-34.7687 Y12.3292
G1 X-34.3851 Y13.3064
G1 X-33.9725 Y14.2717
G1 X-33.5312 Y15.2243
G1 X-33.0616 Y16.1632
G1 X-32.5642 Y17.0877
G1 X-32.0393 Y17.9968
G1 X-31.4874 Y18.8899
G1 X-30.9091 Y19.766
G1 X-30.3048 Y20.6244
G1 X-29.6751 Y21.4644
G1 X-29.0206 Y22.2852
G1 X-28.3418 Y23.086
G1 X-27.6393 Y23.8662
G1 X-26.9138 Y24.625
G1 X-26.166 Y25.3617
G1 X-25.3964 Y26.0758
G1 X-24.6058 Y26.7665
G1 X-23.7949 Y27.4332
G1 X-22.9645 Y28.0754
G1 X-22.1152 Y28.6925
G1 X-21.2478 Y29.2838
G1 X-20.3631 Y29.849
G1 X-19.4619 Y30.3874
G1 X-18.545 Y30.8987
G1 X-17.6132 Y31.3823
G1 X-16.6673 Y31.8378
G1 X-15.7083 Y32.2648
G1 X-14.7369 Y32.6629
G1 X-13.754 Y33.0317
G1 X-12.7606 Y33.3711
G1 X-11.7574 Y33.6805
G1 X-10.7455 Y33.9598
G1 X-9.7256 Y34.2087
G1 X-8.6987 Y34.4269
G1 X-7.6658 Y34.6144
G1 X-6.6277 Y34.7708
G1 X-5.5854 Y34.8962
G1 X-4.5398 Y34.9903
G1 X-3.4919 Y35.0531
G1 X-2.4426 Y35.0845
G1 X-1.3928
G1 X-0.3434 Y35.0531
G1 X0.7045 Y34.9903
G1 X1.7501 Y34.8962
G1 X2.7924 Y34.7708
G1 X3.8304 Y34.6144
G1 X4.8634 Y34.4269
G1 X5.8902 Y34.2087
G1 X6.9101 Y33.9598
G1 X7.9221 Y33.6805
G1 X8.9252 Y33.3711
G1 X9.9187 Y33.0317
G1 X10.9016 Y32.6629
G1 X11.8729 Y32.2648
G1 X12.832 Y31.8378
G1 X13.7778 Y31.3823
G1 X14.7096 Y30.8987
G1 X15.6265 Y30.3874
G1 X16.5277 Y29.849
G1 X17.4124 Y29.2838
G1 X18.2798 Y28.6925
G1 X19.1291 Y28.0754
G1 X19.9596 Y27.4332
G1 X20.7705 Y26.7665
G1 X21.561 Y26.0758
G1 X22.3306 Y25.3617
G1 X23.0785 Y24.625
G1 X23.8039 Y23.8662
G1 X24.5064 Y23.086
G1 X25.1852 Y22.2852
G1 X25.8397 Y21.4644
G1 X26.4694 Y20.6244
G1 X27.0737 Y19.766
G1 X27.6521 Y18.8899
G1 X28.2039 Y17.9968
G1 X28.7288 Y17.0877
G1 X29.2263 Y16.1632
G1 X29.6959 Y15.2243
G1 X30.1372 Y14.2717
G1 X30.5498 Y13.3064
G1 X30.9333 Y12.3292
G1 X31.2874 Y11.3409
G1 X31.6118 Y10.3425
G1 X31.9062 Y9.3348
G1 X32.1704 Y8.3188
G1 X32.404 Y7.2953
G1 X32.6068 Y6.2653
G1 X32.7788 Y5.2297
G1 X32.9197 Y4.1894
G1 X33.0295 Y3.1453
G1 X33.1079 Y2.0984
G1 X33.155 Y1.0497
G1 X33.1707 Y0.
G1 X33.155 Y-1.0215
G1 X33.1078 Y-2.042
G1 X33.0292 Y-3.0606
G1 X32.9193 Y-4.0763
G1 X32.7782 Y-5.0881
G1 X32.6059 Y-6.0951
G1 X32.4028 Y-7.0963
G1 X32.1689 Y-8.0908
G1 X31.9044 Y-9.0776
G1 X31.6098 Y-10.0558
G1 X31.2851 Y-11.0244
G1 X30.9308 Y-11.9826
G1 X30.5471 Y-12.9295
G1 X30.1344 Y-13.864
G1 X29.6932 Y-14.7855
G1 X29.2238 Y-15.6929
G1 X28.7267 Y-16.5854
G1 X28.2023 Y-17.4621
G1 X27.6512 Y-18.3223
G1 X27.0738 Y-19.1652
G1 X26.4708 Y-19.9898
G1 X25.8427 Y-20.7955
G1 X25.19 Y-21.5815
G1 X24.5135 Y-22.347
G1 X23.8137 Y-23.0913
G1 X23.0913 Y-23.8137
G1 X22.347 Y-24.5135
G1 X21.5815 Y-25.19
G1 X20.7955 Y-25.8427
G1 X19.9898 Y-26.4708
G1 X19.1652 Y-27.0738
G1 X18.3223 Y-27.6512
G1 X17.4621 Y-28.2023
G1 X16.5854 Y-28.7267
G1 X15.6929 Y-29.2238
G1 X14.7855 Y-29.6932
G1 X13.864 Y-30.1344
G1 X12.9295 Y-30.5471
G1 X11.9826 Y-30.9308
G1 X11.0244 Y-31.2851
G1 X10.0558 Y-31.6098
G1 X9.0776 Y-31.9044
G1 X8.0908 Y-32.1689
G1 X7.0963 Y-32.4028
G1 X6.0951 Y-32.6059
G1 X5.0881 Y-32.7782
G1 X4.0763 Y-32.9193
G1 X3.0606 Y-33.0292
G1 X2.042 Y-33.1078
G1 X1.0215 Y-33.155
G1 X0. Y-33.1707
G1 X-1.0215 Y-33.155
G1 X-2.042 Y-33.1078
G1 X-3.0606 Y-33.0292
G1 X-4.0763 Y-32.9193
G1 X-5.0881 Y-32.7782
G1 X-6.0951 Y-32.6059
G1 X-7.0963 Y-32.4028
G1 X-8.0908 Y-32.1689
G1 X-9.0776 Y-31.9044
G1 X-10.0558 Y-31.6098
G1 X-11.0244 Y-31.2851
G1 X-11.9826 Y-30.9308
G1 X-12.9295 Y-30.5471
G1 X-13.864 Y-30.1344
G1 X-14.7855 Y-29.6932
G1 X-15.6929 Y-29.2238
G1 X-16.5854 Y-28.7267
G1 X-17.4621 Y-28.2023
G1 X-18.3223 Y-27.6512
G1 X-19.1652 Y-27.0738
G1 X-19.9898 Y-26.4708
G1 X-20.7955 Y-25.8427
G1 X-21.5815 Y-25.19
G1 X-22.347 Y-24.5135
G1 X-23.0913 Y-23.8137
G1 X-23.8137 Y-23.0913
G1 X-24.5135 Y-22.347
G1 X-25.19 Y-21.5815
G1 X-25.8427 Y-20.7955
G1 X-26.4708 Y-19.9898
G1 X-27.0738 Y-19.1652
G1 X-27.6512 Y-18.3223
G1 X-28.2023 Y-17.4621
G1 X-28.7267 Y-16.5854
G1 X-29.2238 Y-15.6929
G1 X-29.6932 Y-14.7855
G1 X-30.1344 Y-13.864
G1 X-30.5471 Y-12.9295
G1 X-30.9308 Y-11.9826
G1 X-31.2851 Y-11.0244
G1 X-31.6098 Y-10.0558
G1 X-31.9044 Y-9.0776
G1 X-32.1689 Y-8.0908
G1 X-32.4028 Y-7.0963
G1 X-32.6059 Y-6.0951
G1 X-32.7782 Y-5.0881
G1 X-32.9193 Y-4.0763
G1 X-33.0292 Y-3.0606
G1 X-33.1078 Y-2.042
G1 X-33.155 Y-1.0215
G1 X-33.1707 Y0.
G1 X-33.155 Y0.9916
G1 X-33.1078 Y1.9822
G1 X-33.0292 Y2.9708
G1 X-32.9193 Y3.9564
G1 X-32.7781 Y4.938
G1 X-32.6059 Y5.9147
G1 X-32.4028 Y6.8854
G1 X-32.169 Y7.8491
G1 X-31.9048 Y8.805
G1 X-31.6103 Y9.752
G1 X-31.2859 Y10.6892
G1 X-30.932 Y11.6156
G1 X-30.5489 Y12.5303
G1 X-30.1369 Y13.4324
G1 X-29.6965 Y14.321
G1 X-29.2281 Y15.1951
G1 X-28.7323 Y16.054
G1 X-28.2094 Y16.8967
G1 X-27.6601 Y17.7223
G1 X-27.0848 Y18.5302
G1 X-26.4842 Y19.3193
G1 X-25.8589 Y20.0891
G1 X-25.2095 Y20.8386
G1 X-24.5366 Y21.5671
G1 X-23.8409 Y22.2739
G1 X-23.1232 Y22.9582
G1 X-22.3841 Y23.6195
G1 X-21.6244 Y24.2569
G1 X-20.8448 Y24.87
G1 X-20.0462 Y25.458
G1 X-19.2294 Y26.0203
G1 X-18.3951 Y26.5565
G1 X-17.5442 Y27.0659
G1 X-16.6776 Y27.5481
G1 X-15.7961 Y28.0025
G1 X-14.9007 Y28.4288
G1 X-13.9921 Y28.8264
G1 X-13.0715 Y29.195
G1 X-12.1395 Y29.5342
G1 X-11.1973 Y29.8436
G1 X-10.2458 Y30.123
G1 X-9.2859 Y30.3721
G1 X-8.3185 Y30.5906
G1 X-7.3447 Y30.7782
G1 X-6.3655 Y30.9349
G1 X-5.3817 Y31.0605
G1 X-4.3945 Y31.1547
G1 X-3.4048 Y31.2176
G1 X-2.4135 Y31.2491
G1 X-1.4218
G1 X-0.4306 Y31.2176
G1 X0.5591 Y31.1547
G1 X1.5464 Y31.0605
G1 X2.5301 Y30.9349
G1 X3.5094 Y30.7782
G1 X4.4832 Y30.5906
G1 X5.4505 Y30.3721
G1 X6.4104 Y30.123
G1 X7.362 Y29.8436
G1 X8.3042 Y29.5342
G1 X9.2361 Y29.195
G1 X10.1568 Y28.8264
G1 X11.0653 Y28.4288
G1 X11.9608 Y28.0025
G1 X12.8422 Y27.5481
G1 X13.7088 Y27.0659
G1 X14.5597 Y26.5565
G1 X15.394 Y26.0203
G1 X16.2109 Y25.458
G1 X17.0095 Y24.87
G1 X17.789 Y24.2569
G1 X18.5487 Y23.6195
G1 X19.2878 Y22.9582
G1 X20.0055 Y22.2739
G1 X20.7012 Y21.5671
G1 X21.3741 Y20.8386
G1 X22.0235 Y20.0891
G1 X22.6489 Y19.3193
G1 X23.2495 Y18.5302
G1 X23.8247 Y17.7223
G1 X24.3741 Y16.8967
G1 X24.8969 Y16.054
G1 X25.3928 Y15.1951
G1 X25.8611 Y14.321
G1 X26.3015 Y13.4324
G1 X26.7135 Y12.5303
G1 X27.0966 Y11.6156
G1 X27.4506 Y10.6892
G1 X27.7749 Y9.752
G1 X28.0694 Y8.805
G1 X28.3337 Y7.8491
G1 X28.5675 Y6.8854
G1 X28.7706 Y5.9147
G1 X28.9428 Y4.938
G1 X29.0839 Y3.9564
G1 X29.1938 Y2.9708
G1 X29.2724 Y1.9822
G1 X29.3196 Y0.9916
G1 X29.3354 Y0.
G1 X29.3197 Y-0.9598
G1 X29.2726 Y-1.9186
G1 X29.1941 Y-2.8754
G1 X29.0844 Y-3.829
G1 X28.9435 Y-4.7786
G1 X28.7717 Y-5.723
G1 X28.569 Y-6.6614
G1 X28.3358 Y-7.5926
G1 X28.0722 Y-8.5156
G1 X27.7785 Y-9.4295
G1 X27.4551 Y-10.3334
G1 X27.1023 Y-11.2262
G1 X26.7205 Y-12.1069
G1 X26.3101 Y-12.9747
G1 X25.8715 Y-13.8286
G1 X25.4052 Y-14.6677
G1 X24.9117 Y-15.4911
G1 X24.3915 Y-16.2979
G1 X23.8452 Y-17.0872
G1 X23.2733 Y-17.8582
G1 X22.6765 Y-18.6102
G1 X22.0555 Y-19.3421
G1 X21.4108 Y-20.0534
G1 X20.7432 Y-20.7432
G1 X20.0534 Y-21.4108
G1 X19.3421 Y-22.0555
G1 X18.6102 Y-22.6765
G1 X17.8582 Y-23.2733
G1 X17.0872 Y-23.8452
G1 X16.2979 Y-24.3915
G1 X15.4911 Y-24.9117
G1 X14.6677 Y-25.4052
G1 X13.8286 Y-25.8715
G1 X12.9747 Y-26.3101
G1 X12.1069 Y-26.7205
G1 X11.2262 Y-27.1023
G1 X10.3334 Y-27.4551
G1 X9.4295 Y-27.7785
G1 X8.5156 Y-28.0722
G1 X7.5926 Y-28.3358
G1 X6.6614 Y-28.569
G1 X5.723 Y-28.7717
G1 X4.7786 Y-28.9435
G1 X3.829 Y-29.0844
G1 X2.8754 Y-29.1941
G1 X1.9186 Y-29.2726
G1 X0.9598 Y-29.3197
G1 X0. Y-29.3354
G1 X-0.9598 Y-29.3197
G1 X-1.9186 Y-29.2726
G1 X-2.8754 Y-29.1941
G1 X-3.829 Y-29.0844
G1 X-4.7786 Y-28.9435
G1 X-5.723 Y-28.7717
G1 X-6.6614 Y-28.569
G1 X-7.5926 Y-28.3358
G1 X-8.5156 Y-28.0722
G1 X-9.4295 Y-27.7785
G1 X-10.3334 Y-27.4551
G1 X-11.2262 Y-27.1023
G1 X-12.1069 Y-26.7205
G1 X-12.9747 Y-26.3101
G1 X-13.8286 Y-25.8715
G1 X-14.6677 Y-25.4052
G1 X-15.4911 Y-24.9117
G1 X-16.2979 Y-24.3915
G1 X-17.0872 Y-23.8452
G1 X-17.8582 Y-23.2733
G1 X-18.6102 Y-22.6765
G1 X-19.3421 Y-22.0555
G1 X-20.0534 Y-21.4108
G1 X-20.7432 Y-20.7432
G1 X-21.4108 Y-20.0534
G1 X-22.0555 Y-19.3421
G1 X-22.6765 Y-18.6102
G1 X-23.2733 Y-17.8582
G1 X-23.8452 Y-17.0872
G1 X-24.3915 Y-16.2979
G1 X-24.9117 Y-15.4911
G1 X-25.4052 Y-14.6677
G1 X-25.8715 Y-13.8286
G1 X-26.3101 Y-12.9747
G1 X-26.7205 Y-12.1069
G1 X-27.1023 Y-11.2262
G1 X-27.4551 Y-10.3334
G1 X-27.7785 Y-9.4295
G1 X-28.0722 Y-8.5156
G1 X-28.3358 Y-7.5926
G1 X-28.569 Y-6.6614
G1 X-28.7717 Y-5.723
G1 X-28.9435 Y-4.7786
G1 X-29.0844 Y-3.829
G1 X-29.1941 Y-2.8754
G1 X-29.2726 Y-1.9186
G1 X-29.3197 Y-0.9598
G1 X-29.3354 Y0.
G1 X-29.3194 Y0.9361
G1 X-29.2714 Y1.871
G1 X-29.1916 Y2.8038
G1 X-29.08 Y3.7334
G1 X-28.9367 Y4.6585
G1 X-28.7619 Y5.5783
G1 X-28.5558 Y6.4915
G1 X-28.3186 Y7.3972
G1 X-28.0507 Y8.2942
G1 X-27.7523 Y9.1816
G1 X-27.4238 Y10.0583
G1 X-27.0655 Y10.9232
G1 X-26.6779 Y11.7754
G1 X-26.2614 Y12.6139
G1 X-25.8166 Y13.4377
G1 X-25.3439 Y14.2458
G1 X-24.8439 Y15.0373
G1 X-24.3171 Y15.8112
G1 X-23.7642 Y16.5668
G1 X-23.1859 Y17.303
G1 X-22.5827 Y18.019
G1 X-21.9555 Y18.714
G1 X-21.3049 Y19.3872
G1 X-20.6317 Y20.0378
G1 X-19.9367 Y20.6651
G1 X-19.2206 Y21.2682
G1 X-18.4844 Y21.8466
G1 X-17.7289 Y22.3994
G1 X-16.955 Y22.9262
G1 X-16.1635 Y23.4262
G1 X-15.3554 Y23.8989
G1 X-14.5316 Y24.3438
G1 X-13.6931 Y24.7602
G1 X-12.8409 Y25.1478
G1 X-11.976 Y25.5061
G1 X-11.0993 Y25.8346
G1 X-10.2119 Y26.133
G1 X-9.3149 Y26.401
G1 X-8.4092 Y26.6381
G1 X-7.496 Y26.8442
G1 X-6.5762 Y27.019
G1 X-5.6511 Y27.1623
G1 X-4.7215 Y27.2739
G1 X-3.7887 Y27.3538
G1 X-2.8537 Y27.4017
G1 X-1.9177 Y27.4177
G1 X-0.9816 Y27.4017
G1 X-0.0466 Y27.3538
G1 X0.8862 Y27.2739
G1 X1.8157 Y27.1623
G1 X2.7409 Y27.019
G1 X3.6606 Y26.8442
G1 X4.5739 Y26.6381
G1 X5.4795 Y26.401
G1 X6.3766 Y26.133
G1 X7.2639 Y25.8346
G1 X8.1406 Y25.5061
G1 X9.0056 Y25.1478
G1 X9.8578 Y24.7602
G1 X10.6962 Y24.3438
G1 X11.52 Y23.8989
G1 X12.3281 Y23.4262
G1 X13.1196 Y22.9262
G1 X13.8936 Y22.3994
G1 X14.6491 Y21.8466
G1 X15.3853 Y21.2682
G1 X16.1013 Y20.6651
G1 X16.7963 Y20.0378
G1 X17.4696 Y19.3872
G1 X18.1202 Y18.714
G1 X18.7474 Y18.019
G1 X19.3505 Y17.303
G1 X19.9289 Y16.5668
G1 X20.4817 Y15.8112
G1 X21.0085 Y15.0373
G1 X21.5085 Y14.2458
G1 X21.9812 Y13.4377
G1 X22.4261 Y12.6139
G1 X22.8425 Y11.7754
G1 X23.2301 Y10.9232
G1 X23.5884 Y10.0583
G1 X23.9169 Y9.1816
G1 X24.2153 Y8.2942
G1 X24.4833 Y7.3972
G1 X24.7204 Y6.4915
G1 X24.9265 Y5.5783
G1 X25.1013 Y4.6585
G1 X25.2446 Y3.7334
G1 X25.3563 Y2.8038
G1 X25.4361 Y1.871
G1 X25.484 Y0.9361
G1 X25.5 Y0.
G1 X25.4841 Y-0.8999
G1 X25.4365 Y-1.7987
G1 X25.3572 Y-2.6953
G1 X25.2462 Y-3.5885
G1 X25.1039 Y-4.4773
G1 X24.9302 Y-5.3604
G1 X24.7255 Y-6.2369
G1 X24.49 Y-7.1056
G1 X24.224 Y-7.9655
G1 X23.9278 Y-8.8154
G1 X23.6018 Y-9.6544
G1 X23.2463 Y-10.4813
G1 X22.862 Y-11.2952
G1 X22.4491 Y-12.095
G1 X22.0083 Y-12.8797
G1 X21.54 Y-13.6484
G1 X21.0449 Y-14.4001
G1 X20.5236 Y-15.1338
G1 X19.9767 Y-15.8487
G1 X19.405 Y-16.5438
G1 X18.809 Y-17.2183
G1 X18.1896 Y-17.8714
G1 X17.5476 Y-18.5022
G1 X16.8837 Y-19.11
G1 X16.1988 Y-19.6939
G1 X15.4936 Y-20.2533
G1 X14.7692 Y-20.7875
G1 X14.0264 Y-21.2958
G1 X13.2661 Y-21.7775
G1 X12.4893 Y-22.2321
G1 X11.6969 Y-22.6591
G1 X10.8899 Y-23.0577
G1 X10.0694 Y-23.4277
G1 X9.2363 Y-23.7685
G1 X8.3918 Y-24.0796
G1 X7.5367 Y-24.3608
G1 X6.6723 Y-24.6116
G1 X5.7996 Y-24.8317
G1 X4.9196 Y-25.0209
G1 X4.0335 Y-25.179
G1 X3.1424 Y-25.3056
G1 X2.2474 Y-25.4008
G1 X1.3495 Y-25.4643
G1 X0.45 Y-25.496
G1 X-0.45
G1 X-1.3495 Y-25.4643
G1 X-2.2474 Y-25.4008
G1 X-3.1424 Y-25.3056
G1 X-4.0335 Y-25.179
G1 X-4.9196 Y-25.0209
G1 X-5.7996 Y-24.8317
G1 X-6.6723 Y-24.6116
G1 X-7.5367 Y-24.3608
G1 X-8.3918 Y-24.0796
G1 X-9.2363 Y-23.7685
G1 X-10.0694 Y-23.4277
G1 X-10.8899 Y-23.0577
G1 X-11.6969 Y-22.6591
G1 X-12.4893 Y-22.2321
G1 X-13.2661 Y-21.7775
G1 X-14.0264 Y-21.2958
G1 X-14.7692 Y-20.7875
G1 X-15.4936 Y-20.2533
G1 X-16.1988 Y-19.6939
G1 X-16.8837 Y-19.11
G1 X-17.5476 Y-18.5022
G1 X-18.1896 Y-17.8714
G1 X-18.809 Y-17.2183
G1 X-19.405 Y-16.5438
G1 X-19.9767 Y-15.8487
G1 X-20.5236 Y-15.1338
G1 X-21.0449 Y-14.4001
G1 X-21.54 Y-13.6484
G1 X-22.0083 Y-12.8797
G1 X-22.4491 Y-12.095
G1 X-22.862 Y-11.2952
G1 X-23.2463 Y-10.4813
G1 X-23.6018 Y-9.6544
G1 X-23.9278 Y-8.8154
G1 X-24.224 Y-7.9655
G1 X-24.49 Y-7.1056
G1 X-24.7255 Y-6.2369
G1 X-24.9302 Y-5.3604
G1 X-25.1039 Y-4.4773
G1 X-25.2462 Y-3.5885
G1 X-25.3572 Y-2.6953
G1 X-25.4365 Y-1.7987
G1 X-25.4841 Y-0.8999
G1 X-25.5 Y0.
G1 X-25.4841 Y0.8999
G1 X-25.4365 Y1.7987
G1 X-25.3572 Y2.6953
G1 X-25.2462 Y3.5885
G1 X-25.1039 Y4.4773
G1 X-24.9302 Y5.3604
G1 X-24.7255 Y6.2369
G1 X-24.49 Y7.1056
G1 X-24.224 Y7.9655
G1 X-23.9278 Y8.8154
G1 X-23.6018 Y9.6544
G1 X-23.2463 Y10.4813
G1 X-22.862 Y11.2952
G1 X-22.4491 Y12.095
G1 X-22.0083 Y12.8797
G1 X-21.54 Y13.6484
G1 X-21.0449 Y14.4001
G1 X-20.5236 Y15.1338
G1 X-19.9767 Y15.8487
G1 X-19.405 Y16.5438
G1 X-18.809 Y17.2183
G1 X-18.1896 Y17.8714
G1 X-17.5476 Y18.5022
G1 X-16.8837 Y19.11
G1 X-16.1988 Y19.6939
G1 X-15.4936 Y20.2533
G1 X-14.7692 Y20.7875
G1 X-14.0264 Y21.2958
G1 X-13.2661 Y21.7775
G1 X-12.4893 Y22.2321
G1 X-11.6969 Y22.6591
G1 X-10.8899 Y23.0577
G1 X-10.0694 Y23.4277
G1 X-9.2363 Y23.7685
G1 X-8.3918 Y24.0796
G1 X-7.5367 Y24.3608
G1 X-6.6723 Y24.6116
G1 X-5.7996 Y24.8317
G1 X-4.9196 Y25.0209
G1 X-4.0335 Y25.179
G1 X-3.1424 Y25.3056
G1 X-2.2474 Y25.4008
G1 X-1.3495 Y25.4643
G1 X-0.45 Y25.496
G1 X0.45
G1 X1.3495 Y25.4643
G1 X2.2474 Y25.4008
G1 X3.1424 Y25.3056
G1 X4.0335 Y25.179
G1 X4.9196 Y25.0209
G1 X5.7996 Y24.8317
G1 X6.6723 Y24.6116
G1 X7.5367 Y24.3608
G1 X8.3918 Y24.0796
G1 X9.2363 Y23.7685
G1 X10.0694 Y23.4277
G1 X10.8899 Y23.0577
G1 X11.6969 Y22.6591
G1 X12.4893 Y22.2321
G1 X13.2661 Y21.7775
G1 X14.0264 Y21.2958
G1 X14.7692 Y20.7875
G1 X15.4936 Y20.2533
G1 X16.1988 Y19.6939
G1 X16.8837 Y19.11
G1 X17.5476 Y18.5022
G1 X18.1896 Y17.8714
G1 X18.809 Y17.2183
G1 X19.405 Y16.5438
G1 X19.9767 Y15.8487
G1 X20.5236 Y15.1338
G1 X21.0449 Y14.4001
G1 X21.54 Y13.6484
G1 X22.0083 Y12.8797
G1 X22.4491 Y12.095
G1 X22.862 Y11.2952
G1 X23.2463 Y10.4813
G1 X23.6018 Y9.6544
G1 X23.9278 Y8.8154
G1 X24.224 Y7.9655
G1 X24.49 Y7.1056
G1 X24.7255 Y6.2369
G1 X24.9302 Y5.3604
G1 X25.1039 Y4.4773
G1 X25.2462 Y3.5885
G1 X25.3572 Y2.6953
G1 X25.4365 Y1.7987
G1 X25.4841 Y0.8999
G1 X25.5 Y0.
G1 Y-0.4
G1 Y-0.6181 Z79.9169
G1 Y-3.2 Z80.3
G0 Z89.9
( OPERATION 301: T197 3D PLANE MACHINING )
#900=2101. (XY FEEDRATE)
#901=438. (Z FEEDRATE)
G0 X-102.6795 Y30.0028
G0 Z89.9
G0 Z76.
G1 Z73. F#901
G1 X-102.7324 Y29.7389 F#900
G1 X-102.7382 Y29.4798
G1 X-102.699 Y29.2236
G1 X-102.616 Y28.9782
G1 X-102.4915 Y28.7509
G1 X-102.3295 Y28.5486
G1 X-102.1348 Y28.3776
G1 X-101.9134 Y28.2429
G1 X-101.672 Y28.1488
G1 X-101.4178 Y28.098
G1 X-101.1588 Y28.0921
G1 X-100.9026 Y28.1313
G1 X-100.6571 Y28.2144
G1 X-100.4298 Y28.3388
G1 X-100.2276 Y28.5009
G1 X-100.0566 Y28.6955
G1 X-99.9219 Y28.917
G1 X-99.8298 Y29.1486
G1 X-99.478 Y30.3222
G1 X-98.9276 Y32.0472
G1 X-98.3469 Y33.7622
G1 X-97.7359 Y35.4667
G1 X-97.095 Y37.1601
G1 X-96.4243 Y38.842
G1 X-95.724 Y40.5118
G1 X-94.9943 Y42.169
G1 X-94.2356 Y43.813
G1 X-93.4479 Y45.4434
G1 X-92.6315 Y47.0596
G1 X-91.7868 Y48.6611
G1 X-90.914 Y50.2475
G1 X-90.0132 Y51.8183
G1 X-89.0849 Y53.3729
G1 X-88.1293 Y54.9109
G1 X-87.1467 Y56.4318
G1 X-86.1375 Y57.9351
G1 X-85.1018 Y59.4203
G1 X-84.0401 Y60.8871
G1 X-82.9527 Y62.3349
G1 X-81.8399 Y63.7632
G1 X-80.702 Y65.1717
G1 X-79.5395 Y66.5599
G1 X-78.3527 Y67.9274
G1 X-77.1419 Y69.2737
G1 X-75.9075 Y70.5984
G1 X-74.65 Y71.9012
G1 X-73.3696 Y73.1815
G1 X-72.0669 Y74.4391
G1 X-70.7422 Y75.6734
G1 X-69.3958 Y76.8842
G1 X-68.0284 Y78.0711
G1 X-66.6402 Y79.2336
G1 X-65.2317 Y80.3714
G1 X-63.8033 Y81.4842
G1 X-62.3555 Y82.5717
G1 X-60.8888 Y83.6334
G1 X-59.4035 Y84.669
G1 X-57.9002 Y85.6783
G1 X-56.3793 Y86.6609
G1 X-54.8414 Y87.6165
G1 X-53.2867 Y88.5448
G1 X-51.716 Y89.4455
G1 X-50.1296 Y90.3184
G1 X-48.528 Y91.1631
G1 X-46.9118 Y91.9794
G1 X-45.2814 Y92.7671
G1 X-43.6374 Y93.5259
G1 X-41.9803 Y94.2555
G1 X-40.3105 Y94.9558
G1 X-38.6286 Y95.6266
G1 X-36.9351 Y96.2675
G1 X-35.2306 Y96.8784
G1 X-33.5156 Y97.4592
G1 X-31.7906 Y98.0096
G1 X-30.0562 Y98.5295
G1 X-28.3128 Y99.0186
G1 X-26.5611 Y99.477
G1 X-24.8016 Y99.9043
G1 X-23.0348 Y100.3006
G1 X-21.2613 Y100.6656
G1 X-19.4816 Y100.9992
G1 X-17.6963 Y101.3014
G1 X-15.906 Y101.572
G1 X-14.1112 Y101.811
G1 X-12.3124 Y102.0183
G1 X-10.5102 Y102.1937
G1 X-8.7052 Y102.3374
G1 X-6.898 Y102.4492
G1 X-5.0891 Y102.529
G1 X-3.2791 Y102.577
G1 X-1.4684 Y102.593
G1 X0.3422 Y102.577
G1 X2.1522 Y102.529
G1 X3.9611 Y102.4492
G1 X5.7684 Y102.3374
G1 X7.5733 Y102.1937
G1 X9.3755 Y102.0183
G1 X11.1743 Y101.811
G1 X12.9691 Y101.572
G1 X14.7594 Y101.3014
G1 X16.5447 Y100.9992
G1 X18.3244 Y100.6656
G1 X20.0979 Y100.3006
G1 X21.8647 Y99.9043
G1 X23.6242 Y99.477
G1 X25.3759 Y99.0186
G1 X27.1193 Y98.5295
G1 X28.8537 Y98.0096
G1 X30.5787 Y97.4592
G1 X32.2938 Y96.8784
G1 X33.9982 Y96.2675
G1 X35.6917 Y95.6266
G1 X37.3736 Y94.9558
G1 X39.0434 Y94.2555
G1 X40.7005 Y93.5259
G1 X42.3445 Y92.7671
G1 X43.9749 Y91.9794
G1 X45.5911 Y91.1631
G1 X47.1927 Y90.3184
G1 X48.7791 Y89.4455
G1 X50.3498 Y88.5448
G1 X51.9045 Y87.6165
G1 X53.4424 Y86.6609
G1 X54.9633 Y85.6783
G1 X56.4666 Y84.669
G1 X57.9519 Y83.6334
G1 X59.4186 Y82.5717
G1 X60.8664 Y81.4842
G1 X62.2948 Y80.3714
G1 X63.7033 Y79.2336
G1 X65.0915 Y78.0711
G1 X66.4589 Y76.8842
G1 X67.8053 Y75.6734
G1 X69.13 Y74.4391
G1 X70.4327 Y73.1815
G1 X71.7131 Y71.9012
G1 X72.9706 Y70.5984
G1 X74.205 Y69.2737
G1 X75.4158 Y67.9274
G1 X76.6026 Y66.5599
G1 X77.7651 Y65.1717
G1 X78.903 Y63.7632
G1 X80.0158 Y62.3349
G1 X81.1032 Y60.8871
G1 X82.1649 Y59.4203
G1 X83.2006 Y57.9351
G1 X84.2098 Y56.4318
G1 X85.1924 Y54.9109
G1 X86.148 Y53.3729
G1 X87.0763 Y51.8183
G1 X87.9771 Y50.2475
G1 X88.8499 Y48.6611
G1 X89.6946 Y47.0596
G1 X90.511 Y45.4434
G1 X91.2987 Y43.813
G1 X92.0574 Y42.169
G1 X92.7871 Y40.5118
G1 X93.4874 Y38.842
G1 X94.1581 Y37.1601
G1 X94.799 Y35.4667
G1 X95.41 Y33.7622
G1 X95.9907 Y32.0472
G1 X96.5411 Y30.3222
G1 X97.061 Y28.5877
G1 X97.5502 Y26.8444
G1 X98.0085 Y25.0927
G1 X98.4359 Y23.3332
G1 X98.8321 Y21.5664
G1 X99.1971 Y19.7929
G1 X99.5308 Y18.0132
G1 X99.8329 Y16.2279
G1 X100.1036 Y14.4375
G1 X100.3425 Y12.6427
G1 X100.5498 Y10.8439
G1 X100.7253 Y9.0418
G1 X100.8689 Y7.2368
G1 X100.9807 Y5.4296
G1 X101.0606 Y3.6207
G1 X101.1085 Y1.8106
G1 X101.1245 Y0.
G1 X101.1086 Y-1.7948
G1 X101.0608 Y-3.589
G1 X100.9812 Y-5.3821
G1 X100.8698 Y-7.1735
G1 X100.7265 Y-8.9626
G1 X100.5516 Y-10.7489
G1 X100.345 Y-12.5318
G1 X100.1068 Y-14.3108
G1 X99.837 Y-16.0852
G1 X99.5358 Y-17.8546
G1 X99.2032 Y-19.6184
G1 X98.8394 Y-21.376
G1 X98.4445 Y-23.1268
G1 X98.0185 Y-24.8704
G1 X97.5617 Y-26.6061
G1 X97.0741 Y-28.3335
G1 X96.5559 Y-30.0519
G1 X96.0074 Y-31.7609
G1 X95.4285 Y-33.4598
G1 X94.8197 Y-35.1482
G1 X94.1809 Y-36.8256
G1 X93.5125 Y-38.4913
G1 X92.8146 Y-40.1449
G1 X92.0875 Y-41.7859
G1 X91.3314 Y-43.4137
G1 X90.5465 Y-45.0278
G1 X89.733 Y-46.6278
G1 X88.8913 Y-48.213
G1 X88.0217 Y-49.7831
G1 X87.1242 Y-51.3375
G1 X86.1994 Y-52.8757
G1 X85.2473 Y-54.3972
G1 X84.2685 Y-55.9016
G1 X83.263 Y-57.3884
G1 X82.2314 Y-58.8572
G1 X81.1738 Y-60.3074
G1 X80.0907 Y-61.7385
G1 X78.9823 Y-63.1503
G1 X77.8491 Y-64.5421
G1 X76.6913 Y-65.9136
G1 X75.5094 Y-67.2644
G1 X74.3037 Y-68.5939
G1 X73.0746 Y-69.9019
G1 X71.8224 Y-71.1878
G1 X70.5476 Y-72.4513
G1 X69.2507 Y-73.692
G1 X67.9318 Y-74.9095
G1 X66.5916 Y-76.1033
G1 X65.2305 Y-77.2732
G1 X63.8487 Y-78.4188
G1 X62.4469 Y-79.5396
G1 X61.0254 Y-80.6354
G1 X59.5846 Y-81.7058
G1 X58.1251 Y-82.7505
G1 X56.6473 Y-83.769
G1 X55.1516 Y-84.7612
G1 X53.6386 Y-85.7267
G1 X52.1086 Y-86.6652
G1 X50.5623 Y-87.5764
G1 X49. Y-88.46
G1 X47.4222 Y-89.3157
G1 X45.8296 Y-90.1433
G1 X44.2225 Y-90.9425
G1 X42.6015 Y-91.713
G1 X40.967 Y-92.4547
G1 X39.3197 Y-93.1672
G1 X37.6599 Y-93.8504
G1 X35.9883 Y-94.504
G1 X34.3054 Y-95.1278
G1 X32.6116 Y-95.7217
G1 X30.9076 Y-96.2854
G1 X29.1938 Y-96.8188
G1 X27.4709 Y-97.3217
G1 X25.7393 Y-97.7939
G1 X23.9995 Y-98.2354
G1 X22.2523 Y-98.6458
G1 X20.498 Y-99.0252
G1 X18.7372 Y-99.3734
G1 X16.9706 Y-99.6903
G1 X15.1986 Y-99.9758
G1 X13.4218 Y-100.2298
G1 X11.6408 Y-100.4523
G1 X9.8561 Y-100.643
G1 X8.0683 Y-100.8021
G1 X6.278 Y-100.9294
G1 X4.4857 Y-101.025
G1 X2.692 Y-101.0887
G1 X0.8974 Y-101.1205
G1 X-0.8974
G1 X-2.692 Y-101.0887
G1 X-4.4857 Y-101.025
G1 X-6.278 Y-100.9294
G1 X-8.0683 Y-100.8021
G1 X-9.8561 Y-100.643
G1 X-11.6408 Y-100.4523
G1 X-13.4218 Y-100.2298
G1 X-15.1986 Y-99.9758
G1 X-16.9706 Y-99.6903
G1 X-18.7372 Y-99.3734
G1 X-20.498 Y-99.0252
G1 X-22.2523 Y-98.6458
G1 X-23.9995 Y-98.2354
G1 X-25.7393 Y-97.7939
G1 X-27.4709 Y-97.3217
G1 X-29.1938 Y-96.8188
G1 X-30.9076 Y-96.2854
G1 X-32.6116 Y-95.7217
G1 X-34.3054 Y-95.1278
G1 X-35.9883 Y-94.504
G1 X-37.6599 Y-93.8504
G1 X-39.3197 Y-93.1672
G1 X-40.967 Y-92.4547
G1 X-42.6015 Y-91.713
G1 X-44.2225 Y-90.9425
G1 X-45.8296 Y-90.1433
G1 X-47.4222 Y-89.3157
G1 X-49. Y-88.46
G1 X-50.5623 Y-87.5764
G1 X-52.1086 Y-86.6652
G1 X-53.6386 Y-85.7267
G1 X-55.1516 Y-84.7612
G1 X-56.6473 Y-83.769
G1 X-58.1251 Y-82.7505
G1 X-59.5846 Y-81.7058
G1 X-61.0254 Y-80.6354
G1 X-62.4469 Y-79.5396
G1 X-63.8487 Y-78.4188
G1 X-65.2305 Y-77.2732
G1 X-66.5916 Y-76.1033
G1 X-67.9318 Y-74.9095
G1 X-69.2507 Y-73.692
G1 X-70.5476 Y-72.4513
G1 X-71.8224 Y-71.1878
G1 X-73.0746 Y-69.9019
G1 X-74.3037 Y-68.5939
G1 X-75.5094 Y-67.2644
G1 X-76.6913 Y-65.9136
G1 X-77.8491 Y-64.5421
G1 X-78.9823 Y-63.1503
G1 X-80.0907 Y-61.7385
G1 X-81.1738 Y-60.3074
G1 X-82.2314 Y-58.8572
G1 X-83.263 Y-57.3884
G1 X-84.2685 Y-55.9016
G1 X-85.2473 Y-54.3972
G1 X-86.1994 Y-52.8757
G1 X-87.1242 Y-51.3375
G1 X-88.0217 Y-49.7831
G1 X-88.8913 Y-48.213
G1 X-89.733 Y-46.6278
G1 X-90.5465 Y-45.0278
G1 X-91.3314 Y-43.4137
G1 X-92.0875 Y-41.7859
G1 X-92.8146 Y-40.1449
G1 X-93.5125 Y-38.4913
G1 X-94.1809 Y-36.8256
G1 X-94.8197 Y-35.1482
G1 X-95.4285 Y-33.4598
G1 X-96.0074 Y-31.7609
G1 X-96.5559 Y-30.0519
G1 X-97.0741 Y-28.3335
G1 X-97.5617 Y-26.6061
G1 X-98.0185 Y-24.8704
G1 X-98.4445 Y-23.1268
G1 X-98.8394 Y-21.376
G1 X-99.2032 Y-19.6184
G1 X-99.5358 Y-17.8546
G1 X-99.837 Y-16.0852
G1 X-100.1068 Y-14.3108
G1 X-100.345 Y-12.5318
G1 X-100.5516 Y-10.7489
G1 X-100.7265 Y-8.9626
G1 X-100.8698 Y-7.1735
G1 X-100.9812 Y-5.3821
G1 X-101.0608 Y-3.589
G1 X-101.1086 Y-1.7948
G1 X-101.1245 Y0.
G1 X-101.1086 Y1.7788
G1 X-101.061 Y3.557
G1 X-100.9817 Y5.334
G1 X-100.8706 Y7.1094
G1 X-100.7279 Y8.8825
G1 X-100.5535 Y10.6527
G1 X-100.3476 Y12.4196
G1 X-100.1101 Y14.1825
G1 X-99.8413 Y15.9409
G1 X-99.5411 Y17.6943
G1 X-99.2096 Y19.4419
G1 X-98.8471 Y21.1834
G1 X-98.4534 Y22.9182
G1 X-98.0289 Y24.6456
G1 X-97.5736 Y26.3652
G1 X-97.0877 Y28.0764
G1 X-96.5714 Y29.7786
G1 X-96.0247 Y31.4713
G1 X-95.4479 Y33.1541
G1 X-94.8412 Y34.8262
G1 X-94.2047 Y36.4873
G1 X-93.5386 Y38.1367
G1 X-92.8433 Y39.774
G1 X-92.1188 Y41.3986
G1 X-91.3654 Y43.01
G1 X-90.5834 Y44.6078
G1 X-89.773 Y46.1913
G1 X-88.9345 Y47.7601
G1 X-88.0681 Y49.3136
G1 X-87.1741 Y50.8515
G1 X-86.2528 Y52.3732
G1 X-85.3045 Y53.8781
G1 X-84.3294 Y55.3659
G1 X-83.328 Y56.8361
G1 X-82.3005 Y58.2882
G1 X-81.2472 Y59.7216
G1 X-80.1685 Y61.1361
G1 X-79.0648 Y62.5311
G1 X-77.9363 Y63.9061
G1 X-76.7835 Y65.2608
G1 X-75.6066 Y66.5947
G1 X-74.4062 Y67.9074
G1 X-73.1825 Y69.1985
G1 X-71.9359 Y70.4675
G1 X-70.6669 Y71.714
G1 X-69.3759 Y72.9377
G1 X-68.0632 Y74.1382
G1 X-66.7293 Y75.315
G1 X-65.3746 Y76.4679
G1 X-63.9995 Y77.5963
G1 X-62.6046 Y78.7001
G1 X-61.1901 Y79.7788
G1 X-59.7566 Y80.832
G1 X-58.3046 Y81.8596
G1 X-56.8344 Y82.861
G1 X-55.3466 Y83.836
G1 X-53.8416 Y84.7843
G1 X-52.3199 Y85.7056
G1 X-50.7821 Y86.5996
G1 X-49.2285 Y87.466
G1 X-47.6597 Y88.3046
