%
<UN4313_9100_90_OP40>(--UN4313_9100_90_OP40)
( CREATED BY HYPERMILL 2025 OPEN MIND TECHNOLOGIES AG )
( TOOL LIST BEGIN )
( T193 R5. R20. L130. SQUARE END MILL D10.00  OSG - EP019810  )
( T200 R3. R20. L120. SQUARE END MILL D6.00  CERATIZIT - 53524060  )
( T14000006 R1.5 R20. L125. SQUARE END MILL D3.0 LONG  CERATIZIT  5361103400  LT=125 BT40-SHRINKFIT-D06X090 )
( T11000041 R1. R20. L144. SQUARE END MILL D2.00  CERATIZIT - 5361102100  )
( T11000011 R1. R20. L95. 9100-90-T001 SPECIAL-9100-90-001 LT=95 BT40-ER16X070 )
( T20000138 D2.8 L147. SOLID CARBIDE DRILL D2.80  OSG - 30200280  )
( T13000032 R1. R20. L95. SOLID CARBIDE CHAMFER MILL D4.0 K90  OSG - 20900400  LT=95 BT40-ER16X070 )
( T194 R1.5 R20. L120. SOLID CARBIDE CHAMFER MILL D6.0 K90  OSG - 20900600  )
( T20000245 R1.5 R20. L130. M4X0.7 THREAD MILL  CERATIZIT - 5482104000  LT=130 BT40-ER25X100 )
( T22000014 R1.2 R20. L100. THREAD MILL D2.40 M P0.50  OSG - 48216003  LT=90 BT40-ER32X070 )
( T24000299 D2.99 L116. D2.99 H7 REAMER )
( T24000302 D3.02 L99. D3.02 H7 REAMER )
( T24000400 D4. L122. D4.00 H7 REAMER )
( T10000402 R1. R21. L105. BALL MILL D2.00  SECO - JH112020G1B.0Z2-HXT  LT=105 BT40-SHRINKFIT-D04X090 )
( T16006001 R3. R23. L180. LOLLYPOP D6.0 SECO-00040368 LT=180 BT40-SHRINKFIT-D06X120 )
( T14000023 R4.85 R20. L105.35 T-SLOT CUTTER D9.70 W0.84 R0  WALTER - MG520-09.7F063080  LT=105 BT40-ER32X070 )
( T24000401 R5.5 R20. L154.3 0.75 THREAD MILL )
( T197 R4. R20. L149. SQUARE END MILL D8.00  CERATIZIT - 53562080  LT=149 BT40-REGOFIX-4140.72566-PG25X120H )
( TOOL LIST END )
( PROGRAM BEGIN )
M145 (CANCEL INTERFERANCE)
M301
M11 M71 ( CLAMP OFF B, C )
G80 G40
G90 G17
G49
G69
( ORIGIN LIST BEGIN )
( ORIGIN DEFINITION )
( ORIGIN LIST END )
( SAFE POS. PROGRAM BEGIN )
G0 G53 Z-1.
G0 G53 X-394. Y-1.
G0 B0. C0.
( --- )
G54
( TOOL 193: SQUARE END MILL D10.00  OSG - EP019810  )
( BEFORE TOOL CHANGE )
T193 M6
T200
( AFTER TOOL CHANGE )
G05 P10000
( OPERATION 401: T193 3D OPTIMIZED ROUGHING )
G0 G43 H#544
G65 P7000 A130. B10. C-0.02 D#5083
G49
#900=2865. (XY FEEDRATE)
#901=955. (Z FEEDRATE)
#907=5.2356*#900 (CLEARANCE FEEDRATE)
S9549.
M3
M8
G0 B0. C0.
M10 M70 ( CLAMP ON B, C )
G0 G91 G43.4 H#544 Z-0.01
G90
G0 X-8.7099 Y92.2779
G0 Z90.5
G0 Z78.25
G1 Z76.25 F#901
G1 X-5.6595 Y92.1207 F#900
G1 X-5.3409 Y92.1158
G1 X-5.2131 Y92.1267
G1 X-4.8939 Y92.1687
G1 X-4.5443 Y92.1904
G1 X-4.1947 Y92.1874
G1 X-3.8452 Y92.161
G1 X-3.4956 Y92.11
G1 X-3.1461 Y92.0319
G1 X-2.7965 Y91.9293
G1 X-2.4469 Y91.795
G1 X-2.0974 Y91.6307
G1 X-1.705 Y91.4045
G1 X-1.3982 Y91.1936
G1 X-1.2128 Y91.0467
G1 X-1.0274 Y90.8862
G1 X-0.6991 Y90.5585
G1 X-0.5368 Y90.3728
G1 X-0.3909 Y90.1871
G1 X-0.3167 Y90.0804
G1 X-0.2284 Y90.0209
G1 X-0.1174 Y89.9797
G1 X0.0001 Y89.9658
G1 X0.1176 Y89.9799
G1 X0.2285 Y90.0212
G1 X0.3173 Y90.0811
G1 X0.3905 Y90.1871
G1 X0.5378 Y90.3728
G1 X0.6991 Y90.5585
G1 X1.0278 Y90.8862
G1 X1.213 Y91.0467
G1 X1.3982 Y91.1936
G1 X1.705 Y91.4045
G1 X2.0974 Y91.6307
G1 X2.4469 Y91.7954
G1 X2.7965 Y91.9274
G1 X3.1461 Y92.0322
G1 X3.4956 Y92.1097
G1 X3.8452 Y92.1608
G1 X4.1947 Y92.1872
G1 X4.5443 Y92.1903
G1 X4.8939 Y92.1687
G1 X5.1784 Y92.1314
G1 X5.3623 Y92.1181
G1 X5.6809 Y92.1285
G1 X8.6751 Y92.2839
G0 Z90.5
G0 X84.571 Y20.1076
G0 Z73.75
G1 Z71.75 F#901
G1 X84.6006 Y17.0533 F#900
G1 X84.6152 Y16.735
G1 X84.6339 Y16.6081
G1 X84.7511 Y16.002
G1 X84.8247 Y15.8941
G1 X84.9294 Y15.8063
G1 X85.054 Y15.75
G1 X85.1892 Y15.7297
G1 X85.3248 Y15.7466
G1 X85.4477 Y15.7984
G1 X86.0483 Y16.4294
G1 X86.6914 Y17.0425
G1 X87.1734 Y17.4781
G1 X87.6985 Y17.9301
G1 X88.0064 Y18.1772
G1 X88.7888 Y18.778
G1 X89.4879 Y19.2669
G1 X89.9604 Y19.5755
G1 X90.8862 Y20.1408
G1 X91.5771 Y20.5245
G1 X91.9349 Y20.7109
G1 X92.9836 Y21.2132
G1 X93.6827 Y21.5131
G1 X94.0869 Y21.6729
G1 X95.4305 Y22.1494
G1 X95.78 Y22.2586
G1 X96.4792 Y22.4509
G1 X97.1783 Y22.6278
G1 X97.8774 Y22.7857
G1 X98.5765 Y22.9127
G1 X99.6239 Y23.0711
G1 X100.6739 Y23.1718
G1 X101.373 Y23.2194
G1 X102.0722 Y23.2398
G1 X102.7713 Y23.2453
G1 X103.4704 Y23.2235
G1 X104.1695 Y23.1868
G1 X104.8687 Y23.1296
G1 X105.3753 Y23.0711
G1 X106.2669 Y22.9359
G1 X106.966 Y22.8171
G1 X107.6652 Y22.6618
G1 X108.3643 Y22.4958
G1 X109.0634 Y22.3023
G1 X109.7625 Y22.0852
G1 X110.9123 Y21.6729
G1 X111.5104 Y21.4332
G1 X111.8599 Y21.2796
G1 X112.5222 Y20.9737
G1 X113.2582 Y20.6119
G1 X114.3068 Y20.0281
G1 X115.3555 Y19.3734
G1 X116.0547 Y18.8886
G1 X116.9927 Y18.1772
G1 X117.4529 Y17.7976
G1 X118.152 Y17.1914
G1 X118.8512 Y16.5277
G1 X119.5503 Y15.8013
G1 X119.8998 Y15.4176
G1 X120.5293 Y14.6816
G1 X121.2981 Y13.6821
G1 X121.9972 Y12.6662
G1 X122.4801 Y11.8851
G1 X123.0459 Y10.8815
G1 X123.2486 Y10.4869
G1 X123.588 Y9.7877
G1 X123.8974 Y9.0886
G1 X124.1635 Y8.4387
G1 X124.4442 Y7.6562
G1 X124.6727 Y6.9912
G1 X125.0668 Y5.593
G1 X125.3691 Y4.1947
G1 X125.5816 Y2.7965
G1 X125.654 Y2.0974
G1 X125.7086 Y1.3982
G1 X125.7509 Y0.
G1 X125.7086 Y-1.3982
G1 X125.654 Y-2.0974
G1 X125.5816 Y-2.7965
G1 X125.3691 Y-4.1947
G1 X125.0668 Y-5.593
G1 X124.6727 Y-6.9912
G1 X124.4442 Y-7.6562
G1 X124.1635 Y-8.4387
G1 X124.0438 Y-8.7391
G1 X123.745 Y-9.4395
G1 X123.588 Y-9.7877
G1 X123.2486 Y-10.4869
G1 X123.0459 Y-10.8815
G1 X122.4801 Y-11.8851
G1 X121.9972 Y-12.6662
G1 X121.2981 Y-13.6821
G1 X120.5293 Y-14.6816
G1 X119.8998 Y-15.4176
G1 X119.5503 Y-15.8013
G1 X118.8512 Y-16.5277
G1 X118.152 Y-17.1914
G1 X117.4529 Y-17.7976
G1 X116.9927 Y-18.1772
G1 X116.0547 Y-18.8886
G1 X115.3555 Y-19.3734
G1 X114.3068 Y-20.0281
G1 X113.2582 Y-20.6119
G1 X112.5222 Y-20.9737
G1 X111.8599 Y-21.2796
G1 X111.5104 Y-21.4332
G1 X110.9123 Y-21.6729
G1 X109.7625 Y-22.0852
G1 X109.0634 Y-22.3023
G1 X108.7958 Y-22.372
G1 X108.3643 Y-22.4966
G1 X106.966 Y-22.8171
G1 X106.2669 Y-22.9359
G1 X105.3753 Y-23.0711
G1 X104.8687 Y-23.1284
G1 X104.1695 Y-23.1863
G1 X103.4704 Y-23.224
G1 X102.7713 Y-23.2445
G1 X102.0722 Y-23.2404
G1 X101.373 Y-23.2199
G1 X100.6739 Y-23.1729
G1 X99.6239 Y-23.0711
G1 X98.5765 Y-22.9127
G1 X97.8774 Y-22.7857
G1 X97.1783 Y-22.6273
G1 X96.4792 Y-22.4528
G1 X95.78 Y-22.2586
G1 X95.4305 Y-22.1494
G1 X94.0869 Y-21.6729
G1 X93.6827 Y-21.5131
G1 X92.9836 Y-21.2127
G1 X91.9349 Y-20.7109
G1 X91.5771 Y-20.5244
G1 X90.8862 Y-20.1408
G1 X89.9604 Y-19.5755
G1 X89.4879 Y-19.2669
G1 X88.7888 Y-18.778
G1 X88.0064 Y-18.1772
G1 X87.6985 Y-17.9301
G1 X87.1734 Y-17.4781
G1 X86.6914 Y-17.0425
G1 X85.9923 Y-16.3721
G1 X85.447 Y-15.798
G1 X85.3239 Y-15.746
G1 X85.1882 Y-15.729
G1 X85.0529 Y-15.7494
G1 X84.9282 Y-15.8057
G1 X84.8234 Y-15.8936
G1 X84.7529 Y-15.9972
G1 X84.6199 Y-16.6805
G1 X84.5952 Y-16.8632
G1 X84.5859 Y-17.1818
G1 X84.5559 Y-20.1799
G0 Z90.5
G0 X84.7672 Y19.1103
G0 Z65.5
G1 Z63.5 F#901
G1 X87.5349 Y20.4023 F#900
G1 X87.8185 Y20.5474
G1 X87.9262 Y20.617
G1 X88.3746 Y20.9243
G1 X88.5215 Y21.0356
G1 X89.2108 Y21.6988
G1 X90.9012 Y23.3463
G0 Z90.5
G0 X117.7671 Y24.0187
G0 Z65.5
G1 Z63.5 F#901
G1 X114.9264 Y21.9742 F#900
G1 X115.4566 Y21.6729
G1 X116.5599 Y20.9737
G1 X117.5512 Y20.2746
G1 X118.2471 Y19.734
G1 X118.5016 Y19.5332
G1 X119.2676 Y18.8764
G1 X119.5503 Y18.6224
G1 X120.2494 Y17.9574
G1 X120.715 Y17.4781
G1 X120.9485 Y17.2337
G1 X121.2981 Y16.8582
G1 X121.9685 Y16.0799
G1 X122.3468 Y15.6019
G1 X122.7899 Y15.0312
G1 X123.0459 Y14.6721
G1 X123.3955 Y14.1723
G1 X123.5252 Y13.9825
G1 X123.745 Y13.6411
G1 X124.1635 Y12.972
G1 X124.3895 Y12.5842
G1 X124.4442 Y12.4832
G1 X124.7787 Y11.8851
G1 X124.961 Y11.5356
G1 X125.1324 Y11.186
G1 X125.4696 Y10.4869
G1 X125.7755 Y9.7877
G1 X125.8424 Y9.628
G1 X126.0554 Y9.0886
G1 X126.3149 Y8.3895
G1 X126.5456 Y7.6904
G1 X126.7627 Y6.9912
G1 X126.8858 Y6.5378
G1 X126.9525 Y6.2921
G1 X127.1219 Y5.593
G1 X127.2721 Y4.8939
G1 X127.4115 Y4.0814
G1 X127.5042 Y3.4956
G1 X127.5916 Y2.7965
G1 X127.6585 Y2.0974
G1 X127.7117 Y1.3982
G1 X127.735 Y0.6991
G1 X127.7513 Y0.
G1 X127.735 Y-0.6991
G1 X127.7117 Y-1.3982
G1 X127.6585 Y-2.0974
G1 X127.5916 Y-2.7965
G1 X127.5042 Y-3.4956
G1 X127.4115 Y-4.0814
G1 X127.2721 Y-4.8939
G1 X127.1219 Y-5.593
G1 X126.9525 Y-6.2921
G1 X126.8858 Y-6.5378
G1 X126.7627 Y-6.9912
G1 X126.5456 Y-7.6904
G1 X126.3149 Y-8.3895
G1 X126.0554 Y-9.0886
G1 X125.8424 Y-9.628
G1 X125.7755 Y-9.7877
G1 X125.4696 Y-10.4869
G1 X125.1324 Y-11.186
G1 X124.961 Y-11.5356
G1 X124.7787 Y-11.8851
G1 X124.4442 Y-12.4832
G1 X124.3895 Y-12.5842
G1 X124.1635 Y-12.972
G1 X123.745 Y-13.6411
G1 X123.5252 Y-13.9825
G1 X123.3955 Y-14.1723
G1 X123.0459 Y-14.6721
G1 X122.7899 Y-15.0312
G1 X122.3468 Y-15.6019
G1 X121.9685 Y-16.0799
G1 X121.2981 Y-16.8582
G1 X120.9485 Y-17.2337
G1 X120.715 Y-17.4781
G1 X120.2494 Y-17.9574
G1 X119.5503 Y-18.6224
G1 X119.2676 Y-18.8764
G1 X118.5016 Y-19.5332
G1 X118.2418 Y-19.7382
G1 X117.5675 Y-20.262
G1 X117.5512 Y-20.2746
G1 X117.5312 Y-20.2893
G1 X116.5599 Y-20.9737
G1 X115.4566 Y-21.6729
G1 X114.8832 Y-21.9983
G1 X114.6355 Y-22.171
G1 X114.4364 Y-22.3635
G1 X114.2701 Y-22.585
G1 X114.141 Y-22.83
G1 X114.0521 Y-23.0924
G1 X114.0058 Y-23.3654
G1 X114.0032 Y-23.6424
G1 X114.0444 Y-23.9163
G1 X114.1283 Y-24.1802
G1 X114.2385 Y-24.4071
G1 X117.8901 Y-23.7897
G0 Z90.5
G0 X87.0187 Y-23.7261
G0 Z65.5
G1 Z63.5 F#901
G1 X90.6667 Y-24.364 F#900
G1 X90.7565 Y-24.1818
G1 X90.8491 Y-23.9212
G1 X90.8994 Y-23.6492
G1 X90.9061 Y-23.3727
G1 X90.8691 Y-23.0986
G1 X90.7892 Y-22.8338
G1 X90.6686 Y-22.585
G1 X90.5101 Y-22.3583
G1 X90.3178 Y-22.1595
G1 X90.0355 Y-21.9517
G1 X89.5507 Y-21.6729
G1 X89.3692 Y-21.5606
G1 X88.7888 Y-21.2018
G1 X88.0897 Y-20.7334
G1 X87.7715 Y-20.5067
G1 X87.7169 Y-20.4669
G1 X87.4534 Y-20.2746
G1 X87.1605 Y-20.049
G1 X86.905 Y-19.8853
G1 X86.6251 Y-19.7682
G1 X86.3291 Y-19.7012
G1 X86.026 Y-19.6864
G1 X85.7249 Y-19.7241
G1 X85.4348 Y-19.8133
G1 X85.1646 Y-19.9513
G1 X84.9222 Y-20.1339
G1 X84.715 Y-20.3556
G1 X84.5492 Y-20.6098
G1 X84.4298 Y-20.8888
G1 X84.3604 Y-21.1842
G1 X84.3431 Y-21.4872
G1 X84.3784 Y-21.7886
G1 X84.4652 Y-22.0793
G1 X84.601 Y-22.3507
G1 X84.7816 Y-22.5946
G1 X85.0109 Y-22.811
G0 Z90.5
G0 X112.4065 Y23.8404
G0 Z67.
G1 Z65. F#901
G1 X107.7374 Y24.7026 Z64.7628 F#900
G1 X107.4912 Y24.7369 Z64.7534
G1 X107.2429 Y24.7489 Z64.7501
G1 X97.7916 Y24.7492 Z64.75
G1 X85.1405 Y24.7491
G1 X85.0382 Y24.7094
G1 X84.9377 Y24.6382
G1 X84.8578 Y24.5445
G1 X84.8091 Y24.4462
G1 X84.7798 Y24.1198
G1 X84.7347 Y23.7702
G1 X84.6808 Y23.4207
G1 X84.6625 Y23.3333
G1 X84.6023 Y23.0711
G1 X84.4043 Y22.372
G1 X84.1612 Y21.6729
G1 X83.94 Y20.9737
G1 X83.8949 Y20.7744
G1 X83.8615 Y20.5245
G1 X83.8799 Y20.2746
G1 X83.8949 Y20.1822
G1 X84.0083 Y19.5755
G1 X84.1577 Y18.8764
G1 X84.3128 Y18.1772
G1 X84.4584 Y17.5318
G1 X84.4706 Y17.4781
G1 X84.5079 Y17.2768
G1 X84.5804 Y17.1685
G1 X84.6816 Y17.0811
G1 X84.8024 Y17.0235
G1 X84.9341 Y17.0001
G1 X85.0673 Y17.0124
G1 X85.1925 Y17.0596
G1 X85.9923 Y17.8277
G1 X86.3774 Y18.1772
G1 X87.1994 Y18.8764
G1 X88.0897 Y19.5659
G1 X88.7888 Y20.0589
G1 X89.107 Y20.2746
G1 X90.1871 Y20.9478
G1 X90.8862 Y21.3438
G1 X91.5853 Y21.7055
G1 X92.2844 Y22.047
G1 X93.0191 Y22.372
G1 X93.6827 Y22.6387
G1 X94.3818 Y22.9045
G1 X95.0809 Y23.1351
G1 X95.78 Y23.3487
G1 X96.4792 Y23.5422
G1 X97.1783 Y23.7047
G1 X97.8774 Y23.8568
G1 X98.5765 Y23.9769
G1 X99.2757 Y24.0824
G1 X99.9748 Y24.1681
G1 X100.6739 Y24.2273
G1 X101.373 Y24.2754
G1 X102.0722 Y24.2929
G1 X102.7713 Y24.2951
G1 X103.4704 Y24.2798
G1 X104.1695 Y24.2382
G1 X104.8687 Y24.1857
G1 X106.2669 Y24.0054
G1 X106.966 Y23.8829
G1 X107.5286 Y23.7702
G1 X108.3643 Y23.5818
G1 X109.0634 Y23.3922
G1 X109.7625 Y23.1868
G1 X110.4617 Y22.9564
G1 X111.1608 Y22.6985
G1 X111.8599 Y22.425
G1 X112.559 Y22.1153
G1 X113.2582 Y21.7844
G1 X113.9573 Y21.4298
G1 X114.7656 Y20.9737
G1 X115.3555 Y20.616
G1 X116.0547 Y20.1681
G1 X116.8972 Y19.5755
G1 X117.8011 Y18.8764
G1 X118.152 Y18.5828
G1 X118.8512 Y17.9765
G1 X119.5503 Y17.3115
G1 X119.8998 Y16.9579
G1 X120.2494 Y16.5906
G1 X120.7137 Y16.0799
G1 X121.2981 Y15.3999
G1 X121.9972 Y14.5041
G1 X122.3468 Y14.0125
G1 X122.8452 Y13.2834
G1 X123.3955 Y12.404
G1 X123.745 Y11.7868
G1 X124.0688 Y11.186
G1 X124.4209 Y10.4869
G1 X124.7367 Y9.7877
G1 X125.034 Y9.0886
G1 X125.3038 Y8.3895
G1 X125.5461 Y7.6904
G1 X125.7728 Y6.9912
G1 X125.9662 Y6.2921
G1 X126.1445 Y5.593
G1 X126.3012 Y4.8939
G1 X126.4296 Y4.1947
G1 X126.5415 Y3.5352
G1 X126.634 Y2.7965
G1 X126.7062 Y2.0974
G1 X126.7579 Y1.3982
G1 X126.7851 Y0.6991
G1 X126.8 Y0.
G1 X126.7851 Y-0.6991
G1 X126.7579 Y-1.3982
G1 X126.7062 Y-2.0974
G1 X126.634 Y-2.7965
G1 X126.5415 Y-3.5352
G1 X126.4296 Y-4.1947
G1 X126.3012 Y-4.8939
G1 X126.1445 Y-5.593
G1 X125.9662 Y-6.2921
G1 X125.7728 Y-6.9912
G1 X125.5461 Y-7.6904
G1 X125.3038 Y-8.3895
G1 X125.034 Y-9.0886
G1 X124.7367 Y-9.7877
G1 X124.4209 Y-10.4869
G1 X124.0688 Y-11.186
G1 X123.745 Y-11.7868
G1 X123.3955 Y-12.404
G1 X122.8452 Y-13.2834
G1 X122.3468 Y-14.0125
G1 X121.9972 Y-14.5041
G1 X121.2981 Y-15.3999
G1 X120.7137 Y-16.0799
G1 X120.2494 Y-16.5906
G1 X119.8998 Y-16.9579
G1 X119.5503 Y-17.3115
G1 X118.8512 Y-17.9765
G1 X118.152 Y-18.5828
G1 X117.8011 Y-18.8764
G1 X116.8972 Y-19.5755
G1 X116.0547 Y-20.1689
G1 X115.3555 Y-20.616
G1 X114.7656 Y-20.9737
G1 X113.9573 Y-21.4298
G1 X113.2582 Y-21.7835
G1 X112.559 Y-22.1153
G1 X111.8599 Y-22.4252
G1 X111.1608 Y-22.6983
G1 X110.4617 Y-22.9564
G1 X109.7625 Y-23.1872
G1 X109.0634 Y-23.392
G1 X108.3643 Y-23.5821
G1 X107.6652 Y-23.7411
G1 X106.966 Y-23.8834
G1 X106.2669 Y-24.0042
G1 X105.5678 Y-24.1015
G1 X104.8687 Y-24.1854
G1 X104.1695 Y-24.2381
G1 X103.4704 Y-24.2799
G1 X102.7713 Y-24.2952
G1 X102.0722 Y-24.293
G1 X101.373 Y-24.2755
G1 X100.6739 Y-24.2271
G1 X99.9748 Y-24.1677
G1 X99.2757 Y-24.0816
G1 X98.5765 Y-23.9778
G1 X97.8774 Y-23.8572
G1 X97.1783 Y-23.7052
G1 X96.4792 Y-23.5426
G1 X95.78 Y-23.3483
G1 X95.0809 Y-23.1353
G1 X94.3818 Y-22.9049
G1 X93.6827 Y-22.6383
G1 X93.0191 Y-22.372
G1 X92.2844 Y-22.047
G1 X91.5853 Y-21.7056
G1 X90.8862 Y-21.3438
G1 X90.1871 Y-20.9475
G1 X89.8375 Y-20.7373
G1 X89.107 Y-20.2746
G1 X88.7888 Y-20.0589
G1 X88.0897 Y-19.5657
G1 X87.1994 Y-18.8764
G1 X86.3774 Y-18.1772
G1 X85.9923 Y-17.8277
G1 X85.1974 Y-17.062
G1 X85.0722 Y-17.0133
G1 X84.9386 Y-16.9997
G1 X84.8062 Y-17.0222
G1 X84.6845 Y-17.0791
G1 X84.5824 Y-17.1663
G1 X84.508 Y-17.2764
G1 X84.4414 Y-17.6074
G1 X84.3128 Y-18.1772
G1 X84.1577 Y-18.8764
G1 X84.0083 Y-19.5755
G1 X83.8949 Y-20.1831
G1 X83.8799 Y-20.2746
G1 X83.8615 Y-20.5244
G1 X83.8949 Y-20.7743
G1 X83.94 Y-20.9737
G1 X84.1612 Y-21.6729
G1 X84.4043 Y-22.372
G1 X84.6023 Y-23.0711
G1 X84.66 Y-23.321
G1 X84.6934 Y-23.4971
G1 X84.7347 Y-23.7702
G1 X84.7688 Y-24.0365
G1 X84.8093 Y-24.4499
G1 X84.858 Y-24.5469
G1 X84.938 Y-24.6396
G1 X85.0381 Y-24.7102
G1 X85.1393 Y-24.7492
G1 X95.0809 Y-24.748
G1 X97.1783 Y-24.7498
G1 X97.9796
G1 X107.2222 Y-24.7495
G1 X107.514 Y-24.7254 Z64.7601
G1 X107.7755 Y-24.6674 Z64.7843
G1 X110.6036 Y-23.8463 Z65.1272
G1 X114.0037 Y-23.1865 Z63.5
G1 X110.8641 Y-24.7333
G1 X110.9005 Y-24.7497
G1 X111.3845 Y-24.7496
G1 X111.6536 Y-24.7272
G1 X111.893 Y-24.6743
G1 X114.7453 Y-23.8522
G1 X113.1256 Y-22.4807 Z65.2237
G1 X113.1244 Y-22.4797 Z65.225
G1 X109.0675 Y-24.0795 Z64.8902
G1 X109.2107 Y-24.2383 Z64.857
G1 X109.4151 Y-24.4107 Z64.8209
G1 X109.6432 Y-24.5502 Z64.7917
G1 X109.8897 Y-24.6539 Z64.77
G1 X110.149 Y-24.7196 Z64.7563
G1 X110.44 Y-24.748 Z64.7503
G1 X110.8176 Y-24.7494 Z64.75
G1 X111.0867 Y-24.727
G1 X111.3262 Y-24.6741
G1 X114.1784 Y-23.8521
G1 X115.9731 Y-23.759 Z63.5
G1 X118.865 Y-24.7422
G1 X119.1702 Y-24.8338
G1 X119.296 Y-24.8581
G1 X119.5503 Y-24.8954
G1 X120.0164 Y-24.981
G1 X120.3104 Y-25.0353 Z63.9597
G1 X120.5792 Y-25.0726 Z64.3769
G1 X120.821 Y-25.0943 Z64.7499
G1 X121.0337 Y-25.1016 Z65.0771
G1 X121.2156 Y-25.096 Z65.3569
G1 X121.3648 Y-25.0789 Z65.5877
G1 X121.4793 Y-25.0516 Z65.7688
G1 X121.5574 Y-25.0156 Z65.9013
G1 X121.5971 Y-24.9722 Z65.9926
G1 X121.602 Y-24.9482 Z66.0303
G1 X121.5966 Y-24.9228 Z66.0702
G1 X121.5539 Y-24.8688 Z66.1767
G1 X121.4673 Y-24.8115 Z66.3365
G1 X121.3348 Y-24.7524 Z66.5596
G1 X121.1546 Y-24.6929 Z66.8514
G1 X120.9248 Y-24.6342 Z67.2161
G1 X120.6434 Y-24.5779 Z67.6571
G1 X120.3321 Y-24.5273 Z68.142
G1 X120.085 Y-24.4972 Z68.5245
G1 X119.8782 Y-24.4822 Z68.8433
G1 X119.7111 Y-24.4811 Z69.1002
G1 X119.5836 Y-24.4928 Z69.2971
G1 X119.4952 Y-24.5162 Z69.4379
G1 X119.4457 Y-24.5501 Z69.5309
G1 X119.4354 Y-24.5707 Z69.5662
G1 X119.4346 Y-24.5934 Z69.6012
G1 X119.4618 Y-24.645 Z69.6916
G1 X119.5268 Y-24.7038 Z69.8265
G1 X119.6293 Y-24.7685 Z70.0129
G1 X119.769 Y-24.8382 Z70.2529
G1 X119.9455 Y-24.9115 Z70.5468
G1 X120.1586 Y-24.9875 Z70.8945
G1 X120.4078 Y-25.065 Z71.2957
G1 X120.6929 Y-25.1429 Z71.75
G1 X121.2981 Y-25.3248
G1 X121.6477 Y-25.4457
G1 X121.9972 Y-25.5843
G1 X122.6417 Y-25.8676
G1 X123.3955 Y-26.2704
G1 X123.8829 Y-26.5667
G1 X124.4442 Y-26.9559
G1 X124.8442 Y-27.2659
G1 X125.1433 Y-27.5185
G1 X125.6239 Y-27.965
G1 X125.8424 Y-28.1821
G1 X126.2753 Y-28.6641
G1 X126.7143 Y-29.1673
G1 X126.9198 Y-29.3632
G1 X127.7186 Y-30.0624
G1 X128.1767 Y-30.5191
G1 X128.3972 Y-30.7615
G1 X128.6389 Y-31.0414
G1 X128.9652 Y-31.4606
G1 X129.338 Y-31.9727
G1 X129.4609 Y-32.1597
G1 X129.876 Y-32.8588
G1 X130.0371 Y-33.1661
G1 X130.2269 Y-33.558
G1 X130.3799 Y-33.9075
G1 X130.5192 Y-34.2571
G1 X130.7363 Y-34.8852
G1 X130.8571 Y-35.3058
G1 X130.9479 Y-35.6553
G1 X131.0244 Y-36.0049
G1 X131.1439 Y-36.704
G1 X131.1869 Y-37.0536
G1 X131.2183 Y-37.4032
G1 X131.236 Y-37.7527
G1 X131.2511 Y-38.4518
G1 X131.2512 Y-41.3209
G1 X131.2515 Y-48.5385
G1 X131.2483 Y-55.93
G1 X131.2169 Y-56.6291
G1 X131.1843 Y-56.9786
G1 X131.0853 Y-57.6778
G1 X130.9404 Y-58.3769
G1 X130.851 Y-58.7265
G1 X130.6339 Y-59.4256
G1 X130.5069 Y-59.7751
G1 X130.3662 Y-60.1247
G1 X130.2099 Y-60.4743
G1 X130.0371 Y-60.8348
G1 X129.6575 Y-61.523
G1 X129.338 Y-62.0254
G1 X129.2042 Y-62.2221
G1 X128.9468 Y-62.5716
G1 X128.6703 Y-62.9212
G1 X128.3528 Y-63.2892
G1 X128.0422 Y-63.6203
G1 X127.6162 Y-64.0334
G1 X126.705 Y-64.84
G1 X126.5702 Y-65.0186
G1 X126.3784 Y-65.392
G1 X126.32 Y-65.5549
G1 X126.2862 Y-65.7177
G1 X126.2616 Y-66.0673
G1 X126.278 Y-66.242
G1 X126.3108 Y-66.4168
G1 X126.418 Y-66.7259
G1 X126.7163 Y-67.4655
G1 X126.8501 Y-67.8151
G1 X126.9054 Y-67.9789
G1 X127.1567 Y-68.8638
G1 X127.2352 Y-69.2133
G1 X127.3526 Y-69.9124
G1 X127.4031 Y-70.262
G1 X127.4571 Y-70.9611
G1 X127.4687 Y-71.3107
G1 Y-71.6603
G1 X127.4578 Y-72.0098
G1 X127.4373 Y-72.3594
G1 X127.4059 Y-72.7089
G1 X127.3062 Y-73.4081
G1 X127.2407 Y-73.7604
G1 X127.1655 Y-74.1072
G1 X126.973 Y-74.8063
G1 X126.859 Y-75.1559
G1 X126.7313 Y-75.5054
G1 X126.4405 Y-76.2046
G1 X126.2718 Y-76.5541
G1 X125.8424 Y-77.3243
G1 X125.6717 Y-77.6028
G1 X125.1829 Y-78.3019
G1 X124.8852 Y-78.6768
G1 X124.6053 Y-79.0011
G1 X124.1881 Y-79.4373
G1 X123.9239 Y-79.7002
G1 X123.4235 Y-80.1385
G1 X123.1019 Y-80.3993
G1 X122.6963 Y-80.699
G1 X122.3468 Y-80.9359
G1 X121.6477 Y-81.3551
G1 X120.9485 Y-81.7074
G1 X120.7519 Y-81.7976
G1 X120.2494 Y-82.0037
G1 X119.8998 Y-82.1321
G1 X119.2007 Y-82.3465
G1 X118.8512 Y-82.438
G1 X118.152 Y-82.5827
G1 X117.8025 Y-82.6373
G1 X117.1033 Y-82.7165
G1 X116.7538 Y-82.7329
G1 X116.0547 Y-82.7507
G1 X38.4518
G1 X37.0536 Y-83.387
G1 X35.6553 Y-83.996
G1 X34.2571 Y-84.5736
G1 X33.558 Y-84.8535
G1 X32.1597 Y-85.3956
G1 X30.528 Y-85.9923
G1 X28.6641 Y-86.63
G1 X27.2659 Y-87.0806
G1 X25.1685 Y-87.7101
G1 X23.7702 Y-88.0992
G1 X21.6729 Y-88.6386
G1 X20.2746 Y-88.9677
G1 X18.1772 Y-89.421
G1 X16.779 Y-89.6928
G1 X14.6816 Y-90.0614
G1 X12.5842 Y-90.3769
G1 X11.186 Y-90.5626
G1 X9.7877 Y-90.721
G1 X8.3895 Y-90.8602
G1 X8.2284 Y-90.8862
G1 X7.6904 Y-91.2863
G1 X6.9912 Y-91.7546
G1 X6.6417 Y-91.9649
G1 X6.0559 Y-92.2844
G1 X5.593 Y-92.5084
G1 X5.2434 Y-92.6681
G1 X4.8939 Y-92.8115
G1 X4.1947 Y-93.0696
G1 X3.4956 Y-93.2812
G1 X3.1461 Y-93.3693
G1 X2.4469 Y-93.5229
G1 X2.0974 Y-93.5803
G1 X1.3982 Y-93.6772
G1 X0.6991 Y-93.7291
G1 X0.3496 Y-93.7455
G1 X0. Y-93.751
G1 X-0.3496 Y-93.7455
G1 X-0.6991 Y-93.7291
G1 X-1.3982 Y-93.6772
G1 X-2.0974 Y-93.5803
G1 X-2.4469 Y-93.5229
G1 X-3.1461 Y-93.3693
G1 X-3.4956 Y-93.2812
G1 X-4.1947 Y-93.0696
G1 X-4.8939 Y-92.8115
G1 X-5.2434 Y-92.6681
G1 X-5.593 Y-92.5084
G1 X-6.0559 Y-92.2844
G1 X-6.6417 Y-91.9649
G1 X-6.9912 Y-91.7546
G1 X-7.6904 Y-91.2863
G1 X-8.2284 Y-90.8862
G1 X-8.3895 Y-90.8602
G1 X-9.7877 Y-90.721
G1 X-11.186 Y-90.5626
G1 X-12.5842 Y-90.3769
G1 X-14.6816 Y-90.0614
G1 X-16.779 Y-89.6928
G1 X-18.1772 Y-89.421
G1 X-20.2746 Y-88.9677
G1 X-21.6729 Y-88.6386
G1 X-23.7702 Y-88.0992
G1 X-25.1685 Y-87.7101
G1 X-27.2659 Y-87.0806
G1 X-28.6641 Y-86.63
G1 X-30.528 Y-85.9923
G1 X-32.1597 Y-85.3956
G1 X-33.558 Y-84.8535
G1 X-34.2571 Y-84.5736
G1 X-35.6553 Y-83.996
G1 X-37.0536 Y-83.387
G1 X-38.4518 Y-82.7507
G1 X-116.0547
G1 X-116.7538 Y-82.7329
G1 X-117.1033 Y-82.7165
G1 X-117.8025 Y-82.6373
G1 X-118.152 Y-82.5827
G1 X-118.8512 Y-82.438
G1 X-119.2007 Y-82.3465
G1 X-119.8998 Y-82.1321
G1 X-120.2494 Y-82.0037
G1 X-120.7519 Y-81.7976
G1 X-120.9485 Y-81.7074
G1 X-121.6477 Y-81.3551
G1 X-122.3468 Y-80.9359
G1 X-122.6963 Y-80.699
G1 X-123.1019 Y-80.3993
G1 X-123.4235 Y-80.1385
G1 X-123.9239 Y-79.7002
G1 X-124.1881 Y-79.4373
G1 X-124.6053 Y-79.0011
G1 X-124.8852 Y-78.6768
G1 X-125.1829 Y-78.3019
G1 X-125.6717 Y-77.6028
G1 X-125.8424 Y-77.3243
G1 X-126.2718 Y-76.5541
G1 X-126.4405 Y-76.2046
G1 X-126.7313 Y-75.5054
G1 X-126.859 Y-75.1559
G1 X-126.973 Y-74.8063
G1 X-127.1655 Y-74.1072
G1 X-127.2407 Y-73.7604
G1 X-127.3062 Y-73.4081
G1 X-127.4059 Y-72.7089
G1 X-127.4373 Y-72.3594
G1 X-127.4578 Y-72.0098
G1 X-127.4687 Y-71.6603
G1 Y-71.3107
G1 X-127.4571 Y-70.9611
G1 X-127.4031 Y-70.262
G1 X-127.3526 Y-69.9124
G1 X-127.2352 Y-69.2133
G1 X-127.1567 Y-68.8638
G1 X-126.9655 Y-68.1646
G1 X-126.8501 Y-67.8151
G1 X-126.5415 Y-67.0337
G1 X-126.3176 Y-66.4168
G1 X-126.2852 Y-66.242
G1 X-126.2718 Y-66.0673
G1 X-126.2681 Y-65.8925
G1 X-126.2916 Y-65.7177
G1 X-126.3688 Y-65.3961
G1 X-126.5757 Y-65.0186
G1 X-126.7228 Y-64.8353
G1 X-126.9082 Y-64.6519
G1 X-127.6168 Y-64.032
G1 X-128.0422 Y-63.6203
G1 X-128.3528 Y-63.2892
G1 X-128.6703 Y-62.9212
G1 X-128.9475 Y-62.5716
G1 X-129.338 Y-62.0282
G1 X-129.5032 Y-61.7756
G1 X-129.6575 Y-61.523
G1 X-129.8555 Y-61.1775
G1 X-130.0371 Y-60.832
G1 X-130.2092 Y-60.4743
G1 X-130.3662 Y-60.1247
G1 X-130.5069 Y-59.7751
G1 X-130.6339 Y-59.4256
G1 X-130.7363 Y-59.1142
G1 X-130.851 Y-58.7265
G1 X-130.9397 Y-58.3769
G1 X-131.0176 Y-58.0273
G1 X-131.0845 Y-57.6778
G1 X-131.1835 Y-56.9786
G1 X-131.2156 Y-56.6291
G1 X-131.2483 Y-55.93
G1 X-131.2511 Y-55.2308
G1 Y-38.4518
G1 X-131.2347 Y-37.7527
G1 X-131.219 Y-37.4032
G1 X-131.1869 Y-37.0536
G1 X-131.0899 Y-36.3545
G1 X-130.9479 Y-35.6553
G1 X-130.8592 Y-35.3058
G1 X-130.754 Y-34.9562
G1 X-130.5192 Y-34.2571
G1 X-130.2242 Y-33.558
G1 X-130.0371 Y-33.1674
G1 X-129.6773 Y-32.5093
G1 X-129.4609 Y-32.1597
G1 X-128.9721 Y-31.4606
G1 X-128.6389 Y-31.0414
G1 X-128.3986 Y-30.7615
G1 X-127.9398 Y-30.2767
G1 X-127.7186 Y-30.0624
G1 X-126.9293 Y-29.3632
G1 X-126.7095 Y-29.1523
G1 X-126.5415 Y-28.9413
G1 X-126.4575 Y-28.8027
G1 X-126.3401 Y-28.4893
G1 X-126.3012 Y-28.3145
G1 X-126.2759 Y-28.1398
G1 X-126.2698 Y-27.965
G1 X-126.2848 Y-27.7902
G1 X-126.3135 Y-27.6154
G1 X-126.4227 Y-27.2659
G1 X-126.4753 Y-27.1696
G1 X-126.5415 Y-27.0733
G1 X-126.7382 Y-26.82
G1 X-126.9976 Y-26.5667
G1 X-127.7923 Y-25.8676
G1 X-128.2047 Y-25.4457
G1 X-128.4614 Y-25.1685
G1 X-128.6389 Y-24.9582
G1 X-129.0253 Y-24.4694
G1 X-129.506 Y-23.7702
G1 X-129.719 Y-23.4207
G1 X-130.0371 Y-22.8321
G1 X-130.257 Y-22.372
G1 X-130.5451 Y-21.6729
G1 X-130.7772 Y-20.9737
G1 X-130.8776 Y-20.6242
G1 X-130.9643 Y-20.2746
G1 X-131.1022 Y-19.5755
G1 X-131.1937 Y-18.8764
G1 X-131.2237 Y-18.5268
G1 X-131.2374 Y-18.1772
G1 X-131.2511 Y-17.4781
G1 Y17.4781
G1 X-131.2401 Y18.1772
G1 X-131.2237 Y18.5268
G1 X-131.1937 Y18.8764
G1 X-131.1022 Y19.5755
G1 X-130.9643 Y20.2746
G1 X-130.8776 Y20.6242
G1 X-130.7772 Y20.9737
G1 X-130.5451 Y21.6729
G1 X-130.4045 Y22.0224
G1 X-130.2529 Y22.372
G1 X-130.0371 Y22.8321
G1 X-129.7163 Y23.4207
G1 X-129.506 Y23.7702
G1 X-129.0253 Y24.4694
G1 X-128.6389 Y24.9582
G1 X-128.46 Y25.1685
G1 X-128.2095 Y25.4457
G1 X-127.7909 Y25.8676
G1 X-127.2407 Y26.3633
G1 X-127.0044 Y26.5667
G1 X-126.732 Y26.8173
G1 X-126.6299 Y26.9426
G1 X-126.5415 Y27.0679
G1 X-126.4309 Y27.2659
G1 X-126.3599 Y27.4406
G1 X-126.3135 Y27.6154
G1 X-126.2821 Y27.7902
G1 X-126.2671 Y27.965
G1 X-126.2759 Y28.1398
G1 X-126.2985 Y28.3145
G1 X-126.336 Y28.4893
G1 X-126.3982 Y28.6641
G1 X-126.4644 Y28.8034
G1 X-126.5415 Y28.9427
G1 X-126.7027 Y29.1529
G1 X-126.9184 Y29.3632
G1 X-127.2407 Y29.6336
G1 X-127.7188 Y30.0624
G1 X-127.9398 Y30.2762
G1 X-128.176 Y30.5188
G1 X-128.3986 Y30.7615
G1 X-128.9734 Y31.4606
G1 X-129.1612 Y31.7163
G1 X-129.4609 Y32.1597
G1 X-129.675 Y32.5093
G1 X-129.8754 Y32.8588
G1 X-130.0371 Y33.1674
G1 X-130.2229 Y33.558
G1 X-130.5192 Y34.2571
G1 X-130.6633 Y34.6912
G1 X-130.8702 Y35.2658
G1 X-131.0807 Y35.7594
G1 X-131.2941 Y36.1774
G1 X-131.4016 Y36.3598
G1 X-131.5096 Y36.5254
G1 X-131.6179 Y36.6748
G1 X-131.7264 Y36.8087
G1 X-131.8351 Y36.9279
G1 X-131.9439 Y37.0329
G1 X-132.0526 Y37.1246
G1 X-132.1611 Y37.2035
G1 X-132.2695 Y37.2703
G1 X-132.3775 Y37.3258
G1 X-132.485 Y37.3706
G1 X-132.6553 Y37.4205
G1 X-132.6986 Y37.4309 F#907
G1 X-132.8043 Y37.4477
G1 X-133.0133 Y37.4582
G1 X-133.2184 Y37.4423
G1 X-133.4187 Y37.4056
G1 X-133.6135 Y37.3535
G1 X-133.8022 Y37.2914
G1 X-134.323 Y37.1001
G1 X-134.4791 Y37.053
G1 X-134.6252 Y37.0232
G1 X-134.6943 Y37.0165
G1 X-134.8239 Y37.023
G1 X-134.9416 Y37.0606
G1 X-134.9957 Y37.0928
G1 X-135.0466 Y37.1348
G1 X-135.0941 Y37.1872
G1 X-135.1382 Y37.2509
G1 X-135.2156 Y37.4144
G1 X-135.2781 Y37.6309
G1 X-135.3248 Y37.9058
G1 X-135.3551 Y38.2446
G1 X-135.3638 Y38.4396
G1 X-135.368 Y38.8844
G1 X-135.3537 Y39.4067
G1 X-135.3204 Y40.012
G1 X-134.8505 Y47.0766
G1 X-134.3806 Y54.1412
G1 X-134.0673 Y58.8509
G1 X-134.0423 Y59.1117
G1 X-134.0033 Y59.3584
G1 X-133.9507 Y59.5915
G1 X-133.8851 Y59.8119
G1 X-133.807 Y60.0202
G1 X-133.7167 Y60.217
G1 X-133.615 Y60.403
G1 X-133.5021 Y60.5789
G1 X-133.3786 Y60.7454
G1 X-133.2451 Y60.9031
G1 X-133.1019 Y61.0527
G1 X-132.9497 Y61.1948
G1 X-132.7888 Y61.3302
G1 X-132.4431 Y61.5834
G1 X-132.0688 Y61.8175
G1 X-131.8721 Y61.9291
G1 X-131.4623 Y62.1448
G1 X-129.6745 Y63.0047
G1 X-129.2101 Y63.2458
G1 X-128.7465 Y63.5081
G1 X-127.1829 Y64.4379 F#900
G1 X-126.9362 Y64.6064
G1 X-126.7174 Y64.809
G1 X-126.5363 Y65.0459
G1 X-126.3983 Y65.3102
G1 X-126.3072 Y65.5941
G1 X-126.2583 Y65.9695
G1 X-126.2575 Y66.0673
G1 X-126.2739 Y66.242
G1 X-126.3067 Y66.4168
G1 X-126.4159 Y66.7239
G1 X-126.7233 Y67.4655
G1 X-126.9008 Y67.9653
G1 X-127.0659 Y68.5142
G1 X-127.1574 Y68.8638
G1 X-127.2352 Y69.2133
G1 X-127.3581 Y69.9124
G1 X-127.4359 Y70.6116
G1 X-127.4578 Y70.9611
G1 X-127.4687 Y71.3107
G1 X-127.4701 Y71.6603
G1 X-127.4605 Y72.0098
G1 X-127.4059 Y72.7089
G1 X-127.3629 Y73.0585
G1 X-127.3089 Y73.4081
G1 X-127.1655 Y74.1072
G1 X-127.0761 Y74.4568
G1 X-126.973 Y74.8063
G1 X-126.8604 Y75.1559
G1 X-126.7341 Y75.5054
G1 X-126.5415 Y75.9779
G1 X-126.2725 Y76.5541
G1 X-126.0882 Y76.9037
G1 X-125.6717 Y77.6028
G1 X-125.4348 Y77.9524
G1 X-125.1433 Y78.3497
G1 X-124.8866 Y78.6754
G1 X-124.4442 Y79.1772
G1 X-123.9239 Y79.7002
G1 X-123.745 Y79.8627
G1 X-123.4235 Y80.1378
G1 X-123.1019 Y80.3993
G1 X-122.6963 Y80.6984
G1 X-122.0873 Y81.0984
G1 X-121.6477 Y81.3564
G1 X-121.2981 Y81.536
G1 X-120.7492 Y81.7976
G1 X-120.2494 Y82.0037
G1 X-119.8998 Y82.1294
G1 X-119.2007 Y82.3492
G1 X-118.8512 Y82.438
G1 X-118.152 Y82.5841
G1 X-117.8025 Y82.638
G1 X-117.1033 Y82.7152
G1 X-116.7538 Y82.7329
G1 X-116.0547 Y82.7507
G1 X-38.4518
G1 X-37.4796 Y83.1958
G1 X-36.3545 Y83.6915
G1 X-34.2093 Y84.5941
G1 X-32.1597 Y85.3956
G1 X-30.7615 Y85.9076
G1 X-30.0624 Y86.1548
G1 X-27.965 Y86.8553
G1 X-27.2659 Y87.0779
G1 X-25.1685 Y87.7101
G1 X-24.4694 Y87.9081
G1 X-23.0711 Y88.2836
G1 X-21.0502 Y88.7888
G1 X-20.2746 Y88.9663
G1 X-18.1772 Y89.4224
G1 X-16.0799 Y89.8197
G1 X-14.6816 Y90.0573
G1 X-13.2834 Y90.2785
G1 X-11.186 Y90.5598
G1 X-10.4869 Y90.6459
G1 X-9.0886 Y90.7974
G1 X-8.3895 Y90.8643
G1 X-8.2257 Y90.8862
G1 X-7.6904 Y91.289
G1 X-7.2589 Y91.5853
G1 X-6.8713 Y91.8259
G1 X-6.7974 Y91.9227
G1 X-6.7509 Y92.0353
G1 Y102.0722
G1 X-6.7468 Y102.4217
G1 X-6.7291 Y102.7713
G1 X-6.6904 Y103.1209
G1 X-6.6353 Y103.4704
G1 X-6.5583 Y103.82
G1 X-6.4623 Y104.1695
G1 X-6.4049 Y104.3443
G1 X-6.4376 Y104.5191
G1 X-6.5468 Y104.8687
G1 X-6.6324 Y105.2182
G1 X-6.6934 Y105.5678
G1 X-6.7324 Y105.9174
G1 X-6.7496 Y106.2669
G1 X-6.7509 Y110.4617
G1 X-6.7375 Y111.8599
G1 X-6.7509 Y112.559
G1 Y113.9573
G1 X-6.7441 Y114.3068
G1 X-6.7127 Y114.6564
G1 X-6.6594 Y115.006
G1 X-6.5816 Y115.3555
G1 X-6.4771 Y115.7051
G1 X-6.3454 Y116.0547
G1 X-6.1522 Y116.465
G1 X-5.9903 Y116.7538
G1 X-5.8053 Y117.0371
G1 X-5.593 Y117.3205
G1 X-5.4824 Y117.4529
G1 X-5.1881 Y117.7683
G1 X-4.8939 Y118.0373
G1 X-4.7532 Y118.152
G1 X-4.474 Y118.3589
G1 X-4.1947 Y118.5385
G1 X-3.8882 Y118.7071
G1 X-3.4956 Y118.888
G1 X-3.1461 Y119.0177
G1 X-2.7965 Y119.1202
G1 X-2.4469 Y119.1966
G1 X-2.0974 Y119.2485
G1 X-1.7478 Y119.2765
G1 X-1.3982 Y119.2826
G1 X0.6991 Y119.2786
G1 X1.0487 Y119.254
G1 X1.3982 Y119.2048
G1 X1.7478 Y119.1311
G1 X2.0974 Y119.0328
G1 X2.3397 Y118.9488
G1 X2.5821 Y118.8512
G1 X2.7965 Y118.7528
G1 X3.1461 Y118.5671
G1 X3.4956 Y118.3432
G1 X3.7537 Y118.152
G1 X3.9742 Y117.9677
G1 X4.1947 Y117.7615
G1 X4.4829 Y117.4529
G1 X4.702 Y117.1791
G1 X4.8939 Y116.9054
G1 X4.9895 Y116.7538
G1 X5.184 Y116.4042
G1 X5.3458 Y116.0547
G1 X5.4769 Y115.7051
G1 X5.5807 Y115.3555
G1 X5.6634 Y114.9814
G1 X5.7147 Y114.6564
G1 X5.7435 Y114.3068
G1 X5.7505 Y113.9573
G1 X5.7519 Y112.559
G1 X5.7365 Y111.8599
G1 X5.7515 Y110.4617
G1 X5.7505 Y106.2669
G1 X5.7332 Y105.9174
G1 X5.7173 Y105.7516
G1 X5.7207 Y105.7346
G1 X5.8115 Y105.5678
G1 X6.0193 Y105.2182
G1 X6.1943 Y104.8687
G1 X6.2921 Y104.6418
G1 X6.3831 Y104.4057
G1 X6.4631 Y104.1695
G1 X6.5583 Y103.82
G1 X6.6344 Y103.4704
G1 X6.6899 Y103.1209
G1 X6.7291 Y102.7713
G1 X6.7468 Y102.4217
G1 X6.7509 Y102.0722
G1 Y92.0353
G1 X6.7974 Y91.9227
G1 X6.8713 Y91.8259
G1 X7.2589 Y91.5853
G1 X7.6904 Y91.289
G1 X8.2264 Y90.8862
G1 X8.3895 Y90.8643
G1 X9.0886 Y90.7974
G1 X10.4869 Y90.6459
G1 X11.186 Y90.5612
G1 X12.5842 Y90.3769
G1 X13.8869 Y90.1871
G1 X14.6816 Y90.0614
G1 X16.779 Y89.6941
G1 X18.1772 Y89.421
G1 X19.5755 Y89.1261
G1 X21.6729 Y88.6386
G1 X22.372 Y88.4652
G1 X23.7702 Y88.0992
G1 X25.1685 Y87.7101
G1 X27.2659 Y87.082
G1 X28.6641 Y86.6286
G1 X29.3632 Y86.3938
G1 X30.7615 Y85.909
G1 X32.4301 Y85.2932
G1 X34.212 Y84.5941
G1 X35.8916 Y83.8949
G1 X37.4824 Y83.1958
G1 X39.151 Y82.4243
G1 X40.5492 Y81.7429
G1 X41.9475 Y81.037
G1 X42.6466 Y80.671
G1 X44.0448 Y79.9159
G1 X45.4431 Y79.1308
G1 X46.7539 Y78.3649
G1 X47.5405 Y78.3729
G1 X48.2396 Y78.3429
G1 X48.7066 Y78.3019
G1 X49.6378 Y78.1709
G1 X50.337 Y78.0275
G1 X50.6865 Y77.9408
G1 X51.0361 Y77.8404
G1 X51.7352 Y77.6165
G1 X52.1039 Y77.4806
G1 X52.7839 Y77.1918
G1 X53.1335 Y77.0307
G1 X53.8326 Y76.6634
G1 X54.1821 Y76.4585
G1 X54.5836 Y76.2046
G1 X55.2308 Y75.7512
G1 X55.5531 Y75.5054
G1 X55.93 Y75.1927
G1 X56.3614 Y74.8063
G1 X56.6291 Y74.5455
G1 X57.0565 Y74.1072
G1 X57.66 Y73.4081
G1 X58.0273 Y72.9247
G1 X58.4185 Y72.3594
G1 X58.6391 Y72.0098
G1 X59.0351 Y71.3107
G1 X59.4256 Y70.5037
G1 X59.6685 Y69.9124
G1 X59.8024 Y69.5629
G1 X59.9199 Y69.2133
G1 X60.0516 Y68.7842
G1 X60.1247 Y68.6412
G1 X61.056 Y67.8151
G1 X61.1777 Y67.7512
G1 X118.8512 Y67.7509
G1 X119.5503 Y67.7386
G1 X119.8998 Y67.7243
G1 X120.2494 Y67.6935
G1 X120.599 Y67.6526
G1 X120.9485 Y67.6007
G1 X121.2981 Y67.5392
G1 X121.6477 Y67.4641
G1 X122.3468 Y67.2798
G1 X123.0459 Y67.0436
G1 X123.3955 Y66.907
G1 X124.0884 Y66.5964
G1 X124.7937 Y66.2188
G1 X125.1433 Y66.0058
G1 X125.5748 Y65.7177
G1 X125.8424 Y65.5238
G1 X126.1558 Y65.2835
G1 X127.6121 Y64.0375
G1 X127.9398 Y63.7227
G1 X128.3528 Y63.2892
G1 X128.6703 Y62.9212
G1 X128.9475 Y62.5716
G1 X129.338 Y62.0214
G1 X129.6575 Y61.523
G1 X130.0371 Y60.832
G1 X130.2085 Y60.4743
G1 X130.5076 Y59.7751
G1 X130.6339 Y59.4256
G1 X130.851 Y58.7265
G1 X130.9397 Y58.3769
G1 X131.0845 Y57.6778
G1 X131.1835 Y56.9786
G1 X131.2156 Y56.6291
G1 X131.2483 Y55.93
G1 X131.2511 Y55.2308
G1 Y38.4518
G1 X131.2183 Y37.4032
G1 X131.1869 Y37.0536
G1 X131.0899 Y36.3545
G1 X130.9479 Y35.6553
G1 X130.8592 Y35.3058
G1 X130.754 Y34.9562
G1 X130.5192 Y34.2571
G1 X130.2229 Y33.558
G1 X130.0371 Y33.1674
G1 X129.676 Y32.5093
G1 X129.4609 Y32.1597
G1 X128.9721 Y31.4606
G1 X128.6389 Y31.0414
G1 X128.3986 Y30.7615
G1 X127.9398 Y30.2767
G1 X127.7186 Y30.0624
G1 X126.9198 Y29.3632
G1 X126.7143 Y29.1673
G1 X126.6347 Y29.077
G1 X126.3379 Y28.6847
G1 X124.5571 Y26.2603
G0 Z90.5
G0 X4.5488 Y92.9266
G0 Z78.725
G1 Z76.725 F#901
G1 X7.3745 Y91.3594 Z76.2704 F#900
G1 X7.5902 Y91.2398 Z76.2516
G1 X8.0521 Y90.9546 Z76.25
G1 X8.147 Y90.9018
G1 X8.2395 Y90.8652
G1 X8.3295 Y90.8441
G1 X8.4169 Y90.8383
G1 X8.5018 Y90.8471
G1 X8.5841 Y90.8701
G1 X8.6638 Y90.9068
G1 X8.7408 Y90.9567
G1 X8.8152 Y91.0194
G1 X8.8869 Y91.0942
G1 X9.0222 Y91.2786
G1 X9.1465 Y91.506
G1 X9.2594 Y91.7724
G1 X9.361 Y92.0741
G1 X9.4082 Y92.2489
G1 X9.4415 Y92.3724 Z76.2501 F#907
G1 X9.5288 Y92.7672 Z76.2504
G1 X9.5947 Y93.1509 Z76.2506
G1 X9.6483 Y93.554 Z76.2509
G1 X9.6894 Y93.9727 Z76.2512
G1 X9.7177 Y94.4031 Z76.2515
G1 X9.7332 Y94.8412 Z76.2518
G1 X9.7355 Y95.2831 Z76.252
G1 X9.7245 Y95.7249 Z76.2523
G1 X9.7 Y96.1627 Z76.2526
G1 X9.6616 Y96.5926 Z76.2529
G1 X9.6094 Y97.0106 Z76.2532
G1 X9.5429 Y97.4128 Z76.2535
G1 X9.4621 Y97.7953 Z76.2537
G1 X9.4162 Y97.9779 Z76.2539
G1 X9.3135 Y98.3235 Z76.2541
G1 X9.1958 Y98.6396 Z76.2543
G1 X9.063 Y98.9223 Z76.2545
G1 X8.9149 Y99.1677 Z76.2547
G1 X8.835 Y99.2751 Z76.2548
G1 X8.7513 Y99.3718 Z76.2549
G1 X8.6636 Y99.4571 Z76.255
G1 X8.5719 Y99.5307 Z76.2551
G1 X8.4763 Y99.592
G1 X8.3766 Y99.6405 Z76.2552
G1 X8.2729 Y99.6758 Z76.2553
G1 X8.1652 Y99.6973 Z76.2554
G1 X8.0533 Y99.7046
G1 X3.4532 Y99.7053 Z76.2585
G1 X-3.4471 Y99.7062 Z76.2631
G1 X-8.0473 Y99.7069 Z76.2662
G1 X-8.1591 Y99.6996 Z76.2663
G1 X-8.2669 Y99.6781
G1 X-8.3705 Y99.6429 Z76.2664
G1 X-8.4702 Y99.5944 Z76.2665
G1 X-8.5658 Y99.5332 Z76.2666
G1 X-8.6575 Y99.4597
G1 X-8.7452 Y99.3744 Z76.2667
G1 X-8.829 Y99.2779 Z76.2668
G1 X-8.9089 Y99.1705 Z76.2669
G1 X-9.0571 Y98.9253 Z76.2671
G1 X-9.19 Y98.6429 Z76.2673
G1 X-9.3078 Y98.3269 Z76.2675
G1 X-9.4107 Y97.9816 Z76.2678
G1 X-9.4567 Y97.799 Z76.2679
G1 X-9.5377 Y97.4167 Z76.2682
G1 X-9.6043 Y97.0147 Z76.2684
G1 X-9.6568 Y96.597 Z76.2687
G1 X-9.6953 Y96.1673 Z76.269
G1 X-9.7201 Y95.7297 Z76.2693
G1 X-9.7313 Y95.2881 Z76.2696
G1 X-9.7292 Y94.8463 Z76.2699
G1 X-9.714 Y94.4083 Z76.2702
G1 X-9.6858 Y93.9781 Z76.2705
G1 X-9.6449 Y93.5594 Z76.2707
G1 X-9.5915 Y93.1563 Z76.271
G1 X-9.5257 Y92.7727 Z76.2713
G1 X-9.4479 Y92.4124 Z76.2715
G1 X-9.4036 Y92.2481 Z76.2716
G1 X-9.3582 Y92.0795 Z76.2651 F#900
G1 X-9.2567 Y91.7777 Z76.2564
G1 X-9.1438 Y91.511 Z76.2517
G1 X-9.0195 Y91.2834 Z76.25
G1 X-8.8842 Y91.0988
G1 X-8.8125 Y91.0238
G1 X-8.738 Y90.961
G1 X-8.6609 Y90.9109
G1 X-8.5812 Y90.874
G1 X-8.4988 Y90.8508
G1 X-8.4138 Y90.8417
G1 X-8.3263 Y90.8473
G1 X-8.2362 Y90.868
G1 X-8.1436 Y90.9044
G1 X-8.0486 Y90.9569
G1 X-7.6409 Y91.2102
G1 X-7.4036 Y91.3423 Z76.2708
G1 X-4.602 Y92.9016 Z76.7219
G0 Z90.5
G0 X117.1915 Y-23.9316
G0 Z65.5
G1 Z63.5 F#901
G1 X120.0034 Y-24.9258 F#900
G1 X120.4936 Y-25.0918
G1 X120.7929 Y-25.1685
G1 X121.2981 Y-25.3248
G1 X121.6477 Y-25.4457
G1 X121.9972 Y-25.5843
G1 X122.6417 Y-25.8676
G1 X123.3955 Y-26.2704
G1 X123.8829 Y-26.5667
G1 X124.4442 Y-26.9559
G1 X124.8442 Y-27.2659
G1 X125.1433 Y-27.5185
G1 X125.6239 Y-27.965
G1 X125.8424 Y-28.1821
G1 X126.2753 Y-28.6641
G1 X126.7143 Y-29.1673
G1 X126.9198 Y-29.3632
G1 X127.7186 Y-30.0624
G1 X128.1767 Y-30.5191
G1 X128.3972 Y-30.7615
G1 X128.6389 Y-31.0414
G1 X128.9652 Y-31.4606
G1 X129.338 Y-31.9727
G1 X129.4609 Y-32.1597
G1 X129.876 Y-32.8588
G1 X130.0371 Y-33.1661
G1 X130.2269 Y-33.558
G1 X130.3799 Y-33.9075
G1 X130.5192 Y-34.2571
G1 X130.7363 Y-34.8852
G1 X130.8571 Y-35.3058
G1 X130.9479 Y-35.6553
G1 X131.0244 Y-36.0049
G1 X131.1439 Y-36.704
G1 X131.1869 Y-37.0536
G1 X131.2183 Y-37.4032
G1 X131.236 Y-37.7527
G1 X131.2511 Y-38.4518
G1 X131.2517 Y-55.2308
G1 X131.2483 Y-55.93
G1 X131.2169 Y-56.6291
G1 X131.1843 Y-56.9786
G1 X131.0853 Y-57.6778
G1 X130.9404 Y-58.3769
G1 X130.851 Y-58.7265
G1 X130.6339 Y-59.4256
G1 X130.5069 Y-59.7751
G1 X130.3662 Y-60.1247
G1 X130.2099 Y-60.4743
G1 X130.0371 Y-60.8348
G1 X129.6575 Y-61.523
G1 X129.338 Y-62.0254
G1 X129.2042 Y-62.2221
G1 X128.9468 Y-62.5716
G1 X128.6703 Y-62.9212
G1 X128.3528 Y-63.2892
G1 X128.0422 Y-63.6203
G1 X127.6162 Y-64.0334
G1 X126.705 Y-64.84
G1 X126.5702 Y-65.0186
G1 X126.3784 Y-65.392
G1 X126.32 Y-65.5549
G1 X126.2862 Y-65.7177
G1 X126.2616 Y-66.0673
G1 X126.278 Y-66.242
G1 X126.3108 Y-66.4168
G1 X126.418 Y-66.7259
G1 X126.7163 Y-67.4655
G1 X126.8501 Y-67.8151
G1 X126.9054 Y-67.9789
G1 X127.1567 Y-68.8638
G1 X127.2352 Y-69.2133
G1 X127.3526 Y-69.9124
G1 X127.4031 Y-70.262
G1 X127.4571 Y-70.9611
G1 X127.4687 Y-71.3107
G1 Y-71.6603
G1 X127.4578 Y-72.0098
G1 X127.4373 Y-72.3594
G1 X127.4059 Y-72.7089
G1 X127.3062 Y-73.4081
G1 X127.2407 Y-73.7604
G1 X127.1655 Y-74.1072
G1 X126.973 Y-74.8063
G1 X126.859 Y-75.1559
G1 X126.7313 Y-75.5054
G1 X126.4405 Y-76.2046
G1 X126.2718 Y-76.5541
G1 X125.8424 Y-77.3243
G1 X125.6717 Y-77.6028
G1 X125.1829 Y-78.3019
G1 X124.8852 Y-78.6768
G1 X124.6053 Y-79.0011
G1 X124.1881 Y-79.4373
G1 X123.9239 Y-79.7002
G1 X123.4235 Y-80.1385
G1 X123.1019 Y-80.3993
G1 X122.6963 Y-80.699
G1 X122.3468 Y-80.9359
G1 X121.6477 Y-81.3551
G1 X120.9485 Y-81.7074
G1 X120.7519 Y-81.7976
G1 X120.2494 Y-82.0037
G1 X119.8998 Y-82.1321
G1 X119.2007 Y-82.3465
G1 X118.8512 Y-82.438
G1 X118.152 Y-82.5827
G1 X117.8025 Y-82.6373
G1 X117.1033 Y-82.7165
G1 X116.7538 Y-82.7329
G1 X116.0547 Y-82.7507
G1 X38.4518
G1 X37.0536 Y-83.387
G1 X35.6553 Y-83.996
G1 X34.2571 Y-84.5736
G1 X33.558 Y-84.8535
G1 X32.1597 Y-85.3956
G1 X30.528 Y-85.9923
G1 X28.6641 Y-86.63
G1 X27.2659 Y-87.0806
G1 X25.1685 Y-87.7101
G1 X23.7702 Y-88.0992
G1 X21.6729 Y-88.6386
G1 X20.2746 Y-88.9677
G1 X18.1772 Y-89.421
G1 X16.779 Y-89.6928
G1 X14.6816 Y-90.0614
G1 X12.5842 Y-90.3769
G1 X11.186 Y-90.5626
G1 X9.7877 Y-90.721
G1 X8.3895 Y-90.8602
G1 X8.2284 Y-90.8862
G1 X7.6904 Y-91.2863
G1 X6.9912 Y-91.7546
G1 X6.6417 Y-91.9649
G1 X6.0559 Y-92.2844
G1 X5.593 Y-92.5084
G1 X5.2434 Y-92.6681
G1 X4.8939 Y-92.8115
G1 X4.1947 Y-93.0696
G1 X3.4956 Y-93.2812
G1 X3.1461 Y-93.3693
G1 X2.4469 Y-93.5229
G1 X2.0974 Y-93.5803
G1 X1.3982 Y-93.6772
G1 X0.6991 Y-93.7291
G1 X0.3496 Y-93.7455
G1 X0. Y-93.751
G1 X-0.3496 Y-93.7455
G1 X-0.6991 Y-93.7291
G1 X-1.3982 Y-93.6772
G1 X-2.0974 Y-93.5803
G1 X-2.4469 Y-93.5229
G1 X-3.1461 Y-93.3693
G1 X-3.4956 Y-93.2812
G1 X-4.1947 Y-93.0696
G1 X-4.8939 Y-92.8115
G1 X-5.2434 Y-92.6681
G1 X-5.593 Y-92.5084
G1 X-6.0559 Y-92.2844
G1 X-6.6417 Y-91.9649
G1 X-6.9912 Y-91.7546
G1 X-7.6904 Y-91.2863
G1 X-8.2284 Y-90.8862
G1 X-8.3895 Y-90.8602
G1 X-9.7877 Y-90.721
G1 X-11.186 Y-90.5626
G1 X-12.5842 Y-90.3769
G1 X-14.6816 Y-90.0614
G1 X-16.779 Y-89.6928
G1 X-18.1772 Y-89.421
G1 X-20.2746 Y-88.9677
G1 X-21.6729 Y-88.6386
G1 X-23.7702 Y-88.0992
G1 X-25.1685 Y-87.7101
G1 X-27.2659 Y-87.0806
G1 X-28.6641 Y-86.63
G1 X-30.528 Y-85.9923
G1 X-32.1597 Y-85.3956
G1 X-33.558 Y-84.8535
G1 X-34.2571 Y-84.5736
G1 X-35.6553 Y-83.996
G1 X-37.0536 Y-83.387
G1 X-38.4518 Y-82.7507
G1 X-116.0547
G1 X-116.7538 Y-82.7329
G1 X-117.1033 Y-82.7165
G1 X-117.8025 Y-82.6373
G1 X-118.152 Y-82.5827
G1 X-118.8512 Y-82.438
G1 X-119.2007 Y-82.3465
G1 X-119.8998 Y-82.1321
G1 X-120.2494 Y-82.0037
G1 X-120.7519 Y-81.7976
G1 X-120.9485 Y-81.7074
G1 X-121.6477 Y-81.3551
G1 X-122.3468 Y-80.9359
G1 X-122.6963 Y-80.699
G1 X-123.1019 Y-80.3993
G1 X-123.4235 Y-80.1385
G1 X-123.9239 Y-79.7002
G1 X-124.1881 Y-79.4373
G1 X-124.6053 Y-79.0011
G1 X-124.8852 Y-78.6768
G1 X-125.1829 Y-78.3019
G1 X-125.6717 Y-77.6028
G1 X-125.8424 Y-77.3243
G1 X-126.2718 Y-76.5541
G1 X-126.4405 Y-76.2046
G1 X-126.7313 Y-75.5054
G1 X-126.859 Y-75.1559
G1 X-126.973 Y-74.8063
G1 X-127.1655 Y-74.1072
G1 X-127.2407 Y-73.7604
G1 X-127.3062 Y-73.4081
G1 X-127.4059 Y-72.7089
G1 X-127.4373 Y-72.3594
G1 X-127.4578 Y-72.0098
G1 X-127.4687 Y-71.6603
G1 Y-71.3107
G1 X-127.4571 Y-70.9611
G1 X-127.4031 Y-70.262
G1 X-127.3526 Y-69.9124
G1 X-127.2352 Y-69.2133
G1 X-127.1567 Y-68.8638
G1 X-126.9655 Y-68.1646
G1 X-126.8501 Y-67.8151
G1 X-126.4247 Y-66.7253
G1 X-126.3216 Y-66.4168
G1 X-126.2861 Y-66.242
G1 X-126.2725 Y-66.0673
G1 X-126.2684 Y-65.8925
G1 X-126.2916 Y-65.7177
G1 X-126.3688 Y-65.3961
G1 X-126.5757 Y-65.0186
G1 X-126.7228 Y-64.8353
G1 X-126.9082 Y-64.6519
G1 X-127.6168 Y-64.032
G1 X-128.0422 Y-63.6203
G1 X-128.3528 Y-63.2892
G1 X-128.6703 Y-62.9212
G1 X-128.9475 Y-62.5716
G1 X-129.338 Y-62.0282
G1 X-129.5032 Y-61.7756
G1 X-129.6575 Y-61.523
G1 X-129.8555 Y-61.1775
G1 X-130.0371 Y-60.832
G1 X-130.2092 Y-60.4743
G1 X-130.3662 Y-60.1247
G1 X-130.5069 Y-59.7751
G1 X-130.6339 Y-59.4256
G1 X-130.7363 Y-59.1142
G1 X-130.851 Y-58.7265
G1 X-130.9397 Y-58.3769
G1 X-131.0176 Y-58.0273
G1 X-131.0845 Y-57.6778
G1 X-131.1835 Y-56.9786
G1 X-131.2156 Y-56.6291
G1 X-131.2483 Y-55.93
G1 X-131.2511 Y-55.2308
G1 Y-38.4518
G1 X-131.2347 Y-37.7527
G1 X-131.219 Y-37.4032
G1 X-131.1869 Y-37.0536
G1 X-131.0899 Y-36.3545
G1 X-130.9479 Y-35.6553
G1 X-130.8592 Y-35.3058
G1 X-130.754 Y-34.9562
G1 X-130.5192 Y-34.2571
G1 X-130.2242 Y-33.558
G1 X-130.0371 Y-33.1674
G1 X-129.6773 Y-32.5093
G1 X-129.4609 Y-32.1597
G1 X-128.9721 Y-31.4606
G1 X-128.6389 Y-31.0414
G1 X-128.3986 Y-30.7615
G1 X-127.9398 Y-30.2767
G1 X-127.7186 Y-30.0624
G1 X-126.9293 Y-29.3632
G1 X-126.7095 Y-29.1523
G1 X-126.5415 Y-28.9413
G1 X-126.4575 Y-28.8027
G1 X-126.3401 Y-28.4893
G1 X-126.3012 Y-28.3145
G1 X-126.2759 Y-28.1398
G1 X-126.2698 Y-27.965
G1 X-126.2848 Y-27.7902
G1 X-126.3135 Y-27.6154
G1 X-126.4227 Y-27.2659
G1 X-126.4753 Y-27.1696
G1 X-126.5415 Y-27.0733
G1 X-126.7382 Y-26.82
G1 X-126.9976 Y-26.5667
G1 X-127.7923 Y-25.8676
G1 X-128.2047 Y-25.4457
G1 X-128.4614 Y-25.1685
G1 X-128.6389 Y-24.9582
G1 X-129.0253 Y-24.4694
G1 X-129.506 Y-23.7702
G1 X-129.719 Y-23.4207
G1 X-130.0371 Y-22.8321
G1 X-130.257 Y-22.372
G1 X-130.5451 Y-21.6729
G1 X-130.7772 Y-20.9737
G1 X-130.8776 Y-20.6242
G1 X-130.9643 Y-20.2746
G1 X-131.1022 Y-19.5755
G1 X-131.1937 Y-18.8764
G1 X-131.2237 Y-18.5268
G1 X-131.2374 Y-18.1772
G1 X-131.2511 Y-17.4781
G1 Y17.4781
G1 X-131.2401 Y18.1772
G1 X-131.2237 Y18.5268
G1 X-131.1937 Y18.8764
G1 X-131.1022 Y19.5755
G1 X-130.9643 Y20.2746
G1 X-130.8776 Y20.6242
G1 X-130.7772 Y20.9737
G1 X-130.5451 Y21.6729
G1 X-130.4045 Y22.0224
G1 X-130.2529 Y22.372
G1 X-130.0371 Y22.8321
G1 X-129.7163 Y23.4207
G1 X-129.506 Y23.7702
G1 X-129.0253 Y24.4694
G1 X-128.6389 Y24.9582
G1 X-128.46 Y25.1685
G1 X-128.2095 Y25.4457
G1 X-127.7909 Y25.8676
G1 X-127.2407 Y26.3633
G1 X-127.0044 Y26.5667
G1 X-126.732 Y26.8173
G1 X-126.6299 Y26.9426
G1 X-126.5415 Y27.0679
G1 X-126.4309 Y27.2659
G1 X-126.3599 Y27.4406
G1 X-126.3135 Y27.6154
G1 X-126.2821 Y27.7902
G1 X-126.2671 Y27.965
G1 X-126.2759 Y28.1398
G1 X-126.2985 Y28.3145
G1 X-126.336 Y28.4893
G1 X-126.3982 Y28.6641
G1 X-126.4644 Y28.8034
G1 X-126.5415 Y28.9427
G1 X-126.7027 Y29.1529
G1 X-126.9184 Y29.3632
G1 X-127.2407 Y29.6336
G1 X-127.7188 Y30.0624
G1 X-127.9398 Y30.2762
G1 X-128.176 Y30.5188
G1 X-128.3986 Y30.7615
G1 X-128.6389 Y31.0422
G1 X-128.9734 Y31.4606
G1 X-129.338 Y31.9719
G1 X-129.675 Y32.5093
G1 X-129.8754 Y32.8588
G1 X-130.0371 Y33.1661
G1 X-130.225 Y33.558
G1 X-130.3803 Y33.9075
G1 X-130.5192 Y34.2571
G1 X-130.7363 Y34.8841
G1 X-130.8591 Y35.3058
G1 X-130.9491 Y35.6553
G1 X-131.025 Y36.0049
G1 X-131.0899 Y36.3545
G1 X-131.1441 Y36.704
G1 X-131.1874 Y37.0536
G1 X-131.2192 Y37.4032
G1 X-131.2374 Y37.7527
G1 X-131.2511 Y38.4518
G1 Y55.2308
G1 X-131.247 Y55.93
G1 X-131.211 Y56.6291
G1 X-131.1832 Y56.9786
G1 X-131.1391 Y57.3282
G1 X-131.0173 Y58.0273
G1 X-130.9402 Y58.3769
G1 X-130.8495 Y58.7265
G1 X-130.6339 Y59.4256
G1 X-130.3621 Y60.1247
G1 X-130.2116 Y60.4743
G1 X-130.0419 Y60.8238
G1 X-129.6575 Y61.523
G1 X-129.338 Y62.0282
G1 X-129.2042 Y62.2221
G1 X-128.9454 Y62.5716
G1 X-128.6702 Y62.9212
G1 X-128.353 Y63.2892
G1 X-127.9398 Y63.7241
G1 X-127.6128 Y64.0368
G1 X-126.9027 Y64.6499
G1 X-126.7159 Y64.8342
G1 X-126.5415 Y65.0504
G1 X-126.4457 Y65.2172
G1 X-126.3744 Y65.3841
G1 X-126.3249 Y65.5509
G1 X-126.2891 Y65.7177
G1 X-126.2655 Y65.8925
G1 X-126.2638 Y66.0673
G1 X-126.277 Y66.242
G1 X-126.3121 Y66.4168
G1 X-126.4173 Y66.7239
G1 X-126.7233 Y67.4655
G1 X-126.9027 Y67.9707
G1 X-127.0659 Y68.5142
G1 X-127.1574 Y68.8638
G1 X-127.2352 Y69.2133
G1 X-127.3581 Y69.9124
G1 X-127.4359 Y70.6116
G1 X-127.4578 Y70.9611
G1 X-127.4687 Y71.3107
G1 X-127.4701 Y71.6603
G1 X-127.4605 Y72.0098
G1 X-127.4059 Y72.7089
G1 X-127.3629 Y73.0585
G1 X-127.3089 Y73.4081
G1 X-127.1655 Y74.1072
G1 X-127.0761 Y74.4568
G1 X-126.973 Y74.8063
G1 X-126.8604 Y75.1559
G1 X-126.7341 Y75.5054
G1 X-126.5415 Y75.9779
G1 X-126.2725 Y76.5541
G1 X-126.0882 Y76.9037
G1 X-125.6717 Y77.6028
G1 X-125.4348 Y77.9524
G1 X-125.1433 Y78.3497
G1 X-124.8866 Y78.6754
G1 X-124.4442 Y79.1772
G1 X-123.9239 Y79.7002
G1 X-123.745 Y79.8627
G1 X-123.4235 Y80.1378
G1 X-123.1019 Y80.3993
G1 X-122.6963 Y80.6984
G1 X-122.0873 Y81.0984
G1 X-121.6477 Y81.3564
G1 X-121.2981 Y81.536
G1 X-120.7492 Y81.7976
G1 X-120.2494 Y82.0037
G1 X-119.8998 Y82.1294
G1 X-119.2007 Y82.3492
G1 X-118.8512 Y82.438
G1 X-118.152 Y82.5841
G1 X-117.8025 Y82.638
G1 X-117.1033 Y82.7152
G1 X-116.7538 Y82.7329
G1 X-116.0547 Y82.7507
G1 X-38.4518
G1 X-37.4796 Y83.1958
G1 X-36.3545 Y83.6915
G1 X-34.2093 Y84.5941
G1 X-32.1597 Y85.3956
G1 X-30.7615 Y85.9076
G1 X-30.0624 Y86.1548
G1 X-27.965 Y86.8553
G1 X-27.2659 Y87.0779
G1 X-25.1685 Y87.7101
G1 X-24.4694 Y87.9081
G1 X-23.0711 Y88.2836
G1 X-21.0502 Y88.7888
G1 X-20.2746 Y88.9663
G1 X-18.1772 Y89.4224
G1 X-16.0799 Y89.8197
G1 X-14.6816 Y90.0573
G1 X-13.2834 Y90.2785
G1 X-11.186 Y90.5598
G1 X-10.4869 Y90.6459
G1 X-9.0886 Y90.7974
G1 X-8.3895 Y90.8643
G1 X-8.2257 Y90.8862
G1 X-7.6904 Y91.289
G1 X-7.2589 Y91.5853
G1 X-6.8713 Y91.8259
G1 X-6.7974 Y91.9227
G1 X-6.7509 Y92.0354
G1 Y124.4442
G1 X-6.7459 Y125.1433
G1 X-6.7228 Y125.4928
G1 X-6.6833 Y125.8424
G1 X-6.6244 Y126.192
G1 X-6.6638 Y126.5415
G1 X-6.7157 Y126.8911
G1 X-6.7457 Y127.2407
G1 X-6.7509 Y127.9398
G1 X-6.7502 Y133.1832
G1 X-6.7332 Y133.5328
G1 X-6.6936 Y133.8823
G1 X-6.6294 Y134.2319
G1 X-6.54 Y134.5815
G1 X-6.4232 Y134.931
G1 X-6.2921 Y135.2519
G1 X-6.105 Y135.6301
G1 X-5.8948 Y135.9797
G1 X-5.6462 Y136.3293
G1 X-5.3172 Y136.7123
G1 X-4.9922 Y137.0284
G1 X-4.8939 Y137.1131
G1 X-4.5443 Y137.3855
G1 X-4.1947 Y137.6142
G1 X-3.994 Y137.7275
G1 X-3.7448 Y137.8538
G1 X-3.4956 Y137.9637
G1 X-3.1461 Y138.0935
G1 X-2.7965 Y138.1959
G1 X-2.4469 Y138.2723
G1 X-2.0974 Y138.3242
G1 X-1.7478 Y138.3522
G1 X-1.3982 Y138.3584
G1 X0.6991 Y138.3543
G1 X1.0487 Y138.3297
G1 X1.3982 Y138.2805
G1 X1.7478 Y138.2068
G1 X2.0974 Y138.1085
G1 X2.4469 Y137.9835
G1 X2.7965 Y137.8286
G1 X2.9931 Y137.7275
G1 X3.2444 Y137.5841
G1 X3.4956 Y137.4189
G1 X3.7435 Y137.2359
G1 X3.9913 Y137.0284
G1 X4.1947 Y136.8372
G1 X4.4351 Y136.5832
G1 X4.6454 Y136.3293
G1 X4.898 Y135.9749
G1 X5.1042 Y135.6301
G1 X5.2803 Y135.2806
G1 X5.4237 Y134.931
G1 X5.5165 Y134.6566
G1 X5.6285 Y134.2319
G1 X5.6934 Y133.8823
G1 X5.7336 Y133.5328
G1 X5.75 Y133.1832
G1 X5.7512 Y128.4641
G1 X5.7739 Y128.2893
G1 X5.9885 Y127.9398
G1 X6.1526 Y127.6241
G1 X6.3206 Y127.2407
G1 X6.4445 Y126.8911
G1 X6.5466 Y126.5415
G1 X6.6232 Y126.192
G1 X6.6834 Y125.8424
G1 X6.7226 Y125.4928
G1 X6.7454 Y125.1433
G1 X6.7511 Y122.4803
G1 X6.8027 Y122.3631
G1 X6.8902 Y122.2571
G1 X7.0032 Y122.179
G1 X7.1332 Y122.1346
G1 X7.2704 Y122.1272
G1 X7.4044 Y122.1575
G1 X7.5251 Y122.223
G1 X7.6234 Y122.319
G1 X7.633 Y122.3357
G1 X14.2747 Y138.7762
G1 X14.429 Y139.1258
G1 X14.6816 Y139.6433
G1 X14.7827 Y139.8249
G1 X14.9991 Y140.1745
G1 X15.2319 Y140.524
G1 X15.5774 Y140.9719
G1 X15.7931 Y141.2231
G1 X16.0799 Y141.5208
G1 X16.5004 Y141.9223
G1 X16.779 Y142.1517
G1 X17.1006 Y142.3974
G1 X17.4221 Y142.6214
G1 X17.8277 Y142.8658
G1 X18.1772 Y143.0611
G1 X18.8764 Y143.3765
G1 X19.2259 Y143.5089
G1 X19.5755 Y143.6223
G1 X19.925 Y143.7179
G1 X20.2746 Y143.7971
G1 X20.6242 Y143.8626
G1 X20.9737 Y143.9118
G1 X21.3233 Y143.9418
G1 X21.6729 Y143.9609
G1 X22.372 Y143.9677
G1 X24.4694
G1 X25.1685 Y143.9773
G1 X25.8731 Y144.0196
G1 X26.9163 Y144.1227
G1 X27.2659 Y144.1371
G1 X27.965 Y144.1193
G1 X28.3145 Y144.0865
G1 X28.7897 Y144.0196
G1 X29.3632 Y143.9008
G1 X29.7128 Y143.8073
G1 X30.4119 Y143.5677
G1 X30.7615 Y143.4188
G1 X30.9704 Y143.3205
G1 X31.4606 Y143.0693
G1 X31.8102 Y142.8569
G1 X32.1597 Y142.6255
G1 X32.512 Y142.3619
G1 X32.8588 Y142.0725
G1 X33.3054 Y141.6478
G1 X33.558 Y141.3733
G1 X33.9724 Y140.8736
G1 X34.2571 Y140.4639
G1 X34.4674 Y140.1444
G1 X34.6504 Y139.8249
G1 X34.9562 Y139.1981
G1 X35.1262 Y138.7762
G1 X35.2484 Y138.4266
G1 X35.3536 Y138.0771
G1 X35.5133 Y137.378
G1 X35.5707 Y137.0284
G1 X35.6076 Y136.6788
G1 X35.6335 Y136.3293
G1 X35.6499 Y135.9797
G1 X35.6444 Y135.6301
G1 X35.5939 Y134.931
G1 X35.5447 Y134.5815
G1 X35.4027 Y133.8823
G1 X35.3044 Y133.5328
G1 X35.0641 Y132.8336
G1 X17.7402 Y89.9559
G1 X17.7356 Y89.8705
G1 X17.7539 Y89.762
G1 X17.7954 Y89.6602
G1 X17.8582 Y89.57
G1 X17.9392 Y89.4956
G1 X18.0133 Y89.4529
G1 X19.5755 Y89.1261
G1 X21.6729 Y88.64
G1 X22.372 Y88.4652
G1 X23.7702 Y88.0992
G1 X25.1685 Y87.7101
G1 X26.5667 Y87.2977
G1 X27.2659 Y87.082
G1 X28.4757 Y86.6914
G1 X30.0624 Y86.1548
G1 X31.4606 Y85.6564
G1 X32.4301 Y85.2932
G1 X34.212 Y84.5941
G1 X35.8916 Y83.8949
G1 X37.7527 Y83.0743
G1 X39.151 Y82.4243
G1 X40.5492 Y81.7429
G1 X41.9475 Y81.037
G1 X42.6466 Y80.671
G1 X44.0448 Y79.9159
G1 X45.4431 Y79.1308
G1 X46.7539 Y78.3649
G1 X47.5405 Y78.3729
G1 X48.2396 Y78.3429
G1 X48.7066 Y78.3019
G1 X49.6378 Y78.1709
G1 X50.337 Y78.0275
G1 X50.6865 Y77.9408
G1 X51.0361 Y77.8404
G1 X51.7352 Y77.6165
G1 X52.1039 Y77.4806
G1 X52.4343 Y77.3475
G1 X53.1335 Y77.032
G1 X53.8326 Y76.6634
G1 X54.1821 Y76.4584
G1 X54.5317 Y76.2398
G1 X54.9079 Y75.986
G1 X55.2308 Y75.7537
G1 X55.5531 Y75.5054
G1 X55.93 Y75.1955
G1 X56.3614 Y74.8063
G1 X56.6291 Y74.551
G1 X57.0565 Y74.1072
G1 X57.3282 Y73.8054
G1 X57.66 Y73.4081
G1 X58.0273 Y72.9247
G1 X58.183 Y72.7089
G1 X58.4192 Y72.3594
G1 X58.7265 Y71.8623
G1 X59.0351 Y71.3107
G1 X59.2132 Y70.9611
G1 X59.4256 Y70.5037
G1 X59.5546 Y70.2081
G1 X59.6727 Y69.9124
G1 X59.8018 Y69.5629
G1 X59.9199 Y69.2133
G1 X60.0523 Y68.7842
G1 X60.1247 Y68.6412
G1 X61.056 Y67.8151
G1 X61.1776 Y67.7512
G1 X77.0624 Y67.7504
G1 X77.1233 Y67.769
G1 X77.2103 Y67.8159
G1 X77.2863 Y67.8789
G1 X77.3263 Y67.9284
G1 X90.4158 Y100.3244
G1 X90.5735 Y100.6739
G1 X90.7203 Y100.9784
G1 X90.8862 Y101.2829
G1 X91.1572 Y101.7226
G1 X91.4023 Y102.0722
G1 X91.5853 Y102.3125
G1 X91.7744 Y102.5419
G1 X91.9827 Y102.7713
G1 X92.2844 Y103.0867
G1 X92.7146 Y103.4704
G1 X92.9836 Y103.6944
G1 X93.3249 Y103.9429
G1 X93.6827 Y104.1805
G1 X94.0322 Y104.3873
G1 X94.3818 Y104.5669
G1 X94.7198 Y104.7287
G1 X95.0809 Y104.8782
G1 X95.4305 Y105.0032
G1 X95.78 Y105.109
G1 X96.1296 Y105.2032
G1 X96.4792 Y105.2783
G1 X97.1783 Y105.3821
G1 X97.5279 Y105.4087
G1 X97.8774 Y105.4244
G1 X98.227 Y105.4258
G1 X98.5765 Y105.408
G1 X98.9261 Y105.3807
G1 X99.2757 Y105.3343
G1 X99.6252 Y105.2728
G1 X99.9748 Y105.1977
G1 X100.3244 Y105.1042
G1 X100.6739 Y104.997
G1 X101.018 Y104.8687
G1 X101.373 Y104.7239
G1 X101.7226 Y104.5601
G1 X102.0722 Y104.3716
G1 X102.4217 Y104.1695
G1 X102.7713 Y103.9347
G1 X103.0744 Y103.7148
G1 X103.4704 Y103.3912
G1 X103.7872 Y103.099
G1 X104.1695 Y102.7017
G1 X104.4392 Y102.3869
G1 X104.6789 Y102.0722
G1 X105.1855 Y101.373
G1 X105.5678 Y100.891
G1 X105.7535 Y100.6739
G1 X106.2669 Y100.1537
G1 X106.469 Y99.9748
G1 X106.966 Y99.5556
G1 X107.2828 Y99.2757
G1 X107.6652 Y98.922
G1 X107.9901 Y98.5765
G1 X108.3643 Y98.1205
G1 X108.5404 Y97.8774
G1 X108.7753 Y97.5279
G1 X109.0634 Y97.0295
G1 X109.2075 Y96.7543
G1 X109.3351 Y96.4792
G1 X109.4813 Y96.1296
G1 X109.6055 Y95.78
G1 X109.7625 Y95.2762
G1 X109.8902 Y94.7314
G1 X109.9496 Y94.3818
G1 X109.9981 Y94.0322
G1 X110.0274 Y93.6827
G1 X110.0438 Y93.3331
G1 X110.0466 Y92.9836
G1 X110.0343 Y92.634
G1 X110.0029 Y92.2844
G1 X109.9612 Y91.9349
G1 X109.8397 Y91.2794
G1 X109.738 Y90.8862
G1 X109.5072 Y90.1871
G1 X109.2273 Y89.4879
G1 X100.6739 Y68.3203
G1 X100.6613 Y68.289
G1 X100.6594 Y68.1784
G1 X100.6868 Y68.0596
G1 X100.7422 Y67.951
G1 X100.8221 Y67.8591
G1 X100.922 Y67.7892
G1 X101.0223 Y67.7507
G1 X118.8512 Y67.7509
G1 X119.5503 Y67.7386
G1 X119.8998 Y67.7243
G1 X120.2494 Y67.6935
G1 X120.599 Y67.6526
G1 X120.9485 Y67.6007
G1 X121.2981 Y67.5392
G1 X121.6477 Y67.4641
G1 X122.3468 Y67.2798
G1 X123.0459 Y67.0436
G1 X123.3955 Y66.907
G1 X124.0884 Y66.5964
G1 X124.7937 Y66.2188
G1 X125.1433 Y66.0058
G1 X125.5748 Y65.7177
G1 X125.8424 Y65.5238
G1 X126.1558 Y65.2835
G1 X127.6121 Y64.0375
G1 X127.9398 Y63.7227
G1 X128.3528 Y63.2892
G1 X128.6703 Y62.9212
G1 X128.9475 Y62.5716
G1 X129.338 Y62.0214
G1 X129.6575 Y61.523
G1 X130.0371 Y60.832
G1 X130.2085 Y60.4743
G1 X130.5076 Y59.7751
G1 X130.6339 Y59.4256
G1 X130.851 Y58.7265
G1 X130.9397 Y58.3769
G1 X131.0845 Y57.6778
G1 X131.1835 Y56.9786
G1 X131.2156 Y56.6291
G1 X131.2483 Y55.93
G1 X131.2511 Y55.2308
G1 Y38.4518
G1 X131.2183 Y37.4032
G1 X131.1869 Y37.0536
G1 X131.0899 Y36.3545
G1 X130.9479 Y35.6553
G1 X130.8592 Y35.3058
G1 X130.754 Y34.9562
G1 X130.5192 Y34.2571
G1 X130.2229 Y33.558
G1 X130.0371 Y33.1674
G1 X129.676 Y32.5093
G1 X129.4609 Y32.1597
G1 X128.9721 Y31.4606
G1 X128.6389 Y31.0414
G1 X128.3986 Y30.7615
G1 X127.9398 Y30.2767
G1 X127.7186 Y30.0624
G1 X126.9198 Y29.3632
G1 X126.7143 Y29.1673
G1 X126.6347 Y29.077
G1 X126.3379 Y28.6847
G1 X124.5571 Y26.2603
G0 Z90.5
G0 X76.6966 Y75.5719
G0 Z66.75
G1 Z64.75 F#901
G1 X79.9905 Y74.3887 F#900
G1 X80.2641 Y74.2904
G1 X80.5445 Y74.2134
G1 X80.8298 Y74.1577
G1 X81.1185 Y74.123
G1 X81.4089 Y74.1088
G1 X81.6996 Y74.1147
G1 X81.9892 Y74.1401
G1 X82.2766 Y74.1843
G1 X82.5606 Y74.2466
G1 X82.8402 Y74.3262
G1 X83.1147 Y74.4221
G1 X83.3832 Y74.5337
G1 X83.6451 Y74.6599
G1 X83.9 Y74.8
G1 X84.1473 Y74.9529
G1 X84.3867 Y75.1179
G1 X84.618 Y75.2941
G1 X84.8411 Y75.4806
G1 X85.0558 Y75.6766
G1 X85.2622 Y75.8815
G1 X85.4604 Y76.0943
G1 X85.6503 Y76.3144
G1 X85.8323 Y76.5412
G1 X86.0066 Y76.774
G1 X86.333 Y77.2553
G1 X86.632 Y77.7541
G1 X86.9069 Y78.2665
G1 X87.1612 Y78.7896
G1 X87.3985 Y79.3206
G1 X87.6229 Y79.8571
G1 X88.4745 Y82.022
G1 X95.1765 Y98.5779
G1 X95.2707 Y98.7579
G1 X95.4854 Y99.0859
G1 X95.6198 Y99.2515
G1 X95.9449 Y99.5773
G1 X96.0899 Y99.6985
G1 X96.4037 Y99.9157
G1 X96.5515 Y100.001
G1 X96.8221 Y100.129
G1 X96.978 Y100.188
G1 X97.3124 Y100.2848
G1 X97.5102 Y100.3219
G1 X98.0058 Y100.3661
G1 X98.2114 Y100.3641
G1 X98.5671 Y100.3254
G1 X98.7445 Y100.2903
G1 X99.0916 Y100.1898
G1 X99.2661 Y100.1218
G1 X99.653 Y99.9295
G1 X99.8294 Y99.8185
G1 X100.1857 Y99.5412
G1 X100.3102 Y99.4269
G1 X100.5449 Y99.1637
G1 X101.2081 Y98.2622
G1 X102.0909 Y97.1984
G1 X102.8837 Y96.4051
G1 X104.051 Y95.3832
G1 X104.1558 Y95.2773
G1 X104.3086 Y95.0991
G1 X104.4082 Y94.9619
G1 X104.6236 Y94.6076
G1 X104.7129 Y94.4215
G1 X104.8687 Y93.9926
G1 X104.915 Y93.8205
G1 X104.9635 Y93.5504
G1 X104.9794 Y93.3958
G1 X104.9897 Y93.038
G1 X104.9796 Y92.8606
G1 X104.9265 Y92.4886
G1 X104.8892 Y92.3238
G1 X104.7517 Y91.8964
G1 X97.2091 Y73.225
G1 X97.1101 Y73.045
G1 X96.9997 Y72.924
G1 X96.8639 Y72.8324
G1 X96.7104 Y72.7754
G1 X96.5064 Y72.751
G1 X85.7928 Y72.7511
G1 X85.6057 Y72.7715
G1 X85.4634 Y72.8196
G1 X85.3349 Y72.8972
G1 X85.2261 Y73.0006
G1 X85.1422 Y73.1251
G1 X85.0871 Y73.2648
G1 X85.0634 Y73.4131
G1 X85.0722 Y73.5629
G1 X85.1235 Y73.744
G1 X87.1341 Y78.7108
G1 X87.1847 Y78.821
G1 X87.2447 Y78.9264
G1 X87.3132 Y79.0264
G1 X87.3896 Y79.1206
G1 X87.562 Y79.2909
G1 X87.7556 Y79.4368
G1 X87.9649 Y79.5591
G1 X88.1855 Y79.6598
G1 X88.4137 Y79.7418
G1 X88.6469 Y79.8083
G1 X89.1212 Y79.91
G1 X89.5987 Y79.9958
G1 X90.073 Y80.0975
G1 X90.3062 Y80.1641
G1 X90.5344 Y80.2461
G1 X90.7549 Y80.3469
G1 X90.9642 Y80.4693
G1 X91.1578 Y80.6152
G1 X91.3301 Y80.7856
G1 X91.4063 Y80.8799
G1 X91.4749 Y80.9799
G1 X91.5348 Y81.0853
G1 X91.5853 Y81.1956
G1 X96.046 Y92.2354
G1 X96.1404 Y92.5347
G1 X96.1868 Y92.845
G1 X96.22 Y93.3024
G1 X96.2739 Y93.6018
G1 X96.3759 Y93.9303
G1 X96.4908 Y94.1829
G1 X96.638 Y94.4299
G1 X96.7973 Y94.6418
G1 X96.961 Y94.8181
G1 X97.1354 Y94.9713
G1 X97.2973 Y95.0867
G1 X97.4991 Y95.2052
G1 X97.7565 Y95.3298
G1 X97.938 Y95.3976
G1 X98.151 Y95.4541
G1 X98.413 Y95.495
G1 X98.7002 Y95.5086
G1 X98.9771 Y95.4911
G1 X99.2504 Y95.4427
G1 X99.5287 Y95.3601
G1 X99.7759 Y95.2569
G1 X99.9803 Y95.1457
G1 X100.2373 Y94.964
G1 X100.297 Y94.9144
G1 X100.5224 Y94.6949
G1 X100.669 Y94.5141
G1 X100.8148 Y94.291
G1 X100.9472 Y94.0308
G1 X101.0314 Y93.8139
G1 X101.0845 Y93.6533
G1 X101.1783 Y93.2924
G1 X101.2252 Y93.0537
G1 X101.2761 Y92.6441
G1 X101.2856 Y92.4713
G1 X101.2852 Y92.2534
G1 X101.2671 Y92.0553
G1 X101.1828 Y91.6753
G1 X101.1342 Y91.5151
G1 X101.0407 Y91.2502
G1 X96.2735 Y79.4521
G1 X96.1794 Y79.154
G1 X96.1329 Y78.8449
G1 X96.1351 Y78.5324
G1 X96.186 Y78.224
G1 X96.2539 Y77.8986
G1 X96.2797 Y77.6324
G1 X96.2764 Y77.3468
G1 X96.2425 Y77.0713
G1 X96.1581 Y76.7379
G1 X96.0837 Y76.5404
G1 X95.9607 Y76.2916
G1 X95.7656 Y75.9963
G1 X95.594 Y75.7942
G1 X95.4346 Y75.642
G1 X95.2821 Y75.5226
G1 X95.0415 Y75.3681
G1 X94.835 Y75.2578
G1 X94.652 Y75.1799
G1 X94.4303 Y75.1112
G1 X94.1945 Y75.0636
G1 X93.9306 Y75.0382
G1 X93.6431 Y75.0416
G1 X93.3677 Y75.0755
G1 X93.0978 Y75.14
G1 X92.8368 Y75.2344
G1 X92.588 Y75.3573
G1 X92.2936 Y75.5519
G1 X92.0906 Y75.7246
G1 X91.9013 Y75.924
G1 X91.6702 Y76.2251
G1 X91.1909 Y76.9358
G1 X90.9796 Y77.2992
G1 X90.925 Y77.4096
G1 X90.8258 Y77.6487
G1 X90.7696 Y77.8358
G1 X90.7232 Y78.0699
G1 X90.6992 Y78.3215
G1 X90.7015 Y78.5885
G1 X90.7356 Y78.8778
G1 X90.794 Y79.1376
G1 X90.8469 Y79.3225
G1 X90.9541 Y79.6336
G1 X91.5853 Y81.1956
G1 X91.717 Y81.5599 Z64.753
G1 X91.8134 Y81.9107 Z64.7613
G1 X91.876 Y82.2475 Z64.7739
G1 X91.9061 Y82.5699 Z64.7899
G1 X91.9051 Y82.8775 Z64.8087
G1 X91.8746 Y83.1698 Z64.8299
G1 X91.816 Y83.4464 Z64.8531
G1 X91.7306 Y83.7068 Z64.8781
G1 X91.6199 Y83.9507 Z64.9047
G1 X91.4854 Y84.1774 Z64.933
G1 X91.3285 Y84.3867 Z64.9629
G1 X91.1505 Y84.5781 Z64.9945
G1 X90.9531 Y84.7511 Z65.0278
G1 X90.7375 Y84.9053 Z65.0629
G1 X90.5052 Y85.0402 Z65.0997
G1 X90.2577 Y85.1555 Z65.1382
G1 X89.9963 Y85.2506 Z65.1784
G1 X89.7226 Y85.3252 Z65.2201
G1 X89.4379 Y85.3788 Z65.2633
G1 X89.1437 Y85.4109 Z65.3077
G1 X88.8414 Y85.4211 Z65.3532
G1 X88.5325 Y85.409 Z65.3993
G1 X88.2183 Y85.3741 Z65.4459
G1 X87.9004 Y85.316 Z65.4925
G1 X87.5801 Y85.2343 Z65.5388
G1 X87.2588 Y85.1285 Z65.5844
G1 X86.9381 Y84.9981 Z65.6287
G1 X86.6194 Y84.8428 Z65.6713
G1 X86.304 Y84.6621 Z65.7116
G1 X85.9934 Y84.4555 Z65.749
G1 X85.6891 Y84.2226 Z65.783
G1 X85.3924 Y83.963 Z65.8128
G1 X84.9534 Y83.5528 Z65.8475
G1 X84.094 Y82.7499 Z65.875
G1 X83.8348 Y82.5077
G1 X82.2406 Y81.0182
G1 X80.8238 Y79.6945 Z65.7483
G1 X80.7195 Y79.597 Z65.7389
G1 X80.491 Y79.3835 Z65.7185
G1 X80.3534 Y79.255 Z65.7062
G1 X79.1618 Y78.1417 Z65.5996
G1 X77.6042 Y76.6863 Z65.4603 F#907
G1 X76.0465 Y75.231 Z65.321
G1 X75.7491 Y74.9405 Z65.2938
G1 X75.4708 Y74.6431 Z65.2672
G1 X75.2119 Y74.3398 Z65.2411
G1 X74.9725 Y74.0317 Z65.2156
G1 X74.7529 Y73.7198 Z65.1907
G1 X74.5534 Y73.4052 Z65.1663
G1 X74.3741 Y73.089 Z65.1426
G1 X74.2154 Y72.7722 Z65.1194
G1 X74.0775 Y72.4559 Z65.0968
G1 X73.9606 Y72.1412 Z65.0749
G1 X73.8649 Y71.829 Z65.0536
G1 X73.8251 Y71.6743 Z65.0431
G1 X73.7618 Y71.368 Z65.0227
G1 X73.7204 Y71.067 Z65.0028
G1 X73.701 Y70.7723 Z64.9835
G1 X73.7041 Y70.485 Z64.9647
G1 X73.7297 Y70.206 Z64.9464
G1 X73.7781 Y69.9366 Z64.9285
G1 X73.8496 Y69.6778 Z64.911
G1 X73.9444 Y69.4305 Z64.8936
G1 X74.0628 Y69.1959 Z64.8765
G1 X74.1818 Y69.009 Z64.862
G1 X74.205 Y68.975 Z64.8593 F#900
G1 X74.3712 Y68.769 Z64.842
G1 X74.5617 Y68.5787 Z64.8244
G1 X74.7767 Y68.4054 Z64.8063
G1 X75.0165 Y68.25 Z64.7876
G1 X75.2813 Y68.1137 Z64.7682
G1 X75.539 Y68.0096 Z64.75
G1 X75.7259 Y67.9471
G1 X76.0543 Y67.863
G1 X76.4086 Y67.8016
G1 X76.7889 Y67.7639
G1 X77.1956 Y67.7511
G1 X100.8893 Y67.751
G1 X101.0734 Y67.7617
G1 X101.3879 Y67.8134
G1 X104.3365 Y68.3569
G0 Z90.5
G0 X33.1097 Y118.7926
G0 Z66.75
G1 Z64.75 F#901
G1 X29.8203 Y119.9884 F#900
G1 X29.5774 Y120.0767
G1 X29.329 Y120.1478
G1 X29.0763 Y120.202
G1 X28.8206 Y120.2393
G1 X28.563 Y120.26
G1 X28.3046 Y120.2644
G1 X28.0465 Y120.2529
G1 X27.7894 Y120.2259
G1 X27.5344 Y120.1841
G1 X27.2822 Y120.1279
G1 X27.0334 Y120.0578
G1 X26.7887 Y119.9746
G1 X26.5487 Y119.8788
G1 X26.3138 Y119.7711
G1 X26.0844 Y119.6522
G1 X25.8608 Y119.5225
G1 X25.6433 Y119.3829
G1 X25.4322 Y119.2339
G1 X25.2275 Y119.0761
G1 X25.0293 Y118.9101
G1 X24.8378 Y118.7366
G1 X24.6529 Y118.556
G1 X24.3027 Y118.1759
G1 X23.9778 Y117.7739
G1 X23.6771 Y117.3536
G1 X23.3985 Y116.9182
G1 X23.1402 Y116.4705
G1 X22.8995 Y116.013
G1 X22.6739 Y115.5479
G1 X22.4606 Y115.0771
G1 X22.0591 Y114.1244
G1 X21.8648 Y113.6454
G1 X14.7068 Y95.9287
G1 X14.5989 Y95.7208
G1 X14.4833 Y95.574
G1 X14.342 Y95.4516
G1 X14.1804 Y95.3578
G1 X14.0039 Y95.2961
G1 X13.8191 Y95.2686
G1 X13.5851 Y95.2784
G1 X12.6553 Y95.4056
G1 X12.4386 Y95.4553
G1 X12.2754 Y95.5253
G1 X12.1274 Y95.6232
G1 X11.9992 Y95.7459
G1 X11.895 Y95.8896
G1 X11.818 Y96.0495
G1 X11.7708 Y96.2207
G1 X11.7509 Y96.4421
G1 Y119.083
G1 X11.7717 Y119.3093
G1 X11.821 Y119.4839
G1 X11.9216 Y119.6877
G1 X12.0643 Y119.9204
G1 X12.118 Y120.0204
G1 X12.3251 Y120.4681
G1 X18.9116 Y136.7721
G1 X19.0951 Y137.168
G1 X19.2272 Y137.3949
G1 X19.4503 Y137.7105
G1 X19.5361 Y137.8185
G1 X19.6333 Y137.9164
G1 X19.9776 Y138.2265
G1 X20.1938 Y138.3884
G1 X20.3697 Y138.4967
G1 X20.5384 Y138.5862
G1 X20.7155 Y138.6661
G1 X20.9122 Y138.7387
G1 X21.1765 Y138.8156
G1 X21.4242 Y138.8654
G1 X21.7556 Y138.9032
G1 X21.9159 Y138.9127
G1 X25.3759 Y138.933
G1 X27.2247 Y139.0769
G1 X27.4451 Y139.0781
G1 X27.7826 Y139.0548
G1 X27.9073 Y139.0399
G1 X28.0298 Y139.0124
G1 X28.4464 Y138.8968
G1 X28.6958 Y138.8028
G1 X28.8772 Y138.7152
G1 X29.1008 Y138.582
G1 X29.4307 Y138.3443
G1 X29.5287 Y138.2658
G1 X29.6182 Y138.1779
G1 X29.857 Y137.9186
G1 X29.9996 Y137.7375
G1 X30.1288 Y137.5443
G1 X30.2295 Y137.3691
G1 X30.3028 Y137.2191
G1 X30.3671 Y137.0663
G1 X30.4426 Y136.8547
G1 X30.4957 Y136.6687
G1 X30.5437 Y136.447
G1 X30.5719 Y136.2596
G1 X30.5836 Y136.1245
G1 X30.5873 Y135.9235
G1 X30.5681 Y135.5303
G1 X30.5403 Y135.3072
G1 X30.5142 Y135.1781
G1 X30.467 Y135.0016
G1 X30.3244 Y134.5833
G1 X23.1663 Y116.8666
G1 X23.1248 Y116.7862
G1 X23.0695 Y116.7146
G1 X23.0029 Y116.6534
G1 X22.9272 Y116.6038
G1 X22.8448 Y116.5663
G1 X22.7578 Y116.5413
G1 X22.6682 Y116.5282
G1 X22.5777 Y116.5268
G1 X22.4876 Y116.5361
G1 X22.3991 Y116.5553
G1 X22.2299 Y116.6194
G1 X22.0739 Y116.7111
G1 X21.9315 Y116.8229
G1 X21.8009 Y116.9485
G1 X21.3182 Y117.4889
G1 X21.185 Y117.6116
G1 X21.0393 Y117.7192
G1 X20.8799 Y117.8049
G1 X20.7079 Y117.8611
G1 X20.6185 Y117.8756
G1 X20.5281 Y117.8797
G1 X20.4378 Y117.8727
G1 X20.3493 Y117.8538
G1 X20.2643 Y117.8228
G1 X20.1849 Y117.7794
G1 X20.1133 Y117.724
G1 X20.0519 Y117.6575
G1 X20.0031 Y117.5814
G1 X19.969 Y117.4976
G1 X19.8624 Y117.1417
G1 X19.2781 Y114.2288
G1 X19.2019 Y113.9272
G1 X19.1431 Y113.7356
G1 X19.0234 Y113.4243
G1 X18.8933 Y113.1777
G1 X18.738 Y112.9498
G1 X18.5571 Y112.7394
G1 X18.3537 Y112.5506
G1 X18.1755 Y112.4153
G1 X17.9478 Y112.2742
G1 X17.7385 Y112.1724
G1 X17.4413 Y112.0689
G1 X17.3662 Y112.0492
G1 X17.0565 Y111.9933
G1 X16.8242 Y111.9791
G1 X16.5566 Y111.9901
G1 X16.2695 Y112.0331
G1 X15.9916 Y112.1071
G1 X15.7442 Y112.2023
G1 X15.5479 Y112.3024
G1 X15.3848 Y112.407
G1 X15.1595 Y112.583
G1 X14.9459 Y112.7838
G1 X14.8163 Y112.9347
G1 X14.6825 Y113.1255
G1 X14.5646 Y113.3362
G1 X14.4584 Y113.5822
G1 X14.3895 Y113.7951
G1 X14.331 Y114.0639
G1 X14.3027 Y114.3418
G1 X14.3086 Y114.6765
G1 X14.3253 Y114.8661
G1 X14.3729 Y115.199
G1 X15.0035 Y118.3867
G1 X15.0829 Y118.6997
G1 X15.1717 Y118.9516
G1 X21.2164 Y133.9319
G1 X21.3455 Y134.2129
G1 X21.5309 Y134.5393
G1 X21.6958 Y134.7657
G1 X21.8864 Y134.9829
G1 X22.0305 Y135.1158
G1 X22.213 Y135.257
G1 X22.8245 Y135.6864
G1 X23.1393 Y135.881
G1 X23.3486 Y135.9927
G1 X23.547 Y136.085
G1 X23.771 Y136.165
G1 X24.0738 Y136.2338
G1 X24.1507 Y136.245
G1 X24.4646 Y136.2659
G1 X24.6971 Y136.254
G1 X24.9618 Y136.213
G1 X25.2423 Y136.1381
G1 X25.5006 Y136.0368
G1 X25.6885 Y135.9408
G1 X25.922 Y135.7908
G1 X26.1857 Y135.57
G1 X26.3402 Y135.408
G1 X26.5059 Y135.1976
G1 X26.6351 Y134.9935
G1 X26.7392 Y134.785
G1 X26.8102 Y134.5993
G1 X26.885 Y134.3158
G1 X26.9326 Y134.0339
G1 X26.9469 Y133.8407
G1 X26.9415 Y133.6204
G1 X26.9075 Y133.3574
G1 X26.8402 Y133.0779
G1 X26.7467 Y132.819
G1 X26.5955 Y132.5218
G1 X26.4432 Y132.299
G1 X26.3922 Y132.2368
G1 X26.1733 Y132.0063
G1 X25.953 Y131.802
G1 X25.7538 Y131.588
G1 X25.5878 Y131.3473
G1 X25.4588 Y131.0849
G1 X19.969 Y117.4976
G1 X19.8418 Y117.1442 Z64.7528
G1 X19.7671 Y116.8484 Z64.7593
G1 X19.7483 Y116.7212 Z64.7631
G1 X19.741 Y116.6075 Z64.767
G1 X19.745 Y116.5068 Z64.7709
G1 X19.7596 Y116.4189 Z64.7747
G1 X19.7844 Y116.3434 Z64.7783
G1 X19.8189 Y116.28 Z64.7818
G1 X19.8626 Y116.2284 Z64.7853
G1 X19.915 Y116.1883 Z64.7888
G1 X19.9756 Y116.1593 Z64.7926
G1 X20.044 Y116.141 Z64.7967
G1 X20.1196 Y116.1333 Z64.8014
G1 X20.2019 Y116.1357 Z64.8067
G1 X20.385 Y116.1697 Z64.8195
G1 X20.5891 Y116.2404 Z64.836
G1 X20.8105 Y116.3451 Z64.8566
G1 X21.0452 Y116.4814 Z64.8816
G1 X21.2892 Y116.6466 Z64.9114
G1 X21.5387 Y116.8381 Z64.9459
G1 X21.7898 Y117.0532 Z64.985
G1 X22.0384 Y117.2895 Z65.0282
G1 X22.2808 Y117.5442 Z65.075
G1 X22.5129 Y117.8148 Z65.1245
G1 X22.7309 Y118.0987 Z65.176
G1 X22.9308 Y118.3933 Z65.2284
G1 X23.1087 Y118.6959 Z65.2809
G1 X23.2607 Y119.004 Z65.3325
G1 X23.3829 Y119.315 Z65.3825
G1 X23.4713 Y119.6263 Z65.4305
G1 X23.5016 Y119.7812 Z65.4536
G1 X23.5221 Y119.9352 Z65.476
G1 X23.5321 Y120.0879 Z65.4979
G1 X23.5312 Y120.2392 Z65.5192
G1 X23.519 Y120.3885 Z65.54
G1 X23.4949 Y120.5356 Z65.5603
G1 X23.4584 Y120.6802 Z65.5802
G1 X23.4091 Y120.8219 Z65.5998
G1 X23.3465 Y120.9604 Z65.6192
G1 X23.27 Y121.0954 Z65.6385
G1 X23.1792 Y121.2266 Z65.6577
G1 X23.0736 Y121.3536 Z65.6769
G1 X22.9527 Y121.4761 Z65.6963
G1 X22.816 Y121.5939 Z65.7156
G1 X22.6631 Y121.7064 Z65.735
G1 X22.3669 Y121.8875 Z65.7676
G1 X21.3517 Y122.4813 Z65.8475
G1 X20.6911 Y122.8676 Z65.8716
G1 X20.3366 Y123.075 Z65.875
G1 X18.8889 Y123.9217 F#907
G1 X13.4822 Y127.084
G1 X12.7973 Y127.475
G1 X12.4752 Y127.6505
G1 X11.8692 Y127.9595
G1 X11.3108 Y128.2102
G1 X11.0481 Y128.3128
G1 X10.7959 Y128.3998
G1 X10.5534 Y128.4708
G1 X10.3204 Y128.5254
G1 X10.0961 Y128.5634
G1 X9.8802 Y128.5843
G1 X9.7746 Y128.586
G1 X9.6722 Y128.5877 Z65.846
G1 X9.4714 Y128.5734 Z65.789
G1 X9.3305 Y128.5498 Z65.7486
G1 X9.2775 Y128.541 Z65.7333 F#900
G1 X9.0899 Y128.4901 Z65.6783
G1 X8.9081 Y128.4203 Z65.6232
G1 X8.7315 Y128.3313 Z65.5672
G1 X8.5258 Y128.1967 Z65.4975
G1 X8.3923 Y128.0944 Z65.4499
G1 X8.2286 Y127.9457 Z65.3873
G1 X8.0682 Y127.7764 Z65.3212
G1 X7.9105 Y127.5861 Z65.2513
G1 X7.7769 Y127.4042 Z65.1874
G1 X7.7551 Y127.3745 Z65.1769
G1 X7.6014 Y127.1412 Z65.0978
G1 X7.4489 Y126.8858 Z65.0136
G1 X7.2972 Y126.608 Z64.924
G1 X7.0277 Y126.0559 Z64.75
G1 X6.8412 Y125.6367
G1 X6.6873 Y125.2658
G1 X6.2054 Y124.073
G1 X6.3452 Y123.745
G1 X6.4629 Y123.3955
G1 X6.5616 Y123.0459
G1 X6.6351 Y122.6963
G1 X6.6922 Y122.3468
G1 X6.7277 Y121.9972
G1 X6.7468 Y121.6477
G1 X6.7509 Y120.9485
G1 Y92.0354
G1 X6.7974 Y91.9227
G1 X6.8713 Y91.8259
G1 X7.2589 Y91.5853
G1 X7.6904 Y91.289
G1 X8.2264 Y90.8862
G1 X8.3895 Y90.8643
G1 X9.0886 Y90.7974
G1 X10.4869 Y90.6459
G1 X11.186 Y90.5612
G1 X12.5842 Y90.3782
G1 X13.9825 Y90.1734
G1 X15.3807 Y89.9452
G1 X16.779 Y89.6941
G1 X17.8841 Y89.4783
G1 X18.3726 Y89.4204
G1 X21.3645 Y89.1084
G0 Z90.5
G0 X126.9035 Y28.6613
G0 Z73.75
G1 Z71.75 F#901
G1 X124.0274 Y26.6669 F#900
G1 X123.6951 Y26.4483
G1 X123.5988 Y26.3744
G1 X123.5242 Y26.2813
G1 X123.4704 Y26.1706
G1 X123.4363 Y26.0438
G1 X123.4209 Y25.9024
G1 X123.4231 Y25.7481
G1 X123.4422 Y25.5824
G1 X123.4769 Y25.4069
G1 X123.5262 Y25.223
G1 X123.5893 Y25.0323
G1 X123.6651 Y24.8364
G1 X123.8047 Y24.5298
G1 X123.8507 Y24.4353 Z71.6498 F#907
G1 X124.0749 Y24.0318 Z71.2097
G1 X124.3298 Y23.6386 Z70.7629
G1 X124.6073 Y23.2679 Z70.3214
G1 X124.8993 Y22.9322 Z69.8972
G1 X125.0483 Y22.7814 Z69.6951
G1 X125.1979 Y22.6439 Z69.5014
G1 X125.3471 Y22.5214 Z69.3174
G1 X125.4949 Y22.4154 Z69.144
G1 X125.6404 Y22.3275 Z68.982
G1 X125.7824 Y22.2591 Z68.8317
G1 X125.92 Y22.212 Z68.6929
G1 X126.0523 Y22.1875 Z68.5646
G1 X126.1781 Y22.1873 Z68.4445
G1 X126.2965 Y22.2129 Z68.3288
G1 X126.4065 Y22.2658 Z68.2123
G1 X126.5533 Y22.3637 Z68.044
G1 X126.638 Y22.4515 Z67.9275
G1 X126.7028 Y22.5583 Z67.8082
G1 X126.7487 Y22.6826 Z67.6818
G1 X126.7765 Y22.8227 Z67.5455
G1 X126.7864 Y23.0591 Z67.3199
G1 X126.7731 Y23.2317 Z67.1548
G1 X126.7451 Y23.4146 Z66.9784
G1 X126.7031 Y23.606 Z66.7916
G1 X126.6482 Y23.8044 Z66.5953
G1 X126.5812 Y24.0082 Z66.3909
G1 X126.4149 Y24.4253 Z65.9627
G1 X126.2114 Y24.8445 Z65.5185
G1 X126.0981 Y25.0508 Z65.2941
G1 X125.8528 Y25.4489 Z64.8483
G1 X125.6172 Y25.7789 Z64.4616
G1 X125.5889 Y25.8167 Z64.4222 F#900
G1 X125.4523 Y25.9853 Z64.2411
G1 X125.3138 Y26.1415 Z64.0668
G1 X125.1743 Y26.2836 Z63.9005
G1 X125.0347 Y26.4102 Z63.7433
G1 X124.8811 Y26.5294 Z63.5809
G1 X124.7592 Y26.61 Z63.5681
G1 X124.625 Y26.68 Z63.5548
G1 X124.4945 Y26.728 Z63.5427
G1 X124.3686 Y26.7523 Z63.5314
G1 X124.2481 Y26.7512 Z63.5209
G1 X124.1341 Y26.7233 Z63.5106
G1 X124.0274 Y26.6669 Z63.5
G1 X123.6868 Y26.4434
G1 X123.4477 Y26.2933 Z63.7521
G1 X123.212 Y26.1268 Z64.0098
G1 X122.9992 Y25.9518 Z64.2558
G1 X122.8289 Y25.7767 Z64.4741
G1 X122.7657 Y25.6916 Z64.5687
G1 X122.7205 Y25.6095 Z64.6524
G1 X122.6957 Y25.5314 Z64.7256
G1 X122.6917 Y25.4941 Z64.759
G1 X122.7021 Y25.424 Z64.8226
G1 X122.7389 Y25.3604 Z64.8885
G1 X122.8047 Y25.3044 Z64.9659
G1 X122.9018 Y25.257 Z65.0625
G1 X123.9713 Y24.9453 Z66.0572
G1 X124.9062 Y24.675 Z66.9262 F#907
G1 X125.201 Y24.5953 Z67.1989
G1 X125.479 Y24.5307 Z67.4537
G1 X125.7401 Y24.4805 Z67.6911
G1 X125.9841 Y24.4438 Z67.9114
G1 X126.2108 Y24.4199 Z68.115
G1 X126.4201 Y24.4078 Z68.3023
G1 X126.6119 Y24.4068 Z68.4734
G1 X126.7858 Y24.416 Z68.629
G1 X126.9418 Y24.4346 Z68.7693
G1 X127.0797 Y24.4618 Z68.8947
G1 X127.1992 Y24.4968 Z69.006
G1 X127.3004 Y24.5387 Z69.1037
G1 X127.3828 Y24.5867 Z69.1889
G1 X127.4465 Y24.64 Z69.2631
G1 X127.4912 Y24.6977 Z69.3283
G1 X127.5167 Y24.7591 Z69.3876
G1 X127.5229 Y24.8233 Z69.4452
G1 X127.5096 Y24.8894 Z69.5055
G1 X127.4766 Y24.9568 Z69.5724
G1 X127.4238 Y25.0244 Z69.649
G1 X127.351 Y25.0916 Z69.7375
G1 X127.2579 Y25.1574 Z69.8393
G1 X127.1445 Y25.2211 Z69.9554
G1 X127.0106 Y25.2819 Z70.0867
G1 X126.8559 Y25.3388 Z70.2339
G1 X126.6804 Y25.3911 Z70.3974
G1 X126.4838 Y25.438 Z70.5779
G1 X126.266 Y25.4786 Z70.7757
G1 X126.0268 Y25.5121 Z70.9914
G1 X125.766 Y25.5377 Z71.2254
G1 X125.4835 Y25.5546 Z71.4781
G1 X125.2207 Y25.5609 Z71.7128
G1 X125.1791 Y25.5619 Z71.75 F#900
G1 X122.6885 Y25.5794
G1 X122.2404 Y25.5763
G1 X122.0181 Y25.5511
G1 X121.8009 Y25.4977
G1 X121.6806 Y25.4587
G1 X121.2981 Y25.3248
G1 X120.9127 Y25.2042
G1 X120.6222 Y25.1123
G1 X120.3523 Y25.0164
G1 X120.1029 Y24.9171
G1 X119.8739 Y24.8147
G1 X119.6653 Y24.71
G1 X119.4769 Y24.6033
G1 X119.3087 Y24.4952
G1 X119.1605 Y24.3862
G1 X119.0322 Y24.2769
G1 X118.9238 Y24.1676
G1 X118.8351 Y24.0591
G1 X118.7661 Y23.9517
G1 X118.7166 Y23.846
G1 X118.6866 Y23.7425
G1 X118.6759 Y23.6418
G1 X118.6845 Y23.5443
G1 X118.7123 Y23.4505
G1 X118.7591 Y23.3611
G1 X118.8249 Y23.2764
G1 X118.9096 Y23.197
G1 X119.0131 Y23.1235
G1 X119.1946 Y23.0308
G1 X119.2759 Y22.996 Z71.6899 F#907
G1 X119.4351 Y22.943 Z71.576
G1 X119.6127 Y22.8979 Z71.4517
G1 X119.8086 Y22.8613 Z71.3164
G1 X120.0227 Y22.8336 Z71.1699
G1 X120.2549 Y22.8153 Z71.0118
G1 X120.5051 Y22.807 Z70.8419
G1 X120.7732 Y22.8091 Z70.66
G1 X121.0592 Y22.8223 Z70.4657
G1 X123.4288 Y23.0493 Z68.8501
G1 X125.4948 Y23.2516 Z67.4413
G1 X125.7962 Y23.2871 Z67.2353
G1 X126.0776 Y23.3318 Z67.0419
G1 X126.3391 Y23.3853 Z66.8608
G1 X126.5806 Y23.4468 Z66.6917
G1 X126.8021 Y23.5156 Z66.5342
G1 X127.0039 Y23.591 Z66.388
G1 X127.1857 Y23.6724 Z66.2528
G1 X127.3478 Y23.759 Z66.1281
G1 X127.4901 Y23.8503 Z66.0134
G1 X127.6126 Y23.9454 Z65.9081
G1 X127.7155 Y24.0438 Z65.8115
G1 X127.7986 Y24.1447 Z65.7228
G1 X127.8621 Y24.2474 Z65.6408
G1 X127.906 Y24.3513 Z65.5642
G1 X127.9304 Y24.4557 Z65.4915
G1 X127.9351 Y24.5599 Z65.4207
G1 X127.9204 Y24.6632 Z65.3499
G1 X127.8862 Y24.7649 Z65.277
G1 X127.8325 Y24.8644 Z65.2003
G1 X127.7595 Y24.961 Z65.1181
G1 X127.667 Y25.0539 Z65.0292
G1 X127.5552 Y25.1425 Z64.9324
G1 X127.4241 Y25.2262 Z64.8268
G1 X127.2738 Y25.3041 Z64.7119
G1 X127.1041 Y25.3758 Z64.5869
G1 X126.9153 Y25.4404 Z64.4514
G1 X126.7073 Y25.4972 Z64.3051
G1 X126.5546 Y25.5298 Z64.1992
G1 X126.4801 Y25.5457 Z64.1541 F#900
G1 X126.2338 Y25.585 Z64.0064
G1 X125.9685 Y25.6146 Z63.8484
G1 X125.684 Y25.6338 Z63.6797
G1 X125.3806 Y25.6418 Z63.5
G1 X122.89 Y25.6593
G1 X122.4419 Y25.6562
G1 X122.2196 Y25.631
G1 X122.0024 Y25.5776
G1 X121.8821 Y25.5386
G1 X121.6477 Y25.4457
G1 X121.2981 Y25.3248
G1 X120.8797 Y25.1944
G1 X120.6961 Y25.1328
G1 X120.5284 Y25.0627
G1 X120.3764 Y24.9847
G1 X120.2397 Y24.8993
G1 X120.118 Y24.807
G1 X120.0112 Y24.7084
G1 X119.919 Y24.6041
G1 X119.841 Y24.4945
G1 X119.7771 Y24.3804
G1 X119.7269 Y24.2621
G1 X119.6903 Y24.1403
G1 X119.6694 Y24.0291
G1 X119.6668 Y24.0155 F#907
G1 X119.6563 Y23.8882
G1 X119.6585 Y23.7591
G1 X119.6732 Y23.6286
G1 X119.7 Y23.4973
G1 X119.7386 Y23.3657
G1 X119.789 Y23.2345
G1 X119.8507 Y23.1041
G1 X119.9235 Y22.9752
G1 X120.0071 Y22.8482
G1 X120.1013 Y22.7237
G1 X120.2058 Y22.6023
G1 X120.3203 Y22.4844
G1 X120.4446 Y22.3708
G1 X120.5784 Y22.2618
G1 X120.7214 Y22.1581
G1 X120.8734 Y22.0603
G1 X121.0342 Y21.9687
G1 X121.2033 Y21.8841
G1 X121.3807 Y21.807
G1 X122.3506 Y21.4684
G1 X122.5284 Y21.4174
G1 X122.7007 Y21.3873
G1 X122.8671 Y21.3769
G1 X123.0272 Y21.3851
G1 X123.1806 Y21.4107
G1 X123.327 Y21.4526
G1 X123.4658 Y21.5094
G1 X123.5968 Y21.5801
G1 X123.7195 Y21.6635
G1 X123.8335 Y21.7583
G1 X123.9384 Y21.8634
G1 X124.0339 Y21.9776
G1 X124.1195 Y22.0998
G1 X124.1948 Y22.2286
G1 X124.2594 Y22.3631
G1 X124.313 Y22.5019
G1 X124.3551 Y22.6438
G1 X124.3853 Y22.7878
G1 X124.4033 Y22.9326
G1 X124.4086 Y23.077
G1 X124.4009 Y23.2198
G1 X124.3797 Y23.3599
G1 X124.3446 Y23.4961
G1 X124.2953 Y23.6272
G1 X124.2313 Y23.752
G1 X124.1523 Y23.8693
G1 X124.0579 Y23.9779
G1 X123.9476 Y24.0767
G1 X123.821 Y24.1644
G1 X123.6778 Y24.24
G1 X123.5176 Y24.3021
G1 X123.3399 Y24.3497
G1 X120.9042 Y24.8701 F#900
G1 X120.4647 Y24.9576
G1 X120.2419 Y24.9779
G1 X120.0184 Y24.9695
G1 X119.8927 Y24.9556
G1 X119.3095 Y24.8601
G1 X119.2007 Y24.8442
G1 X118.8512 Y24.8039
G1 X118.5016 Y24.7773
G1 X118.152 Y24.7616
G1 X117.4529 Y24.7493
G1 X111.3546
G1 X110.9003
G1 X110.8888 Y24.7441
G1 X114.028 Y23.1966
G0 Z90.5
( OPERATION 400: T193 3D OPTIMIZED ROUGHING )
#900=2387. (XY FEEDRATE)
#901=796. (Z FEEDRATE)
S7958.
G0 X-141.0647 Y-91.3954
G0 Z90.5
G0 Z62.75
G1 Z60.75 F#901
G1 X-137.6019 Y-90.8862 F#900
G1 X-137.3614 Y-90.8508
G1 X-137.1282 Y-90.7821
G1 X-136.9064 Y-90.6825
G1 X-136.6994 Y-90.5549
G1 X-136.51 Y-90.4024
G1 X-136.3404 Y-90.2282
G1 X-136.1919 Y-90.0356
G1 X-136.0656 Y-89.8277
G1 X-135.9619 Y-89.6078
G1 X-135.8808 Y-89.3785
G1 X-135.822 Y-89.1425
G1 X-135.7847 Y-88.9021
G1 X-135.7682 Y-88.6594
G1 X-135.7712 Y-88.4162
G1 X-135.7926 Y-88.1739
G1 X-135.8311 Y-87.9337
G1 X-135.8852 Y-87.6965
G1 X-135.9536 Y-87.463
G1 X-136.0349 Y-87.2337
G1 X-136.1277 Y-87.0089
G1 X-136.2307 Y-86.7884
G1 X-136.4621 Y-86.3605
G1 X-136.7193 Y-85.9474
G1 X-136.9934 Y-85.5454
G1 X-137.2761 Y-85.1493
G1 X-137.8355 Y-84.3529
G1 X-138.0958 Y-83.9419
G1 X-138.3318 Y-83.5164
G1 X-138.4376 Y-83.2974
G1 X-138.5337 Y-83.0738
G1 X-138.6186 Y-82.8459
G1 X-138.6912 Y-82.6137
G1 X-138.7498 Y-82.3776
G1 X-138.7932 Y-82.1382
G1 X-138.8389 Y-81.7281
G1 X-138.9944 Y-79.8252
G1 X-139.0002 Y-79.4436
G1 X-138.9905 Y-79.2475
G1 X-138.9687 Y-79.0282
G1 X-138.9231 Y-78.7937
G1 X-138.828 Y-78.4989
G1 X-138.7984 Y-78.4272
G1 X-138.6522 Y-78.1381
G1 X-138.531 Y-77.9532
G1 X-138.3854 Y-77.7725
G1 X-138.1475 Y-77.5367
G1 X-137.945 Y-77.3777
G1 X-137.7496 Y-77.2526
G1 X-137.5526 Y-77.1522
G1 X-137.2494 Y-77.0384
G1 X-136.9234 Y-76.9615
G1 X-136.693 Y-76.9335
G1 X-136.472 Y-76.9285
G1 X-136.1494 Y-76.9576
G1 X-136.0728 Y-76.9704
G1 X-135.7584 Y-77.0486
G1 X-135.5513 Y-77.1256
G1 X-135.3427 Y-77.2274
G1 X-135.0598 Y-77.4068
G1 X-134.8598 Y-77.5689
G1 X-134.6944 Y-77.7316
G1 X-134.5527 Y-77.9012
G1 X-134.3742 Y-78.1716
G1 X-134.3365 Y-78.2395
G1 X-134.2047 Y-78.528
G1 X-134.1341 Y-78.7464
G1 X-134.0823 Y-78.9764
G1 X-134.0398 Y-79.2194
G1 X-134.0086 Y-79.4501
G1 X-133.8154 Y-81.4308
G1 X-133.7496 Y-81.7799
G1 X-133.6232 Y-82.1119
G1 X-132.9699 Y-83.444
G1 X-132.1646 Y-84.8477
G1 X-130.6072 Y-87.2728
G1 X-126.9671 Y-92.4823
G1 X-123.9526 Y-96.4761
G1 X-119.5307 Y-101.8887
G1 X-118.0211 Y-103.6012
G1 X-116.7063 Y-104.9343
G1 X-116.6058 Y-105.0291
G1 X-115.4313 Y-106.0575
G1 X-114.0822 Y-107.1067
G1 X-112.5948 Y-108.1545
G1 X-112.4073 Y-108.3004
G1 X-112.2122 Y-108.4837
G1 X-112.0823 Y-108.6207
G1 X-111.8413 Y-108.9098
G1 X-111.3789 Y-109.5432
G1 X-111.2033 Y-109.7527
G1 X-111.0009 Y-109.9363
G1 X-110.7753 Y-110.0906
G1 X-110.493 Y-110.2565
G1 X-110.1969 Y-110.4503
G1 X-110.0193 Y-110.5848
G1 X-109.8541 Y-110.7339
G1 X-109.6405 Y-110.9758
G1 X-109.5937 Y-111.0378
G1 X-109.4244 Y-111.3031
G1 X-109.3231 Y-111.5126
G1 X-109.2316 Y-111.7644
G1 X-109.1624 Y-112.0463
G1 X-109.1253 Y-112.3314
G1 X-109.1195 Y-112.5965
G1 X-109.1375 Y-112.8161
G1 X-109.1723 Y-113.0067
G1 X-109.2496 Y-113.2819
G1 X-109.3543 Y-113.5558
G1 X-109.4447 Y-113.733
G1 X-109.6878 Y-114.1447
G1 X-109.7874 Y-114.4189
G1 X-109.84 Y-114.7059
G1 X-109.8451 Y-114.9977
G1 X-109.8035 Y-115.2865
G1 X-109.7172 Y-115.5652
G1 X-109.5891 Y-115.8274
G1 X-109.4231 Y-116.0675
G1 X-109.2237 Y-116.2806
G1 X-108.9958 Y-116.4628
G1 X-108.7445 Y-116.6113
G1 X-108.4752 Y-116.724
G1 X-108.1933 Y-116.7995
G1 X-107.9039 Y-116.8377
G1 X-107.6119 Y-116.8387
G1 X-107.3222 Y-116.8035
G1 X-107.0387 Y-116.7336
G1 X-106.7655 Y-116.6308
G1 X-106.5057 Y-116.4975
G1 X-106.2624 Y-116.3362
G1 X-106.0378 Y-116.1496
G1 X-105.8339 Y-115.9406
G1 X-105.6522 Y-115.7121
G1 X-105.4937 Y-115.4668
G1 X-105.3591 Y-115.2077
G1 X-105.2488 Y-114.9373
G1 X-105.1627 Y-114.6583
G1 X-105.1005 Y-114.373
G1 X-105.0618 Y-114.0835
G1 X-105.0458 Y-113.7919
G1 X-105.0517 Y-113.4999
G1 X-105.0786 Y-113.2091
G1 X-105.1252 Y-112.9208
G1 X-105.1905 Y-112.6362
G1 X-105.2733 Y-112.3561
G1 X-105.3723 Y-112.0813
G1 X-105.4863 Y-111.8124
G1 X-105.6142 Y-111.5498
G1 X-105.7546 Y-111.2937
G1 X-105.9066 Y-111.0443
G1 X-106.0689 Y-110.8014
G1 X-106.2405 Y-110.5651
G1 X-106.4204 Y-110.3349
G1 X-106.9073 Y-109.7625
G1 X-107.2173 Y-109.3775
G1 X-107.4412 Y-109.0634
G1 X-107.6652 Y-108.7125
G1 X-107.87 Y-108.3643
G1 X-108.2209 Y-107.6652
G1 X-108.3643 Y-107.3211
G1 X-108.4954 Y-106.966
G1 X-108.6114 Y-106.6165
G1 X-108.7944 Y-105.9174
G1 X-108.8613 Y-105.5678
G1 X-108.9196 Y-105.1783
G1 X-108.954 Y-105.1102
G1 X-109.0223 Y-105.0266
G1 X-109.1069 Y-104.9597
G1 X-109.1724 Y-104.9277
G1 X-109.7625 Y-104.8482
G1 X-110.1121 Y-104.7915
G1 X-110.8112 Y-104.631
G1 X-111.1608 Y-104.538
G1 X-111.5104 Y-104.4275
G1 X-111.8599 Y-104.3061
G1 X-112.2123 Y-104.1695
G1 X-112.559 Y-104.0221
G1 X-112.9086 Y-103.8605
G1 X-113.2582 Y-103.6826
G1 X-113.6391 Y-103.4704
G1 X-113.9573 Y-103.2779
G1 X-114.3068 Y-103.0478
G1 X-114.6987 Y-102.7713
G1 X-115.0271 Y-102.518
G1 X-115.3555 Y-102.2429
G1 X-115.8007 Y-101.8373
G1 X-116.2499 Y-101.373
G1 X-116.8671 Y-100.6739
G1 X-118.152 Y-99.1635
G1 X-119.2185 Y-97.8774
G1 X-120.3505 Y-96.4792
G1 X-121.6477 Y-94.8431
G1 X-123.3374 Y-92.634
G1 X-124.6299 Y-90.8862
G1 X-125.8424 Y-89.2012
G1 X-127.1055 Y-87.3906
G1 X-128.057 Y-85.9923
G1 X-129.4404 Y-83.8949
G1 X-129.6575 Y-83.5454
G1 X-130.0371 Y-82.8558
G1 X-130.2119 Y-82.4967
G1 X-130.5041 Y-81.7976
G1 X-130.6284 Y-81.465
G1 X-130.7472 Y-81.0984
G1 X-130.9397 Y-80.3993
G1 X-131.0135 Y-80.0497
G1 X-131.1398 Y-79.3506
G1 X-131.1841 Y-79.0011
G1 X-131.2374 Y-78.3019
G1 X-131.2511 Y-77.6028
G1 Y-76.2046
G1 X-131.2224 Y-75.5054
G1 X-131.1925 Y-75.1157
G1 X-131.1399 Y-74.6914
G1 X-131.1573 Y-74.6054
G1 X-131.1992 Y-74.5092
G1 X-131.2602 Y-74.4239
G1 X-131.33 Y-74.3601
G1 X-131.4354 Y-74.3188
G1 X-131.9033 Y-74.1072
G1 X-132.4841 Y-73.8041
G1 X-132.8336 Y-73.591
G1 X-133.1108 Y-73.4081
G1 X-133.5328 Y-73.094
G1 X-133.9998 Y-72.7089
G1 X-134.2319 Y-72.4918
G1 X-134.4743 Y-72.2508
G1 X-134.7003 Y-72.0098
G1 X-134.931 Y-71.734
G1 X-135.2669 Y-71.3107
G1 X-135.4567 Y-71.0396
G1 X-135.7285 Y-70.6116
G1 X-135.9244 Y-70.262
G1 X-136.1012 Y-69.9124
G1 X-136.3293 Y-69.4099
G1 X-136.532 Y-68.8638
G1 X-136.6406 Y-68.5142
G1 X-136.8154 Y-67.8151
G1 X-136.9301 Y-67.1159
G1 X-136.9676 Y-66.7664
G1 X-137.0004 Y-66.0673
G1 X-136.9929 Y-65.7177
G1 X-136.9465 Y-65.0186
G1 X-136.8427 Y-64.3194
G1 X-136.7676 Y-63.9699
G1 X-136.6788 Y-63.6203
G1 X-136.5744 Y-63.2708
G1 X-136.4563 Y-62.9212
G1 X-136.3293 Y-62.5908
G1 X-136.1695 Y-62.2221
G1 X-135.9954 Y-61.8725
G1 X-135.8077 Y-61.523
G1 X-135.6301 Y-61.2321
G1 X-135.3625 Y-60.8238
G1 X-134.931 Y-60.2585
G1 X-134.5364 Y-59.8161
G1 X-134.2319 Y-59.5075
G1 X-133.8373 Y-59.1498
G1 X-133.5328 Y-58.904
G1 X-133.1832 Y-58.6418
G1 X-132.8336 Y-58.4097
G1 X-132.5018 Y-58.2062
G1 X-132.1345 Y-58.0082
G1 X-131.785 Y-57.835
G1 X-131.3285 Y-57.6393
G1 X-131.2578 Y-57.5762
G1 X-131.1945 Y-57.4887
G1 X-131.1516 Y-57.3897
G1 X-131.1384 Y-57.3225
G1 X-131.1917 Y-56.8875
G1 X-131.2156 Y-56.6291
G1 X-131.2483 Y-55.93
G1 X-131.2511 Y-55.2308
G1 Y-38.4518
G1 X-131.2347 Y-37.7527
G1 X-131.1869 Y-37.0536
G1 X-131.1383 Y-36.6898
G1 X-131.1535 Y-36.6107
G1 X-131.1957 Y-36.5121
G1 X-131.258 Y-36.4248
G1 X-131.3268 Y-36.3624
G1 X-131.785 Y-36.1654
G1 X-132.1345 Y-35.9899
G1 X-132.5018 Y-35.7933
G1 X-132.8336 Y-35.5912
G1 X-133.1832 Y-35.3577
G1 X-133.5328 Y-35.0941
G1 X-133.8373 Y-34.8483
G1 X-134.2319 Y-34.492
G1 X-134.4681 Y-34.2571
G1 X-134.7119 Y-33.9956
G1 X-135.0744 Y-33.558
G1 X-135.34 Y-33.2084
G1 X-135.5755 Y-32.8588
G1 X-135.8152 Y-32.4635
G1 X-136.1531 Y-31.8102
G1 X-136.3088 Y-31.4606
G1 X-136.4429 Y-31.2149
G1 X-136.6142 Y-30.9936
G1 X-136.8179 Y-30.8016
G1 X-137.0485 Y-30.643
G1 X-137.3003 Y-30.5205
G1 X-137.5672 Y-30.4362
G1 X-137.8435 Y-30.391
G1 X-138.1234 Y-30.3849
G1 X-138.4015 Y-30.4173
G1 X-138.6727 Y-30.4867
G1 X-138.9326 Y-30.591
G1 X-139.177 Y-30.7277
G1 X-139.4024 Y-30.8938
G1 X-139.6059 Y-31.0861
G1 X-139.7852 Y-31.3012
G1 X-139.9385 Y-31.5356
G1 X-140.0644 Y-31.7857
G1 X-140.1622 Y-32.0481
G1 X-140.2316 Y-32.3194
G1 X-140.2726 Y-32.5965
G1 X-140.2857 Y-32.8763
G1 X-140.2715 Y-33.156
G1 X-140.2312 Y-33.4332
G1 X-140.1658 Y-33.7055
G1 X-140.0768 Y-33.9711
G1 X-139.9656 Y-34.2282
G1 X-139.8339 Y-34.4754
G1 X-139.6831 Y-34.7115
G1 X-139.515 Y-34.9355
G1 X-139.3311 Y-35.1469
G1 X-139.133 Y-35.345
G1 X-138.9223 Y-35.5296
G1 X-138.7004 Y-35.7005
G1 X-138.4686 Y-35.8579
G1 X-138.2282 Y-36.0018
G1 X-137.9805 Y-36.1327
G1 X-137.7265 Y-36.2508
G1 X-137.4671 Y-36.3568
G1 X-137.2033 Y-36.4511
G1 X-136.9359 Y-36.5345
G1 X-136.6654 Y-36.6076
G1 X-136.1178 Y-36.726
G1 X-135.5553 Y-36.8213
G1 X-135.2789 Y-36.9005
G1 X-135.0333 Y-37.0004
G1 X-134.8389 Y-37.1041
G1 X-134.6778 Y-37.2117
G1 X-134.4559 Y-37.392
G1 X-134.2866 Y-37.5537
G1 X-134.1554 Y-37.7032
G1 X-134.0132 Y-37.9034
G1 X-133.8986 Y-38.103
G1 X-133.807 Y-38.3041
G1 X-133.7066 Y-38.6121
G1 X-133.6883 Y-38.6876
G1 X-133.6383 Y-38.9982
G1 X-133.6285 Y-39.2308
G1 X-133.6418 Y-39.4836
G1 X-133.6771 Y-39.7226
G1 X-133.7347 Y-39.9582
G1 X-133.9834 Y-40.6211
G1 X-134.0433 Y-40.8983
G1 X-134.0634 Y-41.1812
G1 Y-54.2716
G1 X-134.0806 Y-54.6002
G1 X-134.1077 Y-54.8469
G1 X-134.1552 Y-55.118
G1 X-134.2163 Y-55.3314
G1 X-134.2871 Y-55.5096
G1 X-134.417 Y-55.7643
G1 X-134.5397 Y-55.9637
G1 X-134.6584 Y-56.1232
G1 X-134.8151 Y-56.2944
G1 X-134.9947 Y-56.4544
G1 X-135.2099 Y-56.6094
G1 X-135.5198 Y-56.7803
G1 X-135.7867 Y-56.8872
G1 X-136.042 Y-56.9588
G1 X-136.2791 Y-56.9994
G1 X-136.5107 Y-57.0152
G1 X-136.7094 Y-57.0086
G1 X-136.9418 Y-56.9802
G1 X-137.2219 Y-56.9229
G1 X-137.4073 Y-56.8666
G1 X-137.6108 Y-56.782
G1 X-137.8438 Y-56.6554
G1 X-138.0802 Y-56.4919
G1 X-138.2991 Y-56.3012
G1 X-138.4811 Y-56.1046
G1 X-138.6261 Y-55.9115
G1 X-138.7465 Y-55.712
G1 X-138.8321 Y-55.5325
G1 X-138.9293 Y-55.2559
G1 X-138.9992 Y-54.9786
G1 X-139.049 Y-54.6063
G1 X-139.0634 Y-54.2984
G1 Y-39.6854
G1 X-139.0525 Y-39.423
G1 X-139.037 Y-39.2538
G1 X-138.9785 Y-38.9066
G1 X-138.8832 Y-38.5936
G1 X-138.7805 Y-38.3598
G1 X-138.6402 Y-38.1153
G1 X-138.487 Y-37.9025
G1 X-138.314 Y-37.7109
G1 X-138.0525 Y-37.4898
G1 X-137.7633 Y-37.2874
G1 X-137.4297 Y-37.1048
G1 X-137.1543 Y-36.9803
G1 X-137.028 Y-36.9304
G1 X-136.6521 Y-36.8167
G1 X-136.3415 Y-36.7667
G1 X-136.1089 Y-36.7569
G1 X-135.8415 Y-36.7729
G1 X-136.3088 Y-31.4606
G1 X-136.5669 Y-30.7615
G1 X-136.7594 Y-30.0624
G1 X-136.8365 Y-29.7128
G1 X-136.9424 Y-29.0137
G1 X-136.9738 Y-28.6641
G1 X-137.0011 Y-27.965
G1 X-136.9656 Y-27.2659
G1 X-136.9355 Y-26.9163
G1 X-136.8222 Y-26.2172
G1 X-136.7444 Y-25.8676
G1 X-136.5436 Y-25.1685
G1 X-136.4406 Y-24.879
G1 X-136.2787 Y-24.4694
G1 X-136.119 Y-24.1198
G1 X-135.9428 Y-23.7702
G1 X-135.5305 Y-23.0711
G1 X-135.2874 Y-22.7215
G1 X-134.931 Y-22.2586
G1 X-134.6729 Y-21.9658
G1 X-134.4012 Y-21.6729
G1 X-134.2319 Y-21.5076
G1 X-133.9274 Y-21.2298
G1 X-133.6229 Y-20.9737
G1 X-133.1832 Y-20.6419
G1 X-132.8336 Y-20.4098
G1 X-132.6138 Y-20.2746
G1 X-132.1345 Y-20.0075
G1 X-131.785 Y-19.8345
G1 X-131.3287 Y-19.6394
G1 X-131.2575 Y-19.5749
G1 X-131.1954 Y-19.4881
G1 X-131.1531 Y-19.39
G1 X-131.1389 Y-19.3175
G1 X-131.1937 Y-18.8764
G1 X-131.2237 Y-18.5268
G1 X-131.2374 Y-18.1772
G1 X-131.2511 Y-17.4781
G1 Y17.4781
G1 X-131.2401 Y18.1772
G1 X-131.2237 Y18.5268
G1 X-131.1937 Y18.8764
G1 X-131.1392 Y19.3201
G1 X-131.1527 Y19.3895
G1 X-131.1949 Y19.4876
G1 X-131.257 Y19.5745
G1 X-131.33 Y19.6407
G1 X-131.4354 Y19.6806
G1 X-131.785 Y19.8349
G1 X-132.1345 Y20.0111
G1 X-132.6165 Y20.2746
G1 X-132.8336 Y20.4098
G1 X-133.1832 Y20.6419
G1 X-133.5328 Y20.9055
G1 X-133.9274 Y21.2277
G1 X-134.4012 Y21.6729
G1 X-134.6811 Y21.9692
G1 X-134.931 Y22.2655
G1 X-135.2901 Y22.7215
G1 X-135.4129 Y22.8604
G1 X-135.5505 Y22.9846
G1 X-135.7011 Y23.0927
G1 X-135.8626 Y23.1835
G1 X-136.0332 Y23.2561
G1 X-136.2106 Y23.3098
G1 X-136.3927 Y23.3443
G1 X-136.5774 Y23.3592
G1 X-136.7627 Y23.3548
G1 X-136.9466 Y23.3312
G1 X-137.127 Y23.2888
G1 X-137.3023 Y23.2284
G1 X-137.4705 Y23.1507
G1 X-137.6303 Y23.0567
G1 X-137.7801 Y22.9475
G1 X-137.9186 Y22.8243
G1 X-138.0447 Y22.6884
G1 X-138.1573 Y22.5412
G1 X-138.2557 Y22.3841
G1 X-138.3391 Y22.2185
G1 X-138.4071 Y22.0461
G1 X-138.4592 Y21.8682
G1 X-138.4953 Y21.6864
G1 X-138.5152 Y21.5021
G1 X-138.5191 Y21.3167
G1 X-138.5071 Y21.1317
G1 X-138.4795 Y20.9484
G1 X-138.4366 Y20.768
G1 X-138.3791 Y20.5918
G1 X-138.3075 Y20.4208
G1 X-138.2223 Y20.2561
G1 X-138.1245 Y20.0987
G1 X-138.0147 Y19.9493
G1 X-137.8937 Y19.8088
G1 X-137.7625 Y19.6778
G1 X-137.6219 Y19.557
G1 X-137.4728 Y19.4468
G1 X-137.3161 Y19.3477
G1 X-137.1528 Y19.26
G1 X-136.9837 Y19.1839
G1 X-136.8098 Y19.1197
G1 X-136.6319 Y19.0673
G1 X-136.451 Y19.027
G1 X-136.0387 Y18.9612
G1 X-135.837 Y18.9078
G1 X-135.6413 Y18.8359
G1 X-135.3356 Y18.6838
G1 X-135.1363 Y18.5611
G1 X-134.9767 Y18.4424
G1 X-134.8056 Y18.2857
G1 X-134.6455 Y18.1061
G1 X-134.4906 Y17.8909
G1 X-134.3196 Y17.581
G1 X-134.2132 Y17.3151
G1 X-134.1414 Y17.0584
G1 X-134.096 Y16.7872
G1 X-134.0728 Y16.4083
G1 Y-16.4085
G1 X-134.1044 Y-16.8531
G1 X-134.1568 Y-17.1191
G1 X-134.2193 Y-17.3294
G1 X-134.3506 Y-17.6834
G1 X-134.4225 Y-17.8355
G1 X-134.6448 Y-18.1999
G1 X-134.7601 Y-18.3608
G1 X-134.883 Y-18.515
G1 X-135.0185 Y-18.6588
G1 X-135.1824 Y-18.8013
G1 X-135.3996 Y-18.9534
G1 X-135.6515 Y-19.0921
G1 X-135.9802 Y-19.2235
G1 X-136.2364 Y-19.2916
G1 X-136.4541 Y-19.3259
G1 X-136.6475 Y-19.3369
G1 X-136.9333 Y-19.3267
G1 X-137.2241 Y-19.2895
G1 X-137.4175 Y-19.2434
G1 X-137.5946 Y-19.185
G1 X-137.8063 Y-19.0947
G1 X-138.0006 Y-18.9893
G1 X-138.2661 Y-18.8038
G1 X-138.3262 Y-18.7546
G1 X-138.5532 Y-18.5367
G1 X-138.7011 Y-18.357
G1 X-138.8493 Y-18.1338
G1 X-138.983 Y-17.8762
G1 X-139.0863 Y-17.6078
G1 X-139.1544 Y-17.3516
G1 X-139.1886 Y-17.1339
G1 X-139.1997 Y-16.9405
G1 X-139.1864 Y-16.6107
G1 X-139.1403 Y-16.2507
G1 X-139.0997 Y-16.0348
G1 X-139.0634 Y-15.6561
G1 X-139.0541 Y16.4088
G1 X-139.0306 Y16.7927
G1 X-138.9871 Y17.0617
G1 X-138.9282 Y17.2839
G1 X-138.8196 Y17.5653
G1 X-138.7274 Y17.7415
G1 X-138.601 Y17.9385
G1 X-138.4278 Y18.166
G1 X-138.2967 Y18.3086
G1 X-138.1322 Y18.4553
G1 X-137.917 Y18.6102
G1 X-137.6671 Y18.7523
G1 X-137.4003 Y18.8668
G1 X-137.1443 Y18.9455
G1 X-136.916 Y18.9908
G1 X-136.6023 Y19.0154
G1 X-136.156 Y18.9897
G1 X-136.0439 Y18.9902
G1 X-135.9323 Y18.9999
G1 X-135.7131 Y19.046
G1 X-135.5037 Y19.1255
G1 X-135.3086 Y19.2356
G1 X-135.1313 Y19.3725
G1 X-134.9747 Y19.5327
G1 X-134.8407 Y19.7123
G1 X-134.7305 Y19.9074
G1 X-134.6449 Y20.1145
G1 X-134.5837 Y20.33
G1 X-134.5466 Y20.5511
G1 X-134.5327 Y20.7747
G1 X-134.5409 Y20.9987
G1 X-134.5698 Y21.221
G1 X-134.6181 Y21.4399
G1 X-134.6839 Y21.6541
G1 X-134.7658 Y21.8628
G1 X-134.8621 Y22.0652
G1 X-134.9712 Y22.2611
G1 X-135.0916 Y22.4502
G1 X-135.2901 Y22.7215
G1 X-135.5305 Y23.0711
G1 X-135.6301 Y23.2322
G1 X-135.9401 Y23.7702
G1 X-136.1176 Y24.1198
G1 X-136.3293 Y24.5895
G1 X-136.5436 Y25.1685
G1 X-136.6488 Y25.518
G1 X-136.8229 Y26.2172
G1 X-136.9335 Y26.9163
G1 X-136.9697 Y27.2659
G1 X-137.0011 Y27.965
G1 X-136.9908 Y28.3145
G1 X-136.9437 Y29.0137
G1 X-136.8365 Y29.7128
G1 X-136.7608 Y30.0624
G1 X-136.67 Y30.4119
G1 X-136.5655 Y30.7615
G1 X-136.4542 Y31.0858
G1 X-136.3088 Y31.4606
G1 X-136.1531 Y31.8102
G1 X-135.9783 Y32.1597
G1 X-135.5755 Y32.8588
G1 X-135.3393 Y33.2084
G1 X-134.931 Y33.7423
G1 X-134.4681 Y34.2571
G1 X-134.2319 Y34.492
G1 X-133.7116 Y34.9562
G1 X-133.1832 Y35.3584
G1 X-132.8336 Y35.5912
G1 X-132.4301 Y35.8342
G1 X-131.785 Y36.166
G1 X-131.3191 Y36.3653
G1 X-131.2604 Y36.4176
G1 X-131.1969 Y36.5052
G1 X-131.1538 Y36.6045
G1 X-131.1401 Y36.6743
G1 X-131.1869 Y37.0536
G1 X-131.233 Y37.6421
G1 X-131.2511 Y38.4518
G1 Y55.2308
G1 X-131.2483 Y55.93
G1 X-131.1911 Y56.8971
G1 X-131.1405 Y57.3165
G1 X-131.1559 Y57.3931
G1 X-131.1983 Y57.4903
G1 X-131.2603 Y57.5764
G1 X-131.3312 Y57.6404
G1 X-131.785 Y57.8348
G1 X-132.1345 Y58.0082
G1 X-132.4301 Y58.1652
G1 X-132.8336 Y58.4097
G1 X-133.1832 Y58.6418
G1 X-133.5328 Y58.904
G1 X-133.9718 Y59.2699
G1 X-134.2319 Y59.5075
G1 X-134.5364 Y59.8161
G1 X-134.931 Y60.2585
G1 X-135.3625 Y60.8238
G1 X-135.6301 Y61.2321
G1 X-135.8077 Y61.523
G1 X-135.9954 Y61.8725
G1 X-136.1695 Y62.2221
G1 X-136.3293 Y62.5908
G1 X-136.9614 Y57.0962
G1 X-136.6986 Y57.1768
G1 X-136.4369 Y57.2274
G1 X-136.1515 Y57.2512
G1 X-135.7978 Y57.2369
G1 X-135.5361 Y57.1945
G1 X-135.3233 Y57.1368
G1 X-135.1423 Y57.068
G1 X-134.8856 Y56.942
G1 X-134.6353 Y56.7893
G1 X-134.4775 Y56.6683
G1 X-134.3074 Y56.509
G1 X-134.1487 Y56.327
G1 X-133.9942 Y56.1081
G1 X-133.8533 Y55.8543
G1 X-133.7468 Y55.5981
G1 X-133.6696 Y55.3315
G1 X-133.6311 Y55.124
G1 X-133.6068 Y54.7809
G1 X-133.6219 Y54.5038
G1 X-133.668 Y54.2302
G1 X-133.7542 Y53.9278
G1 X-133.9188 Y53.5158
G1 X-134.027 Y53.1494
G1 X-134.0634 Y52.7692
G1 Y39.7014
G1 X-134.0759 Y39.4212
G1 X-134.0903 Y39.2611
G1 X-134.1565 Y38.8712
G1 X-134.2513 Y38.5635
G1 X-134.3381 Y38.3622
G1 X-134.4359 Y38.1778
G1 X-134.5545 Y37.978
G1 X-134.7465 Y37.6971
G1 X-134.87 Y37.5497
G1 X-134.9869 Y37.4353
G1 X-135.1718 Y37.2835
G1 X-135.3821 Y37.1421
G1 X-135.5942 Y37.0266
G1 X-135.808 Y36.9347
G1 X-136.1097 Y36.8451
G1 X-136.1856 Y36.8289
G1 X-136.4976 Y36.7876
G1 X-136.7303 Y36.7842
G1 X-136.9971 Y36.8077
G1 X-137.2819 Y36.864
G1 X-137.556 Y36.9508
G1 X-137.7987 Y37.0575
G1 X-137.9902 Y37.1667
G1 X-138.1482 Y37.2787
G1 X-138.3651 Y37.4651
G1 X-138.5298 Y37.6314
G1 X-138.6567 Y37.7845
G1 X-138.786 Y37.9773
G1 X-138.899 Y38.1896
G1 X-138.9977 Y38.4325
G1 X-139.091 Y38.7775
G1 X-139.1298 Y39.0569
G1 X-139.1368 Y39.3281
G1 X-139.1175 Y39.5856
G1 X-139.0793 Y39.8875
G1 X-139.0634 Y40.1389
G1 Y54.2864
G1 X-139.048 Y54.5983
G1 X-139.0323 Y54.7564
G1 X-138.9908 Y55.0183
G1 X-138.9151 Y55.3021
G1 X-138.8063 Y55.579
G1 X-138.6722 Y55.8314
G1 X-138.4875 Y56.0955
G1 X-138.4388 Y56.1548
G1 X-138.259 Y56.3393
G1 X-138.0543 Y56.5077
G1 X-137.9045 Y56.6164
G1 X-137.7268 Y56.7315
G1 X-137.5619 Y56.8219
G1 X-137.276 Y56.9634
G1 X-136.9614 Y57.0962
G1 X-136.3293 Y62.5908
G1 X-136.4563 Y62.9212
G1 X-136.5744 Y63.2708
G1 X-136.6788 Y63.6203
G1 X-136.7676 Y63.9699
G1 X-136.8427 Y64.3194
G1 X-136.9465 Y65.0186
G1 X-136.9929 Y65.7177
G1 X-136.9997 Y66.0673
G1 X-136.9635 Y66.7664
G1 X-136.9314 Y67.1159
G1 X-136.8154 Y67.8151
G1 X-136.7369 Y68.1646
G1 X-136.5327 Y68.8638
G1 X-136.3293 Y69.4099
G1 X-136.2228 Y69.6612
G1 X-135.9258 Y70.262
G1 X-135.7271 Y70.6116
G1 X-135.4574 Y71.0396
G1 X-135.2628 Y71.3107
G1 X-134.931 Y71.7422
G1 X-134.4743 Y72.2508
G1 X-134.2319 Y72.4918
G1 X-133.9943 Y72.7089
G1 X-133.5328 Y73.0954
G1 X-133.1108 Y73.4081
G1 X-132.8336 Y73.591
G1 X-132.4841 Y73.8034
G1 X-131.9033 Y74.1072
G1 X-131.4354 Y74.3188
G1 X-131.3305 Y74.3597
G1 X-131.2603 Y74.4237
G1 X-131.1994 Y74.5089
G1 X-131.1575 Y74.6049
G1 X-131.1387 Y74.6969
G1 X-131.1925 Y75.1198
G1 X-131.2251 Y75.5054
G1 X-131.2511 Y76.2046
G1 Y77.6028
G1 X-131.2292 Y78.3019
G1 X-131.1841 Y79.0011
G1 X-131.14 Y79.3506
G1 X-131.0165 Y80.0497
G1 X-130.9397 Y80.3993
G1 X-130.7472 Y81.0984
G1 X-130.5041 Y81.7976
G1 X-130.2119 Y82.4967
G1 X-130.0371 Y82.8558
G1 X-129.6555 Y83.5454
G1 X-129.4404 Y83.8949
G1 X-127.9398 Y86.1657
G1 X-127.2407 Y87.1953
G1 X-126.1346 Y88.7888
G1 X-125.1364 Y90.1871
G1 X-123.745 Y92.0878
G1 X-122.542 Y93.6827
G1 X-121.4619 Y95.0809
G1 X-120.2494 Y96.6089
G1 X-119.7578 Y97.1783
G1 X-119.5503 Y97.4009
G1 X-119.3038 Y97.6473
G1 X-118.8512 Y98.0618
G1 X-118.533 Y98.3287
G1 X-118.2148 Y98.5765
G1 X-117.7955 Y98.8716
G1 X-117.7399 Y98.9505
G1 X-117.6969 Y99.058
G1 X-117.6797 Y99.1726
G1 X-117.6893 Y99.288
G1 X-117.7252 Y99.3981
G1 X-117.7703 Y99.4721
G1 X-118.152 Y99.7819
G1 X-118.533 Y100.1352
G1 X-118.8512 Y100.4636
G1 X-119.0355 Y100.6739
G1 X-119.3038 Y101.003
G1 X-119.5503 Y101.3266
G1 X-119.8159 Y101.7226
G1 X-120.0296 Y102.0722
G1 X-120.39 Y102.7713
G1 X-120.5443 Y103.1209
G1 X-120.7983 Y103.82
G1 X-120.9485 Y104.3648
G1 X-121.0646 Y104.8687
G1 X-121.1697 Y105.5678
G1 X-124.1113 Y101.997
G1 X-123.7251 Y101.9377
G1 X-123.4643 Y101.8663
G1 X-123.2363 Y101.7798
G1 X-122.9583 Y101.639
G1 X-122.7738 Y101.5185
G1 X-122.6228 Y101.3972
G1 X-122.4176 Y101.198
G1 X-122.2632 Y101.0221
G1 X-122.1457 Y100.8616
G1 X-122.0283 Y100.6614
G1 X-121.9283 Y100.4427
G1 X-121.8328 Y100.1556
G1 X-121.7785 Y99.9082
G1 X-121.7503 Y99.6772
G1 X-121.7492 Y99.3625
G1 X-121.7909 Y99.0302
G1 X-121.8452 Y98.8045
G1 X-121.9134 Y98.6074
G1 X-121.9998 Y98.4176
G1 X-122.1721 Y98.1274
G1 X-122.312 Y97.9344
G1 X-122.445 Y97.7817
G1 X-122.674 Y97.5731
G1 X-122.8477 Y97.4459
G1 X-123.0848 Y97.3032
G1 X-123.4104 Y97.0753
G1 X-123.6845 Y96.7876
G1 X-124.7732 Y95.3886
G1 X-128.3463 Y90.5587
G1 X-131.8105 Y85.4439
G1 X-132.8419 Y83.6957
G1 X-132.9138 Y83.5621
G1 X-133.6301 Y82.0982
G1 X-133.7535 Y81.7799
G1 X-133.8209 Y81.4452
G1 X-133.9746 Y80.058
G1 X-134.0396 Y78.7288
G1 X-134.0829 Y78.314
G1 X-134.1596 Y77.9416
G1 X-134.2673 Y77.6307
G1 X-134.3626 Y77.4313
G1 X-134.4809 Y77.2339
G1 X-134.6268 Y77.0364
G1 X-134.7608 Y76.8894
G1 X-134.933 Y76.7308
G1 X-135.1582 Y76.5547
G1 X-135.3213 Y76.4501
G1 X-135.5176 Y76.35
G1 X-135.8004 Y76.2424
G1 X-136.0452 Y76.1776
G1 X-136.2749 Y76.1397
G1 X-136.5892 Y76.1252
G1 X-136.6668 Y76.1277
G1 X-136.9795 Y76.1624
G1 X-137.2063 Y76.215
G1 X-137.4597 Y76.3019
G1 X-137.6636 Y76.3941
G1 X-137.9149 Y76.5394
G1 X-138.131 Y76.6976
G1 X-138.3038 Y76.8535
G1 X-138.5112 Y77.0902
G1 X-138.6977 Y77.3684
G1 X-138.8048 Y77.5743
G1 X-138.8812 Y77.7643
G1 X-138.9413 Y77.9672
G1 X-138.9936 Y78.2446
G1 X-139.0319 Y78.6209
G1 X-139.0332 Y78.8118
G1 X-139.0026 Y79.7752
G1 X-138.9895 Y79.9738
G1 X-138.7565 Y82.3502
G1 X-138.6896 Y82.7564
